gsw_meta:1030                                     
%++++1++%
(1001)++++2++1001
(T12 D=1.4 CR=0 - ZMIN=-1 - flat end mill)++++3++T12 D=1.4 CR=0 - ZMIN=-1 - flat end mill
G90 G94++G90 G94++4++
G17++G17++5++
G21++G21++6++
G28 G91 Z0++G28 G91 Z0++7++
G90++G90++8++
++++9++
(2D Contour1)++++10++2D Contour1
M9++M9++11++
T12 M6++T12 M6++12++
Z10++G0X0Y0Z1++13++
Z10++G0X0Y0Z2++13++
Z10++G0X0Y0Z3++13++
Z10++G0X0Y0Z4++13++
Z10++G0X0Y0Z5++13++
Z10++G0X0Y0Z6++13++
Z10++G0X0Y0Z7++13++
Z10++G0X0Y0Z8++13++
Z10++G0X0Y0Z9++13++
Z10++G0X0Y0Z10++13++
G54++G54++14++
M8++M8++15++
G0 X13.86 Y29.12++G0X0.42Y0.8824Z10++16++
G0 X13.86 Y29.12++G0X0.84Y1.7648Z10++16++
G0 X13.86 Y29.12++G0X1.26Y2.6473Z10++16++
G0 X13.86 Y29.12++G0X1.68Y3.5297Z10++16++
G0 X13.86 Y29.12++G0X2.1Y4.4121Z10++16++
G0 X13.86 Y29.12++G0X2.52Y5.2945Z10++16++
G0 X13.86 Y29.12++G0X2.94Y6.177Z10++16++
G0 X13.86 Y29.12++G0X3.36Y7.0594Z10++16++
G0 X13.86 Y29.12++G0X3.78Y7.9418Z10++16++
G0 X13.86 Y29.12++G0X4.2Y8.8242Z10++16++
G0 X13.86 Y29.12++G0X4.62Y9.7067Z10++16++
G0 X13.86 Y29.12++G0X5.04Y10.5891Z10++16++
G0 X13.86 Y29.12++G0X5.46Y11.4715Z10++16++
G0 X13.86 Y29.12++G0X5.88Y12.3539Z10++16++
G0 X13.86 Y29.12++G0X6.3Y13.2364Z10++16++
G0 X13.86 Y29.12++G0X6.72Y14.1188Z10++16++
G0 X13.86 Y29.12++G0X7.14Y15.0012Z10++16++
G0 X13.86 Y29.12++G0X7.56Y15.8836Z10++16++
G0 X13.86 Y29.12++G0X7.98Y16.7661Z10++16++
G0 X13.86 Y29.12++G0X8.4Y17.6485Z10++16++
G0 X13.86 Y29.12++G0X8.82Y18.5309Z10++16++
G0 X13.86 Y29.12++G0X9.24Y19.4133Z10++16++
G0 X13.86 Y29.12++G0X9.66Y20.2958Z10++16++
G0 X13.86 Y29.12++G0X10.08Y21.1782Z10++16++
G0 X13.86 Y29.12++G0X10.5Y22.0606Z10++16++
G0 X13.86 Y29.12++G0X10.92Y22.943Z10++16++
G0 X13.86 Y29.12++G0X11.34Y23.8255Z10++16++
G0 X13.86 Y29.12++G0X11.76Y24.7079Z10++16++
G0 X13.86 Y29.12++G0X12.18Y25.5903Z10++16++
G0 X13.86 Y29.12++G0X12.6Y26.4727Z10++16++
G0 X13.86 Y29.12++G0X13.02Y27.3552Z10++16++
G0 X13.86 Y29.12++G0X13.44Y28.2376Z10++16++
G0 X13.86 Y29.12++G0X13.86Y29.12Z10++16++
S1000 M3++S1000 M3++17++
Z5++G0X13.86Y29.12Z9++18++
Z5++G0X13.86Y29.12Z8++18++
Z5++G0X13.86Y29.12Z7++18++
Z5++G0X13.86Y29.12Z6++18++
Z5++G0X13.86Y29.12Z5++18++
G1 Z2 F200++F200++19++
G1 Z2 F200++G1X13.86Y29.12Z4++19++
G1 Z2 F200++G1X13.86Y29.12Z3++19++
G1 Z2 F200++G1X13.86Y29.12Z2++19++
Z-0.86++G1X13.86Y29.12Z1.0467++20++
Z-0.86++G1X13.86Y29.12Z0.0933++20++
Z-0.86++G1X13.86Y29.12Z-0.86++20++
G19 G2 Y28.98 Z-1 J-0.14++G19++21++
G19 G2 Y28.98 Z-1 J-0.14++G1X13.86Y29.1012Z-0.93++21++
G19 G2 Y28.98 Z-1 J-0.14++G1X13.86Y29.05Z-0.9812++21++
G19 G2 Y28.98 Z-1 J-0.14++G1X13.86Y28.98Z-1++21++
G1 Y28.84++G1X13.86Y28.84Z-1++22++
G17 G3 X14 Y28.7 I0.14++G17++23++
G17 G3 X14 Y28.7 I0.14++G1X13.8788Y28.77Z-1++23++
G17 G3 X14 Y28.7 I0.14++G1X13.93Y28.7188Z-1++23++
G17 G3 X14 Y28.7 I0.14++G1X14Y28.7Z-1++23++
G2 Y-0.7 J-14.7++G1X14.1Y28.6997Z-1++24++
G2 Y-0.7 J-14.7++G1X14.1999Y28.6986Z-1++24++
G2 Y-0.7 J-14.7++G1X14.2999Y28.6969Z-1++24++
G2 Y-0.7 J-14.7++G1X14.3998Y28.6946Z-1++24++
G2 Y-0.7 J-14.7++G1X14.4997Y28.6915Z-1++24++
G2 Y-0.7 J-14.7++G1X14.5996Y28.6878Z-1++24++
G2 Y-0.7 J-14.7++G1X14.6995Y28.6833Z-1++24++
G2 Y-0.7 J-14.7++G1X14.7993Y28.6783Z-1++24++
G2 Y-0.7 J-14.7++G1X14.8991Y28.6725Z-1++24++
G2 Y-0.7 J-14.7++G1X14.9988Y28.666Z-1++24++
G2 Y-0.7 J-14.7++G1X15.0985Y28.6589Z-1++24++
G2 Y-0.7 J-14.7++G1X15.1982Y28.6511Z-1++24++
G2 Y-0.7 J-14.7++G1X15.2978Y28.6426Z-1++24++
G2 Y-0.7 J-14.7++G1X15.3973Y28.6334Z-1++24++
G2 Y-0.7 J-14.7++G1X15.4968Y28.6236Z-1++24++
G2 Y-0.7 J-14.7++G1X15.5962Y28.6131Z-1++24++
G2 Y-0.7 J-14.7++G1X15.6955Y28.6019Z-1++24++
G2 Y-0.7 J-14.7++G1X15.7948Y28.59Z-1++24++
G2 Y-0.7 J-14.7++G1X15.894Y28.5775Z-1++24++
G2 Y-0.7 J-14.7++G1X15.993Y28.5643Z-1++24++
G2 Y-0.7 J-14.7++G1X16.092Y28.5504Z-1++24++
G2 Y-0.7 J-14.7++G1X16.1909Y28.5358Z-1++24++
G2 Y-0.7 J-14.7++G1X16.2897Y28.5206Z-1++24++
G2 Y-0.7 J-14.7++G1X16.3884Y28.5047Z-1++24++
G2 Y-0.7 J-14.7++G1X16.487Y28.4881Z-1++24++
G2 Y-0.7 J-14.7++G1X16.5854Y28.4709Z-1++24++
G2 Y-0.7 J-14.7++G1X16.6838Y28.4529Z-1++24++
G2 Y-0.7 J-14.7++G1X16.782Y28.4344Z-1++24++
G2 Y-0.7 J-14.7++G1X16.8801Y28.4151Z-1++24++
G2 Y-0.7 J-14.7++G1X16.978Y28.3952Z-1++24++
G2 Y-0.7 J-14.7++G1X17.0759Y28.3746Z-1++24++
G2 Y-0.7 J-14.7++G1X17.1735Y28.3534Z-1++24++
G2 Y-0.7 J-14.7++G1X17.2711Y28.3314Z-1++24++
G2 Y-0.7 J-14.7++G1X17.3684Y28.3089Z-1++24++
G2 Y-0.7 J-14.7++G1X17.4657Y28.2856Z-1++24++
G2 Y-0.7 J-14.7++G1X17.5627Y28.2617Z-1++24++
G2 Y-0.7 J-14.7++G1X17.6596Y28.2372Z-1++24++
G2 Y-0.7 J-14.7++G1X17.7563Y28.212Z-1++24++
G2 Y-0.7 J-14.7++G1X17.8529Y28.1861Z-1++24++
G2 Y-0.7 J-14.7++G1X17.9493Y28.1596Z-1++24++
G2 Y-0.7 J-14.7++G1X18.0455Y28.1324Z-1++24++
G2 Y-0.7 J-14.7++G1X18.1415Y28.1045Z-1++24++
G2 Y-0.7 J-14.7++G1X18.2373Y28.0761Z-1++24++
G2 Y-0.7 J-14.7++G1X18.3329Y28.0469Z-1++24++
G2 Y-0.7 J-14.7++G1X18.4283Y28.0171Z-1++24++
G2 Y-0.7 J-14.7++G1X18.5235Y27.9867Z-1++24++
G2 Y-0.7 J-14.7++G1X18.6185Y27.9556Z-1++24++
G2 Y-0.7 J-14.7++G1X18.7133Y27.9239Z-1++24++
G2 Y-0.7 J-14.7++G1X18.8079Y27.8915Z-1++24++
G2 Y-0.7 J-14.7++G1X18.9022Y27.8585Z-1++24++
G2 Y-0.7 J-14.7++G1X18.9964Y27.8248Z-1++24++
G2 Y-0.7 J-14.7++G1X19.0903Y27.7905Z-1++24++
G2 Y-0.7 J-14.7++G1X19.1839Y27.7556Z-1++24++
G2 Y-0.7 J-14.7++G1X19.2773Y27.72Z-1++24++
G2 Y-0.7 J-14.7++G1X19.3705Y27.6838Z-1++24++
G2 Y-0.7 J-14.7++G1X19.4634Y27.647Z-1++24++
G2 Y-0.7 J-14.7++G1X19.5561Y27.6095Z-1++24++
G2 Y-0.7 J-14.7++G1X19.6485Y27.5714Z-1++24++
G2 Y-0.7 J-14.7++G1X19.7407Y27.5327Z-1++24++
G2 Y-0.7 J-14.7++G1X19.8326Y27.4934Z-1++24++
G2 Y-0.7 J-14.7++G1X19.9242Y27.4534Z-1++24++
G2 Y-0.7 J-14.7++G1X20.0155Y27.4128Z-1++24++
G2 Y-0.7 J-14.7++G1X20.1066Y27.3716Z-1++24++
G2 Y-0.7 J-14.7++G1X20.1974Y27.3298Z-1++24++
G2 Y-0.7 J-14.7++G1X20.2879Y27.2873Z-1++24++
G2 Y-0.7 J-14.7++G1X20.3781Y27.2442Z-1++24++
G2 Y-0.7 J-14.7++G1X20.468Y27.2006Z-1++24++
G2 Y-0.7 J-14.7++G1X20.5576Y27.1563Z-1++24++
G2 Y-0.7 J-14.7++G1X20.6469Y27.1114Z-1++24++
G2 Y-0.7 J-14.7++G1X20.7359Y27.0659Z-1++24++
G2 Y-0.7 J-14.7++G1X20.8246Y27.0198Z-1++24++
G2 Y-0.7 J-14.7++G1X20.913Y26.9731Z-1++24++
G2 Y-0.7 J-14.7++G1X21.0011Y26.9258Z-1++24++
G2 Y-0.7 J-14.7++G1X21.0888Y26.8779Z-1++24++
G2 Y-0.7 J-14.7++G1X21.1762Y26.8294Z-1++24++
G2 Y-0.7 J-14.7++G1X21.2633Y26.7803Z-1++24++
G2 Y-0.7 J-14.7++G1X21.35Y26.7306Z-1++24++
G2 Y-0.7 J-14.7++G1X21.4364Y26.6803Z-1++24++
G2 Y-0.7 J-14.7++G1X21.5225Y26.6294Z-1++24++
G2 Y-0.7 J-14.7++G1X21.6082Y26.578Z-1++24++
G2 Y-0.7 J-14.7++G1X21.6935Y26.526Z-1++24++
G2 Y-0.7 J-14.7++G1X21.7785Y26.4734Z-1++24++
G2 Y-0.7 J-14.7++G1X21.8631Y26.4202Z-1++24++
G2 Y-0.7 J-14.7++G1X21.9474Y26.3664Z-1++24++
G2 Y-0.7 J-14.7++G1X22.0313Y26.3121Z-1++24++
G2 Y-0.7 J-14.7++G1X22.1149Y26.2572Z-1++24++
G2 Y-0.7 J-14.7++G1X22.198Y26.2017Z-1++24++
G2 Y-0.7 J-14.7++G1X22.2808Y26.1457Z-1++24++
G2 Y-0.7 J-14.7++G1X22.3632Y26.0891Z-1++24++
G2 Y-0.7 J-14.7++G1X22.4452Y26.032Z-1++24++
G2 Y-0.7 J-14.7++G1X22.5268Y25.9743Z-1++24++
G2 Y-0.7 J-14.7++G1X22.6081Y25.916Z-1++24++
G2 Y-0.7 J-14.7++G1X22.6889Y25.8572Z-1++24++
G2 Y-0.7 J-14.7++G1X22.7693Y25.7978Z-1++24++
G2 Y-0.7 J-14.7++G1X22.8493Y25.7379Z-1++24++
G2 Y-0.7 J-14.7++G1X22.929Y25.6775Z-1++24++
G2 Y-0.7 J-14.7++G1X23.0082Y25.6165Z-1++24++
G2 Y-0.7 J-14.7++G1X23.0869Y25.555Z-1++24++
G2 Y-0.7 J-14.7++G1X23.1653Y25.4929Z-1++24++
G2 Y-0.7 J-14.7++G1X23.2432Y25.4303Z-1++24++
G2 Y-0.7 J-14.7++G1X23.3208Y25.3672Z-1++24++
G2 Y-0.7 J-14.7++G1X23.3978Y25.3036Z-1++24++
G2 Y-0.7 J-14.7++G1X23.4745Y25.2394Z-1++24++
G2 Y-0.7 J-14.7++G1X23.5507Y25.1747Z-1++24++
G2 Y-0.7 J-14.7++G1X23.6265Y25.1095Z-1++24++
G2 Y-0.7 J-14.7++G1X23.7018Y25.0438Z-1++24++
G2 Y-0.7 J-14.7++G1X23.7766Y24.9776Z-1++24++
G2 Y-0.7 J-14.7++G1X23.8511Y24.9108Z-1++24++
G2 Y-0.7 J-14.7++G1X23.925Y24.8436Z-1++24++
G2 Y-0.7 J-14.7++G1X23.9985Y24.7759Z-1++24++
G2 Y-0.7 J-14.7++G1X24.0716Y24.7076Z-1++24++
G2 Y-0.7 J-14.7++G1X24.1442Y24.6389Z-1++24++
G2 Y-0.7 J-14.7++G1X24.2163Y24.5697Z-1++24++
G2 Y-0.7 J-14.7++G1X24.2879Y24.5Z-1++24++
G2 Y-0.7 J-14.7++G1X24.3591Y24.4298Z-1++24++
G2 Y-0.7 J-14.7++G1X24.4298Y24.3591Z-1++24++
G2 Y-0.7 J-14.7++G1X24.5Y24.2879Z-1++24++
G2 Y-0.7 J-14.7++G1X24.5697Y24.2163Z-1++24++
G2 Y-0.7 J-14.7++G1X24.6389Y24.1442Z-1++24++
G2 Y-0.7 J-14.7++G1X24.7076Y24.0716Z-1++24++
G2 Y-0.7 J-14.7++G1X24.7759Y23.9985Z-1++24++
G2 Y-0.7 J-14.7++G1X24.8436Y23.925Z-1++24++
G2 Y-0.7 J-14.7++G1X24.9108Y23.8511Z-1++24++
G2 Y-0.7 J-14.7++G1X24.9776Y23.7766Z-1++24++
G2 Y-0.7 J-14.7++G1X25.0438Y23.7018Z-1++24++
G2 Y-0.7 J-14.7++G1X25.1095Y23.6265Z-1++24++
G2 Y-0.7 J-14.7++G1X25.1747Y23.5507Z-1++24++
G2 Y-0.7 J-14.7++G1X25.2394Y23.4745Z-1++24++
G2 Y-0.7 J-14.7++G1X25.3036Y23.3978Z-1++24++
G2 Y-0.7 J-14.7++G1X25.3672Y23.3208Z-1++24++
G2 Y-0.7 J-14.7++G1X25.4303Y23.2432Z-1++24++
G2 Y-0.7 J-14.7++G1X25.4929Y23.1653Z-1++24++
G2 Y-0.7 J-14.7++G1X25.555Y23.0869Z-1++24++
G2 Y-0.7 J-14.7++G1X25.6165Y23.0082Z-1++24++
G2 Y-0.7 J-14.7++G1X25.6775Y22.929Z-1++24++
G2 Y-0.7 J-14.7++G1X25.7379Y22.8493Z-1++24++
G2 Y-0.7 J-14.7++G1X25.7978Y22.7693Z-1++24++
G2 Y-0.7 J-14.7++G1X25.8572Y22.6889Z-1++24++
G2 Y-0.7 J-14.7++G1X25.916Y22.6081Z-1++24++
G2 Y-0.7 J-14.7++G1X25.9743Y22.5268Z-1++24++
G2 Y-0.7 J-14.7++G1X26.032Y22.4452Z-1++24++
G2 Y-0.7 J-14.7++G1X26.0891Y22.3632Z-1++24++
G2 Y-0.7 J-14.7++G1X26.1457Y22.2808Z-1++24++
G2 Y-0.7 J-14.7++G1X26.2017Y22.198Z-1++24++
G2 Y-0.7 J-14.7++G1X26.2572Y22.1149Z-1++24++
G2 Y-0.7 J-14.7++G1X26.3121Y22.0313Z-1++24++
G2 Y-0.7 J-14.7++G1X26.3664Y21.9474Z-1++24++
G2 Y-0.7 J-14.7++G1X26.4202Y21.8631Z-1++24++
G2 Y-0.7 J-14.7++G1X26.4734Y21.7785Z-1++24++
G2 Y-0.7 J-14.7++G1X26.526Y21.6935Z-1++24++
G2 Y-0.7 J-14.7++G1X26.578Y21.6082Z-1++24++
G2 Y-0.7 J-14.7++G1X26.6294Y21.5225Z-1++24++
G2 Y-0.7 J-14.7++G1X26.6803Y21.4364Z-1++24++
G2 Y-0.7 J-14.7++G1X26.7306Y21.35Z-1++24++
G2 Y-0.7 J-14.7++G1X26.7803Y21.2633Z-1++24++
G2 Y-0.7 J-14.7++G1X26.8294Y21.1762Z-1++24++
G2 Y-0.7 J-14.7++G1X26.8779Y21.0888Z-1++24++
G2 Y-0.7 J-14.7++G1X26.9258Y21.0011Z-1++24++
G2 Y-0.7 J-14.7++G1X26.9731Y20.913Z-1++24++
G2 Y-0.7 J-14.7++G1X27.0198Y20.8246Z-1++24++
G2 Y-0.7 J-14.7++G1X27.0659Y20.7359Z-1++24++
G2 Y-0.7 J-14.7++G1X27.1114Y20.6469Z-1++24++
G2 Y-0.7 J-14.7++G1X27.1563Y20.5576Z-1++24++
G2 Y-0.7 J-14.7++G1X27.2006Y20.468Z-1++24++
G2 Y-0.7 J-14.7++G1X27.2442Y20.3781Z-1++24++
G2 Y-0.7 J-14.7++G1X27.2873Y20.2879Z-1++24++
G2 Y-0.7 J-14.7++G1X27.3298Y20.1974Z-1++24++
G2 Y-0.7 J-14.7++G1X27.3716Y20.1066Z-1++24++
G2 Y-0.7 J-14.7++G1X27.4128Y20.0155Z-1++24++
G2 Y-0.7 J-14.7++G1X27.4534Y19.9242Z-1++24++
G2 Y-0.7 J-14.7++G1X27.4934Y19.8326Z-1++24++
G2 Y-0.7 J-14.7++G1X27.5327Y19.7407Z-1++24++
G2 Y-0.7 J-14.7++G1X27.5714Y19.6485Z-1++24++
G2 Y-0.7 J-14.7++G1X27.6095Y19.5561Z-1++24++
G2 Y-0.7 J-14.7++G1X27.647Y19.4634Z-1++24++
G2 Y-0.7 J-14.7++G1X27.6838Y19.3705Z-1++24++
G2 Y-0.7 J-14.7++G1X27.72Y19.2773Z-1++24++
G2 Y-0.7 J-14.7++G1X27.7556Y19.1839Z-1++24++
G2 Y-0.7 J-14.7++G1X27.7905Y19.0903Z-1++24++
G2 Y-0.7 J-14.7++G1X27.8248Y18.9964Z-1++24++
G2 Y-0.7 J-14.7++G1X27.8585Y18.9022Z-1++24++
G2 Y-0.7 J-14.7++G1X27.8915Y18.8079Z-1++24++
G2 Y-0.7 J-14.7++G1X27.9239Y18.7133Z-1++24++
G2 Y-0.7 J-14.7++G1X27.9556Y18.6185Z-1++24++
G2 Y-0.7 J-14.7++G1X27.9867Y18.5235Z-1++24++
G2 Y-0.7 J-14.7++G1X28.0171Y18.4283Z-1++24++
G2 Y-0.7 J-14.7++G1X28.0469Y18.3329Z-1++24++
G2 Y-0.7 J-14.7++G1X28.0761Y18.2373Z-1++24++
G2 Y-0.7 J-14.7++G1X28.1045Y18.1415Z-1++24++
G2 Y-0.7 J-14.7++G1X28.1324Y18.0455Z-1++24++
G2 Y-0.7 J-14.7++G1X28.1596Y17.9493Z-1++24++
G2 Y-0.7 J-14.7++G1X28.1861Y17.8529Z-1++24++
G2 Y-0.7 J-14.7++G1X28.212Y17.7563Z-1++24++
G2 Y-0.7 J-14.7++G1X28.2372Y17.6596Z-1++24++
G2 Y-0.7 J-14.7++G1X28.2617Y17.5627Z-1++24++
G2 Y-0.7 J-14.7++G1X28.2856Y17.4657Z-1++24++
G2 Y-0.7 J-14.7++G1X28.3089Y17.3684Z-1++24++
G2 Y-0.7 J-14.7++G1X28.3314Y17.2711Z-1++24++
G2 Y-0.7 J-14.7++G1X28.3534Y17.1735Z-1++24++
G2 Y-0.7 J-14.7++G1X28.3746Y17.0759Z-1++24++
G2 Y-0.7 J-14.7++G1X28.3952Y16.978Z-1++24++
G2 Y-0.7 J-14.7++G1X28.4151Y16.8801Z-1++24++
G2 Y-0.7 J-14.7++G1X28.4344Y16.782Z-1++24++
G2 Y-0.7 J-14.7++G1X28.4529Y16.6838Z-1++24++
G2 Y-0.7 J-14.7++G1X28.4709Y16.5854Z-1++24++
G2 Y-0.7 J-14.7++G1X28.4881Y16.487Z-1++24++
G2 Y-0.7 J-14.7++G1X28.5047Y16.3884Z-1++24++
G2 Y-0.7 J-14.7++G1X28.5206Y16.2897Z-1++24++
G2 Y-0.7 J-14.7++G1X28.5358Y16.1909Z-1++24++
G2 Y-0.7 J-14.7++G1X28.5504Y16.092Z-1++24++
G2 Y-0.7 J-14.7++G1X28.5643Y15.993Z-1++24++
G2 Y-0.7 J-14.7++G1X28.5775Y15.894Z-1++24++
G2 Y-0.7 J-14.7++G1X28.59Y15.7948Z-1++24++
G2 Y-0.7 J-14.7++G1X28.6019Y15.6955Z-1++24++
G2 Y-0.7 J-14.7++G1X28.6131Y15.5962Z-1++24++
G2 Y-0.7 J-14.7++G1X28.6236Y15.4968Z-1++24++
G2 Y-0.7 J-14.7++G1X28.6334Y15.3973Z-1++24++
G2 Y-0.7 J-14.7++G1X28.6426Y15.2978Z-1++24++
G2 Y-0.7 J-14.7++G1X28.6511Y15.1982Z-1++24++
G2 Y-0.7 J-14.7++G1X28.6589Y15.0985Z-1++24++
G2 Y-0.7 J-14.7++G1X28.666Y14.9988Z-1++24++
G2 Y-0.7 J-14.7++G1X28.6725Y14.8991Z-1++24++
G2 Y-0.7 J-14.7++G1X28.6783Y14.7993Z-1++24++
G2 Y-0.7 J-14.7++G1X28.6833Y14.6995Z-1++24++
G2 Y-0.7 J-14.7++G1X28.6878Y14.5996Z-1++24++
G2 Y-0.7 J-14.7++G1X28.6915Y14.4997Z-1++24++
G2 Y-0.7 J-14.7++G1X28.6946Y14.3998Z-1++24++
G2 Y-0.7 J-14.7++G1X28.6969Y14.2999Z-1++24++
G2 Y-0.7 J-14.7++G1X28.6986Y14.1999Z-1++24++
G2 Y-0.7 J-14.7++G1X28.6997Y14.1Z-1++24++
G2 Y-0.7 J-14.7++G1X28.7Y14Z-1++24++
G2 Y-0.7 J-14.7++G1X28.6997Y13.9Z-1++24++
G2 Y-0.7 J-14.7++G1X28.6986Y13.8001Z-1++24++
G2 Y-0.7 J-14.7++G1X28.6969Y13.7001Z-1++24++
G2 Y-0.7 J-14.7++G1X28.6946Y13.6002Z-1++24++
G2 Y-0.7 J-14.7++G1X28.6915Y13.5003Z-1++24++
G2 Y-0.7 J-14.7++G1X28.6878Y13.4004Z-1++24++
G2 Y-0.7 J-14.7++G1X28.6833Y13.3005Z-1++24++
G2 Y-0.7 J-14.7++G1X28.6783Y13.2007Z-1++24++
G2 Y-0.7 J-14.7++G1X28.6725Y13.1009Z-1++24++
G2 Y-0.7 J-14.7++G1X28.666Y13.0012Z-1++24++
G2 Y-0.7 J-14.7++G1X28.6589Y12.9015Z-1++24++
G2 Y-0.7 J-14.7++G1X28.6511Y12.8018Z-1++24++
G2 Y-0.7 J-14.7++G1X28.6426Y12.7022Z-1++24++
G2 Y-0.7 J-14.7++G1X28.6334Y12.6027Z-1++24++
G2 Y-0.7 J-14.7++G1X28.6236Y12.5032Z-1++24++
G2 Y-0.7 J-14.7++G1X28.6131Y12.4038Z-1++24++
G2 Y-0.7 J-14.7++G1X28.6019Y12.3045Z-1++24++
G2 Y-0.7 J-14.7++G1X28.59Y12.2052Z-1++24++
G2 Y-0.7 J-14.7++G1X28.5775Y12.106Z-1++24++
G2 Y-0.7 J-14.7++G1X28.5643Y12.007Z-1++24++
G2 Y-0.7 J-14.7++G1X28.5504Y11.908Z-1++24++
G2 Y-0.7 J-14.7++G1X28.5358Y11.8091Z-1++24++
G2 Y-0.7 J-14.7++G1X28.5206Y11.7103Z-1++24++
G2 Y-0.7 J-14.7++G1X28.5047Y11.6116Z-1++24++
G2 Y-0.7 J-14.7++G1X28.4881Y11.513Z-1++24++
G2 Y-0.7 J-14.7++G1X28.4709Y11.4146Z-1++24++
G2 Y-0.7 J-14.7++G1X28.4529Y11.3162Z-1++24++
G2 Y-0.7 J-14.7++G1X28.4344Y11.218Z-1++24++
G2 Y-0.7 J-14.7++G1X28.4151Y11.1199Z-1++24++
G2 Y-0.7 J-14.7++G1X28.3952Y11.022Z-1++24++
G2 Y-0.7 J-14.7++G1X28.3746Y10.9241Z-1++24++
G2 Y-0.7 J-14.7++G1X28.3534Y10.8265Z-1++24++
G2 Y-0.7 J-14.7++G1X28.3314Y10.7289Z-1++24++
G2 Y-0.7 J-14.7++G1X28.3089Y10.6316Z-1++24++
G2 Y-0.7 J-14.7++G1X28.2856Y10.5343Z-1++24++
G2 Y-0.7 J-14.7++G1X28.2617Y10.4373Z-1++24++
G2 Y-0.7 J-14.7++G1X28.2372Y10.3404Z-1++24++
G2 Y-0.7 J-14.7++G1X28.212Y10.2437Z-1++24++
G2 Y-0.7 J-14.7++G1X28.1861Y10.1471Z-1++24++
G2 Y-0.7 J-14.7++G1X28.1596Y10.0507Z-1++24++
G2 Y-0.7 J-14.7++G1X28.1324Y9.9545Z-1++24++
G2 Y-0.7 J-14.7++G1X28.1045Y9.8585Z-1++24++
G2 Y-0.7 J-14.7++G1X28.0761Y9.7627Z-1++24++
G2 Y-0.7 J-14.7++G1X28.0469Y9.6671Z-1++24++
G2 Y-0.7 J-14.7++G1X28.0171Y9.5717Z-1++24++
G2 Y-0.7 J-14.7++G1X27.9867Y9.4765Z-1++24++
G2 Y-0.7 J-14.7++G1X27.9556Y9.3815Z-1++24++
G2 Y-0.7 J-14.7++G1X27.9239Y9.2867Z-1++24++
G2 Y-0.7 J-14.7++G1X27.8915Y9.1921Z-1++24++
G2 Y-0.7 J-14.7++G1X27.8585Y9.0978Z-1++24++
G2 Y-0.7 J-14.7++G1X27.8248Y9.0036Z-1++24++
G2 Y-0.7 J-14.7++G1X27.7905Y8.9097Z-1++24++
G2 Y-0.7 J-14.7++G1X27.7556Y8.8161Z-1++24++
G2 Y-0.7 J-14.7++G1X27.72Y8.7227Z-1++24++
G2 Y-0.7 J-14.7++G1X27.6838Y8.6295Z-1++24++
G2 Y-0.7 J-14.7++G1X27.647Y8.5366Z-1++24++
G2 Y-0.7 J-14.7++G1X27.6095Y8.4439Z-1++24++
G2 Y-0.7 J-14.7++G1X27.5714Y8.3515Z-1++24++
G2 Y-0.7 J-14.7++G1X27.5327Y8.2593Z-1++24++
G2 Y-0.7 J-14.7++G1X27.4934Y8.1674Z-1++24++
G2 Y-0.7 J-14.7++G1X27.4534Y8.0758Z-1++24++
G2 Y-0.7 J-14.7++G1X27.4128Y7.9845Z-1++24++
G2 Y-0.7 J-14.7++G1X27.3716Y7.8934Z-1++24++
G2 Y-0.7 J-14.7++G1X27.3298Y7.8026Z-1++24++
G2 Y-0.7 J-14.7++G1X27.2873Y7.7121Z-1++24++
G2 Y-0.7 J-14.7++G1X27.2442Y7.6219Z-1++24++
G2 Y-0.7 J-14.7++G1X27.2006Y7.532Z-1++24++
G2 Y-0.7 J-14.7++G1X27.1563Y7.4424Z-1++24++
G2 Y-0.7 J-14.7++G1X27.1114Y7.3531Z-1++24++
G2 Y-0.7 J-14.7++G1X27.0659Y7.2641Z-1++24++
G2 Y-0.7 J-14.7++G1X27.0198Y7.1754Z-1++24++
G2 Y-0.7 J-14.7++G1X26.9731Y7.087Z-1++24++
G2 Y-0.7 J-14.7++G1X26.9258Y6.9989Z-1++24++
G2 Y-0.7 J-14.7++G1X26.8779Y6.9112Z-1++24++
G2 Y-0.7 J-14.7++G1X26.8294Y6.8238Z-1++24++
G2 Y-0.7 J-14.7++G1X26.7803Y6.7367Z-1++24++
G2 Y-0.7 J-14.7++G1X26.7306Y6.65Z-1++24++
G2 Y-0.7 J-14.7++G1X26.6803Y6.5636Z-1++24++
G2 Y-0.7 J-14.7++G1X26.6294Y6.4775Z-1++24++
G2 Y-0.7 J-14.7++G1X26.578Y6.3918Z-1++24++
G2 Y-0.7 J-14.7++G1X26.526Y6.3065Z-1++24++
G2 Y-0.7 J-14.7++G1X26.4734Y6.2215Z-1++24++
G2 Y-0.7 J-14.7++G1X26.4202Y6.1369Z-1++24++
G2 Y-0.7 J-14.7++G1X26.3664Y6.0526Z-1++24++
G2 Y-0.7 J-14.7++G1X26.3121Y5.9687Z-1++24++
G2 Y-0.7 J-14.7++G1X26.2572Y5.8851Z-1++24++
G2 Y-0.7 J-14.7++G1X26.2017Y5.802Z-1++24++
G2 Y-0.7 J-14.7++G1X26.1457Y5.7192Z-1++24++
G2 Y-0.7 J-14.7++G1X26.0891Y5.6368Z-1++24++
G2 Y-0.7 J-14.7++G1X26.032Y5.5548Z-1++24++
G2 Y-0.7 J-14.7++G1X25.9743Y5.4732Z-1++24++
G2 Y-0.7 J-14.7++G1X25.916Y5.3919Z-1++24++
G2 Y-0.7 J-14.7++G1X25.8572Y5.3111Z-1++24++
G2 Y-0.7 J-14.7++G1X25.7978Y5.2307Z-1++24++
G2 Y-0.7 J-14.7++G1X25.7379Y5.1507Z-1++24++
G2 Y-0.7 J-14.7++G1X25.6775Y5.071Z-1++24++
G2 Y-0.7 J-14.7++G1X25.6165Y4.9918Z-1++24++
G2 Y-0.7 J-14.7++G1X25.555Y4.9131Z-1++24++
G2 Y-0.7 J-14.7++G1X25.4929Y4.8347Z-1++24++
G2 Y-0.7 J-14.7++G1X25.4303Y4.7568Z-1++24++
G2 Y-0.7 J-14.7++G1X25.3672Y4.6792Z-1++24++
G2 Y-0.7 J-14.7++G1X25.3036Y4.6022Z-1++24++
G2 Y-0.7 J-14.7++G1X25.2394Y4.5255Z-1++24++
G2 Y-0.7 J-14.7++G1X25.1747Y4.4493Z-1++24++
G2 Y-0.7 J-14.7++G1X25.1095Y4.3735Z-1++24++
G2 Y-0.7 J-14.7++G1X25.0438Y4.2982Z-1++24++
G2 Y-0.7 J-14.7++G1X24.9776Y4.2234Z-1++24++
G2 Y-0.7 J-14.7++G1X24.9108Y4.1489Z-1++24++
G2 Y-0.7 J-14.7++G1X24.8436Y4.075Z-1++24++
G2 Y-0.7 J-14.7++G1X24.7759Y4.0015Z-1++24++
G2 Y-0.7 J-14.7++G1X24.7076Y3.9284Z-1++24++
G2 Y-0.7 J-14.7++G1X24.6389Y3.8558Z-1++24++
G2 Y-0.7 J-14.7++G1X24.5697Y3.7837Z-1++24++
G2 Y-0.7 J-14.7++G1X24.5Y3.7121Z-1++24++
G2 Y-0.7 J-14.7++G1X24.4298Y3.6409Z-1++24++
G2 Y-0.7 J-14.7++G1X24.3591Y3.5702Z-1++24++
G2 Y-0.7 J-14.7++G1X24.2879Y3.5Z-1++24++
G2 Y-0.7 J-14.7++G1X24.2163Y3.4303Z-1++24++
G2 Y-0.7 J-14.7++G1X24.1442Y3.3611Z-1++24++
G2 Y-0.7 J-14.7++G1X24.0716Y3.2924Z-1++24++
G2 Y-0.7 J-14.7++G1X23.9985Y3.2241Z-1++24++
G2 Y-0.7 J-14.7++G1X23.925Y3.1564Z-1++24++
G2 Y-0.7 J-14.7++G1X23.8511Y3.0892Z-1++24++
G2 Y-0.7 J-14.7++G1X23.7766Y3.0224Z-1++24++
G2 Y-0.7 J-14.7++G1X23.7018Y2.9562Z-1++24++
G2 Y-0.7 J-14.7++G1X23.6265Y2.8905Z-1++24++
G2 Y-0.7 J-14.7++G1X23.5507Y2.8253Z-1++24++
G2 Y-0.7 J-14.7++G1X23.4745Y2.7606Z-1++24++
G2 Y-0.7 J-14.7++G1X23.3978Y2.6964Z-1++24++
G2 Y-0.7 J-14.7++G1X23.3208Y2.6328Z-1++24++
G2 Y-0.7 J-14.7++G1X23.2432Y2.5697Z-1++24++
G2 Y-0.7 J-14.7++G1X23.1653Y2.5071Z-1++24++
G2 Y-0.7 J-14.7++G1X23.0869Y2.445Z-1++24++
G2 Y-0.7 J-14.7++G1X23.0082Y2.3835Z-1++24++
G2 Y-0.7 J-14.7++G1X22.929Y2.3225Z-1++24++
G2 Y-0.7 J-14.7++G1X22.8493Y2.2621Z-1++24++
G2 Y-0.7 J-14.7++G1X22.7693Y2.2022Z-1++24++
G2 Y-0.7 J-14.7++G1X22.6889Y2.1428Z-1++24++
G2 Y-0.7 J-14.7++G1X22.6081Y2.084Z-1++24++
G2 Y-0.7 J-14.7++G1X22.5268Y2.0257Z-1++24++
G2 Y-0.7 J-14.7++G1X22.4452Y1.968Z-1++24++
G2 Y-0.7 J-14.7++G1X22.3632Y1.9109Z-1++24++
G2 Y-0.7 J-14.7++G1X22.2808Y1.8543Z-1++24++
G2 Y-0.7 J-14.7++G1X22.198Y1.7983Z-1++24++
G2 Y-0.7 J-14.7++G1X22.1149Y1.7428Z-1++24++
G2 Y-0.7 J-14.7++G1X22.0313Y1.6879Z-1++24++
G2 Y-0.7 J-14.7++G1X21.9474Y1.6336Z-1++24++
G2 Y-0.7 J-14.7++G1X21.8631Y1.5798Z-1++24++
G2 Y-0.7 J-14.7++G1X21.7785Y1.5266Z-1++24++
G2 Y-0.7 J-14.7++G1X21.6935Y1.474Z-1++24++
G2 Y-0.7 J-14.7++G1X21.6082Y1.422Z-1++24++
G2 Y-0.7 J-14.7++G1X21.5225Y1.3706Z-1++24++
G2 Y-0.7 J-14.7++G1X21.4364Y1.3197Z-1++24++
G2 Y-0.7 J-14.7++G1X21.35Y1.2694Z-1++24++
G2 Y-0.7 J-14.7++G1X21.2633Y1.2197Z-1++24++
G2 Y-0.7 J-14.7++G1X21.1762Y1.1706Z-1++24++
G2 Y-0.7 J-14.7++G1X21.0888Y1.1221Z-1++24++
G2 Y-0.7 J-14.7++G1X21.0011Y1.0742Z-1++24++
G2 Y-0.7 J-14.7++G1X20.913Y1.0269Z-1++24++
G2 Y-0.7 J-14.7++G1X20.8246Y0.9802Z-1++24++
G2 Y-0.7 J-14.7++G1X20.7359Y0.9341Z-1++24++
G2 Y-0.7 J-14.7++G1X20.6469Y0.8886Z-1++24++
G2 Y-0.7 J-14.7++G1X20.5576Y0.8437Z-1++24++
G2 Y-0.7 J-14.7++G1X20.468Y0.7994Z-1++24++
G2 Y-0.7 J-14.7++G1X20.3781Y0.7558Z-1++24++
G2 Y-0.7 J-14.7++G1X20.2879Y0.7127Z-1++24++
G2 Y-0.7 J-14.7++G1X20.1974Y0.6702Z-1++24++
G2 Y-0.7 J-14.7++G1X20.1066Y0.6284Z-1++24++
G2 Y-0.7 J-14.7++G1X20.0155Y0.5872Z-1++24++
G2 Y-0.7 J-14.7++G1X19.9242Y0.5466Z-1++24++
G2 Y-0.7 J-14.7++G1X19.8326Y0.5066Z-1++24++
G2 Y-0.7 J-14.7++G1X19.7407Y0.4673Z-1++24++
G2 Y-0.7 J-14.7++G1X19.6485Y0.4286Z-1++24++
G2 Y-0.7 J-14.7++G1X19.5561Y0.3905Z-1++24++
G2 Y-0.7 J-14.7++G1X19.4634Y0.353Z-1++24++
G2 Y-0.7 J-14.7++G1X19.3705Y0.3162Z-1++24++
G2 Y-0.7 J-14.7++G1X19.2773Y0.28Z-1++24++
G2 Y-0.7 J-14.7++G1X19.1839Y0.2444Z-1++24++
G2 Y-0.7 J-14.7++G1X19.0903Y0.2095Z-1++24++
G2 Y-0.7 J-14.7++G1X18.9964Y0.1752Z-1++24++
G2 Y-0.7 J-14.7++G1X18.9022Y0.1415Z-1++24++
G2 Y-0.7 J-14.7++G1X18.8079Y0.1085Z-1++24++
G2 Y-0.7 J-14.7++G1X18.7133Y0.0761Z-1++24++
G2 Y-0.7 J-14.7++G1X18.6185Y0.0444Z-1++24++
G2 Y-0.7 J-14.7++G1X18.5235Y0.0133Z-1++24++
G2 Y-0.7 J-14.7++G1X18.4283Y-0.0171Z-1++24++
G2 Y-0.7 J-14.7++G1X18.3329Y-0.0469Z-1++24++
G2 Y-0.7 J-14.7++G1X18.2373Y-0.0761Z-1++24++
G2 Y-0.7 J-14.7++G1X18.1415Y-0.1045Z-1++24++
G2 Y-0.7 J-14.7++G1X18.0455Y-0.1324Z-1++24++
G2 Y-0.7 J-14.7++G1X17.9493Y-0.1596Z-1++24++
G2 Y-0.7 J-14.7++G1X17.8529Y-0.1861Z-1++24++
G2 Y-0.7 J-14.7++G1X17.7563Y-0.212Z-1++24++
G2 Y-0.7 J-14.7++G1X17.6596Y-0.2372Z-1++24++
G2 Y-0.7 J-14.7++G1X17.5627Y-0.2617Z-1++24++
G2 Y-0.7 J-14.7++G1X17.4657Y-0.2856Z-1++24++
G2 Y-0.7 J-14.7++G1X17.3684Y-0.3089Z-1++24++
G2 Y-0.7 J-14.7++G1X17.2711Y-0.3314Z-1++24++
G2 Y-0.7 J-14.7++G1X17.1735Y-0.3534Z-1++24++
G2 Y-0.7 J-14.7++G1X17.0759Y-0.3746Z-1++24++
G2 Y-0.7 J-14.7++G1X16.978Y-0.3952Z-1++24++
G2 Y-0.7 J-14.7++G1X16.8801Y-0.4151Z-1++24++
G2 Y-0.7 J-14.7++G1X16.782Y-0.4344Z-1++24++
G2 Y-0.7 J-14.7++G1X16.6838Y-0.4529Z-1++24++
G2 Y-0.7 J-14.7++G1X16.5854Y-0.4709Z-1++24++
G2 Y-0.7 J-14.7++G1X16.487Y-0.4881Z-1++24++
G2 Y-0.7 J-14.7++G1X16.3884Y-0.5047Z-1++24++
G2 Y-0.7 J-14.7++G1X16.2897Y-0.5206Z-1++24++
G2 Y-0.7 J-14.7++G1X16.1909Y-0.5358Z-1++24++
G2 Y-0.7 J-14.7++G1X16.092Y-0.5504Z-1++24++
G2 Y-0.7 J-14.7++G1X15.993Y-0.5643Z-1++24++
G2 Y-0.7 J-14.7++G1X15.894Y-0.5775Z-1++24++
G2 Y-0.7 J-14.7++G1X15.7948Y-0.59Z-1++24++
G2 Y-0.7 J-14.7++G1X15.6955Y-0.6019Z-1++24++
G2 Y-0.7 J-14.7++G1X15.5962Y-0.6131Z-1++24++
G2 Y-0.7 J-14.7++G1X15.4968Y-0.6236Z-1++24++
G2 Y-0.7 J-14.7++G1X15.3973Y-0.6334Z-1++24++
G2 Y-0.7 J-14.7++G1X15.2978Y-0.6426Z-1++24++
G2 Y-0.7 J-14.7++G1X15.1982Y-0.6511Z-1++24++
G2 Y-0.7 J-14.7++G1X15.0985Y-0.6589Z-1++24++
G2 Y-0.7 J-14.7++G1X14.9988Y-0.666Z-1++24++
G2 Y-0.7 J-14.7++G1X14.8991Y-0.6725Z-1++24++
G2 Y-0.7 J-14.7++G1X14.7993Y-0.6783Z-1++24++
G2 Y-0.7 J-14.7++G1X14.6995Y-0.6833Z-1++24++
G2 Y-0.7 J-14.7++G1X14.5996Y-0.6878Z-1++24++
G2 Y-0.7 J-14.7++G1X14.4997Y-0.6915Z-1++24++
G2 Y-0.7 J-14.7++G1X14.3998Y-0.6946Z-1++24++
G2 Y-0.7 J-14.7++G1X14.2999Y-0.6969Z-1++24++
G2 Y-0.7 J-14.7++G1X14.1999Y-0.6986Z-1++24++
G2 Y-0.7 J-14.7++G1X14.1Y-0.6997Z-1++24++
G2 Y-0.7 J-14.7++G1X14Y-0.7Z-1++24++
Y28.7 J14.7++G1X13.9Y-0.6997Z-1++25++
Y28.7 J14.7++G1X13.8001Y-0.6986Z-1++25++
Y28.7 J14.7++G1X13.7001Y-0.6969Z-1++25++
Y28.7 J14.7++G1X13.6002Y-0.6946Z-1++25++
Y28.7 J14.7++G1X13.5003Y-0.6915Z-1++25++
Y28.7 J14.7++G1X13.4004Y-0.6878Z-1++25++
Y28.7 J14.7++G1X13.3005Y-0.6833Z-1++25++
Y28.7 J14.7++G1X13.2007Y-0.6783Z-1++25++
Y28.7 J14.7++G1X13.1009Y-0.6725Z-1++25++
Y28.7 J14.7++G1X13.0012Y-0.666Z-1++25++
Y28.7 J14.7++G1X12.9015Y-0.6589Z-1++25++
Y28.7 J14.7++G1X12.8018Y-0.6511Z-1++25++
Y28.7 J14.7++G1X12.7022Y-0.6426Z-1++25++
Y28.7 J14.7++G1X12.6027Y-0.6334Z-1++25++
Y28.7 J14.7++G1X12.5032Y-0.6236Z-1++25++
Y28.7 J14.7++G1X12.4038Y-0.6131Z-1++25++
Y28.7 J14.7++G1X12.3045Y-0.6019Z-1++25++
Y28.7 J14.7++G1X12.2052Y-0.59Z-1++25++
Y28.7 J14.7++G1X12.106Y-0.5775Z-1++25++
Y28.7 J14.7++G1X12.007Y-0.5643Z-1++25++
Y28.7 J14.7++G1X11.908Y-0.5504Z-1++25++
Y28.7 J14.7++G1X11.8091Y-0.5358Z-1++25++
Y28.7 J14.7++G1X11.7103Y-0.5206Z-1++25++
Y28.7 J14.7++G1X11.6116Y-0.5047Z-1++25++
Y28.7 J14.7++G1X11.513Y-0.4881Z-1++25++
Y28.7 J14.7++G1X11.4146Y-0.4709Z-1++25++
Y28.7 J14.7++G1X11.3162Y-0.4529Z-1++25++
Y28.7 J14.7++G1X11.218Y-0.4344Z-1++25++
Y28.7 J14.7++G1X11.1199Y-0.4151Z-1++25++
Y28.7 J14.7++G1X11.022Y-0.3952Z-1++25++
Y28.7 J14.7++G1X10.9241Y-0.3746Z-1++25++
Y28.7 J14.7++G1X10.8265Y-0.3534Z-1++25++
Y28.7 J14.7++G1X10.7289Y-0.3314Z-1++25++
Y28.7 J14.7++G1X10.6316Y-0.3089Z-1++25++
Y28.7 J14.7++G1X10.5343Y-0.2856Z-1++25++
Y28.7 J14.7++G1X10.4373Y-0.2617Z-1++25++
Y28.7 J14.7++G1X10.3404Y-0.2372Z-1++25++
Y28.7 J14.7++G1X10.2437Y-0.212Z-1++25++
Y28.7 J14.7++G1X10.1471Y-0.1861Z-1++25++
Y28.7 J14.7++G1X10.0507Y-0.1596Z-1++25++
Y28.7 J14.7++G1X9.9545Y-0.1324Z-1++25++
Y28.7 J14.7++G1X9.8585Y-0.1045Z-1++25++
Y28.7 J14.7++G1X9.7627Y-0.0761Z-1++25++
Y28.7 J14.7++G1X9.6671Y-0.0469Z-1++25++
Y28.7 J14.7++G1X9.5717Y-0.0171Z-1++25++
Y28.7 J14.7++G1X9.4765Y0.0133Z-1++25++
Y28.7 J14.7++G1X9.3815Y0.0444Z-1++25++
Y28.7 J14.7++G1X9.2867Y0.0761Z-1++25++
Y28.7 J14.7++G1X9.1921Y0.1085Z-1++25++
Y28.7 J14.7++G1X9.0978Y0.1415Z-1++25++
Y28.7 J14.7++G1X9.0036Y0.1752Z-1++25++
Y28.7 J14.7++G1X8.9097Y0.2095Z-1++25++
Y28.7 J14.7++G1X8.8161Y0.2444Z-1++25++
Y28.7 J14.7++G1X8.7227Y0.28Z-1++25++
Y28.7 J14.7++G1X8.6295Y0.3162Z-1++25++
Y28.7 J14.7++G1X8.5366Y0.353Z-1++25++
Y28.7 J14.7++G1X8.4439Y0.3905Z-1++25++
Y28.7 J14.7++G1X8.3515Y0.4286Z-1++25++
Y28.7 J14.7++G1X8.2593Y0.4673Z-1++25++
Y28.7 J14.7++G1X8.1674Y0.5066Z-1++25++
Y28.7 J14.7++G1X8.0758Y0.5466Z-1++25++
Y28.7 J14.7++G1X7.9845Y0.5872Z-1++25++
Y28.7 J14.7++G1X7.8934Y0.6284Z-1++25++
Y28.7 J14.7++G1X7.8026Y0.6702Z-1++25++
Y28.7 J14.7++G1X7.7121Y0.7127Z-1++25++
Y28.7 J14.7++G1X7.6219Y0.7558Z-1++25++
Y28.7 J14.7++G1X7.532Y0.7994Z-1++25++
Y28.7 J14.7++G1X7.4424Y0.8437Z-1++25++
Y28.7 J14.7++G1X7.3531Y0.8886Z-1++25++
Y28.7 J14.7++G1X7.2641Y0.9341Z-1++25++
Y28.7 J14.7++G1X7.1754Y0.9802Z-1++25++
Y28.7 J14.7++G1X7.087Y1.0269Z-1++25++
Y28.7 J14.7++G1X6.9989Y1.0742Z-1++25++
Y28.7 J14.7++G1X6.9112Y1.1221Z-1++25++
Y28.7 J14.7++G1X6.8238Y1.1706Z-1++25++
Y28.7 J14.7++G1X6.7367Y1.2197Z-1++25++
Y28.7 J14.7++G1X6.65Y1.2694Z-1++25++
Y28.7 J14.7++G1X6.5636Y1.3197Z-1++25++
Y28.7 J14.7++G1X6.4775Y1.3706Z-1++25++
Y28.7 J14.7++G1X6.3918Y1.422Z-1++25++
Y28.7 J14.7++G1X6.3065Y1.474Z-1++25++
Y28.7 J14.7++G1X6.2215Y1.5266Z-1++25++
Y28.7 J14.7++G1X6.1369Y1.5798Z-1++25++
Y28.7 J14.7++G1X6.0526Y1.6336Z-1++25++
Y28.7 J14.7++G1X5.9687Y1.6879Z-1++25++
Y28.7 J14.7++G1X5.8851Y1.7428Z-1++25++
Y28.7 J14.7++G1X5.802Y1.7983Z-1++25++
Y28.7 J14.7++G1X5.7192Y1.8543Z-1++25++
Y28.7 J14.7++G1X5.6368Y1.9109Z-1++25++
Y28.7 J14.7++G1X5.5548Y1.968Z-1++25++
Y28.7 J14.7++G1X5.4732Y2.0257Z-1++25++
Y28.7 J14.7++G1X5.3919Y2.084Z-1++25++
Y28.7 J14.7++G1X5.3111Y2.1428Z-1++25++
Y28.7 J14.7++G1X5.2307Y2.2022Z-1++25++
Y28.7 J14.7++G1X5.1507Y2.2621Z-1++25++
Y28.7 J14.7++G1X5.071Y2.3225Z-1++25++
Y28.7 J14.7++G1X4.9918Y2.3835Z-1++25++
Y28.7 J14.7++G1X4.9131Y2.445Z-1++25++
Y28.7 J14.7++G1X4.8347Y2.5071Z-1++25++
Y28.7 J14.7++G1X4.7568Y2.5697Z-1++25++
Y28.7 J14.7++G1X4.6792Y2.6328Z-1++25++
Y28.7 J14.7++G1X4.6022Y2.6964Z-1++25++
Y28.7 J14.7++G1X4.5255Y2.7606Z-1++25++
Y28.7 J14.7++G1X4.4493Y2.8253Z-1++25++
Y28.7 J14.7++G1X4.3735Y2.8905Z-1++25++
Y28.7 J14.7++G1X4.2982Y2.9562Z-1++25++
Y28.7 J14.7++G1X4.2234Y3.0224Z-1++25++
Y28.7 J14.7++G1X4.1489Y3.0892Z-1++25++
Y28.7 J14.7++G1X4.075Y3.1564Z-1++25++
Y28.7 J14.7++G1X4.0015Y3.2241Z-1++25++
Y28.7 J14.7++G1X3.9284Y3.2924Z-1++25++
Y28.7 J14.7++G1X3.8558Y3.3611Z-1++25++
Y28.7 J14.7++G1X3.7837Y3.4303Z-1++25++
Y28.7 J14.7++G1X3.7121Y3.5Z-1++25++
Y28.7 J14.7++G1X3.6409Y3.5702Z-1++25++
Y28.7 J14.7++G1X3.5702Y3.6409Z-1++25++
Y28.7 J14.7++G1X3.5Y3.7121Z-1++25++
Y28.7 J14.7++G1X3.4303Y3.7837Z-1++25++
Y28.7 J14.7++G1X3.3611Y3.8558Z-1++25++
Y28.7 J14.7++G1X3.2924Y3.9284Z-1++25++
Y28.7 J14.7++G1X3.2241Y4.0015Z-1++25++
Y28.7 J14.7++G1X3.1564Y4.075Z-1++25++
Y28.7 J14.7++G1X3.0892Y4.1489Z-1++25++
Y28.7 J14.7++G1X3.0224Y4.2234Z-1++25++
Y28.7 J14.7++G1X2.9562Y4.2982Z-1++25++
Y28.7 J14.7++G1X2.8905Y4.3735Z-1++25++
Y28.7 J14.7++G1X2.8253Y4.4493Z-1++25++
Y28.7 J14.7++G1X2.7606Y4.5255Z-1++25++
Y28.7 J14.7++G1X2.6964Y4.6022Z-1++25++
Y28.7 J14.7++G1X2.6328Y4.6792Z-1++25++
Y28.7 J14.7++G1X2.5697Y4.7568Z-1++25++
Y28.7 J14.7++G1X2.5071Y4.8347Z-1++25++
Y28.7 J14.7++G1X2.445Y4.9131Z-1++25++
Y28.7 J14.7++G1X2.3835Y4.9918Z-1++25++
Y28.7 J14.7++G1X2.3225Y5.071Z-1++25++
Y28.7 J14.7++G1X2.2621Y5.1507Z-1++25++
Y28.7 J14.7++G1X2.2022Y5.2307Z-1++25++
Y28.7 J14.7++G1X2.1428Y5.3111Z-1++25++
Y28.7 J14.7++G1X2.084Y5.3919Z-1++25++
Y28.7 J14.7++G1X2.0257Y5.4732Z-1++25++
Y28.7 J14.7++G1X1.968Y5.5548Z-1++25++
Y28.7 J14.7++G1X1.9109Y5.6368Z-1++25++
Y28.7 J14.7++G1X1.8543Y5.7192Z-1++25++
Y28.7 J14.7++G1X1.7983Y5.802Z-1++25++
Y28.7 J14.7++G1X1.7428Y5.8851Z-1++25++
Y28.7 J14.7++G1X1.6879Y5.9687Z-1++25++
Y28.7 J14.7++G1X1.6336Y6.0526Z-1++25++
Y28.7 J14.7++G1X1.5798Y6.1369Z-1++25++
Y28.7 J14.7++G1X1.5266Y6.2215Z-1++25++
Y28.7 J14.7++G1X1.474Y6.3065Z-1++25++
Y28.7 J14.7++G1X1.422Y6.3918Z-1++25++
Y28.7 J14.7++G1X1.3706Y6.4775Z-1++25++
Y28.7 J14.7++G1X1.3197Y6.5636Z-1++25++
Y28.7 J14.7++G1X1.2694Y6.65Z-1++25++
Y28.7 J14.7++G1X1.2197Y6.7367Z-1++25++
Y28.7 J14.7++G1X1.1706Y6.8238Z-1++25++
Y28.7 J14.7++G1X1.1221Y6.9112Z-1++25++
Y28.7 J14.7++G1X1.0742Y6.9989Z-1++25++
Y28.7 J14.7++G1X1.0269Y7.087Z-1++25++
Y28.7 J14.7++G1X0.9802Y7.1754Z-1++25++
Y28.7 J14.7++G1X0.9341Y7.2641Z-1++25++
Y28.7 J14.7++G1X0.8886Y7.3531Z-1++25++
Y28.7 J14.7++G1X0.8437Y7.4424Z-1++25++
Y28.7 J14.7++G1X0.7994Y7.532Z-1++25++
Y28.7 J14.7++G1X0.7558Y7.6219Z-1++25++
Y28.7 J14.7++G1X0.7127Y7.7121Z-1++25++
Y28.7 J14.7++G1X0.6702Y7.8026Z-1++25++
Y28.7 J14.7++G1X0.6284Y7.8934Z-1++25++
Y28.7 J14.7++G1X0.5872Y7.9845Z-1++25++
Y28.7 J14.7++G1X0.5466Y8.0758Z-1++25++
Y28.7 J14.7++G1X0.5066Y8.1674Z-1++25++
Y28.7 J14.7++G1X0.4673Y8.2593Z-1++25++
Y28.7 J14.7++G1X0.4286Y8.3515Z-1++25++
Y28.7 J14.7++G1X0.3905Y8.4439Z-1++25++
Y28.7 J14.7++G1X0.353Y8.5366Z-1++25++
Y28.7 J14.7++G1X0.3162Y8.6295Z-1++25++
Y28.7 J14.7++G1X0.28Y8.7227Z-1++25++
Y28.7 J14.7++G1X0.2444Y8.8161Z-1++25++
Y28.7 J14.7++G1X0.2095Y8.9097Z-1++25++
Y28.7 J14.7++G1X0.1752Y9.0036Z-1++25++
Y28.7 J14.7++G1X0.1415Y9.0978Z-1++25++
Y28.7 J14.7++G1X0.1085Y9.1921Z-1++25++
Y28.7 J14.7++G1X0.0761Y9.2867Z-1++25++
Y28.7 J14.7++G1X0.0444Y9.3815Z-1++25++
Y28.7 J14.7++G1X0.0133Y9.4765Z-1++25++
Y28.7 J14.7++G1X-0.0171Y9.5717Z-1++25++
Y28.7 J14.7++G1X-0.0469Y9.6671Z-1++25++
Y28.7 J14.7++G1X-0.0761Y9.7627Z-1++25++
Y28.7 J14.7++G1X-0.1045Y9.8585Z-1++25++
Y28.7 J14.7++G1X-0.1324Y9.9545Z-1++25++
Y28.7 J14.7++G1X-0.1596Y10.0507Z-1++25++
Y28.7 J14.7++G1X-0.1861Y10.1471Z-1++25++
Y28.7 J14.7++G1X-0.212Y10.2437Z-1++25++
Y28.7 J14.7++G1X-0.2372Y10.3404Z-1++25++
Y28.7 J14.7++G1X-0.2617Y10.4373Z-1++25++
Y28.7 J14.7++G1X-0.2856Y10.5343Z-1++25++
Y28.7 J14.7++G1X-0.3089Y10.6316Z-1++25++
Y28.7 J14.7++G1X-0.3314Y10.7289Z-1++25++
Y28.7 J14.7++G1X-0.3534Y10.8265Z-1++25++
Y28.7 J14.7++G1X-0.3746Y10.9241Z-1++25++
Y28.7 J14.7++G1X-0.3952Y11.022Z-1++25++
Y28.7 J14.7++G1X-0.4151Y11.1199Z-1++25++
Y28.7 J14.7++G1X-0.4344Y11.218Z-1++25++
Y28.7 J14.7++G1X-0.4529Y11.3162Z-1++25++
Y28.7 J14.7++G1X-0.4709Y11.4146Z-1++25++
Y28.7 J14.7++G1X-0.4881Y11.513Z-1++25++
Y28.7 J14.7++G1X-0.5047Y11.6116Z-1++25++
Y28.7 J14.7++G1X-0.5206Y11.7103Z-1++25++
Y28.7 J14.7++G1X-0.5358Y11.8091Z-1++25++
Y28.7 J14.7++G1X-0.5504Y11.908Z-1++25++
Y28.7 J14.7++G1X-0.5643Y12.007Z-1++25++
Y28.7 J14.7++G1X-0.5775Y12.106Z-1++25++
Y28.7 J14.7++G1X-0.59Y12.2052Z-1++25++
Y28.7 J14.7++G1X-0.6019Y12.3045Z-1++25++
Y28.7 J14.7++G1X-0.6131Y12.4038Z-1++25++
Y28.7 J14.7++G1X-0.6236Y12.5032Z-1++25++
Y28.7 J14.7++G1X-0.6334Y12.6027Z-1++25++
Y28.7 J14.7++G1X-0.6426Y12.7022Z-1++25++
Y28.7 J14.7++G1X-0.6511Y12.8018Z-1++25++
Y28.7 J14.7++G1X-0.6589Y12.9015Z-1++25++
Y28.7 J14.7++G1X-0.666Y13.0012Z-1++25++
Y28.7 J14.7++G1X-0.6725Y13.1009Z-1++25++
Y28.7 J14.7++G1X-0.6783Y13.2007Z-1++25++
Y28.7 J14.7++G1X-0.6833Y13.3005Z-1++25++
Y28.7 J14.7++G1X-0.6878Y13.4004Z-1++25++
Y28.7 J14.7++G1X-0.6915Y13.5003Z-1++25++
Y28.7 J14.7++G1X-0.6946Y13.6002Z-1++25++
Y28.7 J14.7++G1X-0.6969Y13.7001Z-1++25++
Y28.7 J14.7++G1X-0.6986Y13.8001Z-1++25++
Y28.7 J14.7++G1X-0.6997Y13.9Z-1++25++
Y28.7 J14.7++G1X-0.7Y14Z-1++25++
Y28.7 J14.7++G1X-0.6997Y14.1Z-1++25++
Y28.7 J14.7++G1X-0.6986Y14.1999Z-1++25++
Y28.7 J14.7++G1X-0.6969Y14.2999Z-1++25++
Y28.7 J14.7++G1X-0.6946Y14.3998Z-1++25++
Y28.7 J14.7++G1X-0.6915Y14.4997Z-1++25++
Y28.7 J14.7++G1X-0.6878Y14.5996Z-1++25++
Y28.7 J14.7++G1X-0.6833Y14.6995Z-1++25++
Y28.7 J14.7++G1X-0.6783Y14.7993Z-1++25++
Y28.7 J14.7++G1X-0.6725Y14.8991Z-1++25++
Y28.7 J14.7++G1X-0.666Y14.9988Z-1++25++
Y28.7 J14.7++G1X-0.6589Y15.0985Z-1++25++
Y28.7 J14.7++G1X-0.6511Y15.1982Z-1++25++
Y28.7 J14.7++G1X-0.6426Y15.2978Z-1++25++
Y28.7 J14.7++G1X-0.6334Y15.3973Z-1++25++
Y28.7 J14.7++G1X-0.6236Y15.4968Z-1++25++
Y28.7 J14.7++G1X-0.6131Y15.5962Z-1++25++
Y28.7 J14.7++G1X-0.6019Y15.6955Z-1++25++
Y28.7 J14.7++G1X-0.59Y15.7948Z-1++25++
Y28.7 J14.7++G1X-0.5775Y15.894Z-1++25++
Y28.7 J14.7++G1X-0.5643Y15.993Z-1++25++
Y28.7 J14.7++G1X-0.5504Y16.092Z-1++25++
Y28.7 J14.7++G1X-0.5358Y16.1909Z-1++25++
Y28.7 J14.7++G1X-0.5206Y16.2897Z-1++25++
Y28.7 J14.7++G1X-0.5047Y16.3884Z-1++25++
Y28.7 J14.7++G1X-0.4881Y16.487Z-1++25++
Y28.7 J14.7++G1X-0.4709Y16.5854Z-1++25++
Y28.7 J14.7++G1X-0.4529Y16.6838Z-1++25++
Y28.7 J14.7++G1X-0.4344Y16.782Z-1++25++
Y28.7 J14.7++G1X-0.4151Y16.8801Z-1++25++
Y28.7 J14.7++G1X-0.3952Y16.978Z-1++25++
Y28.7 J14.7++G1X-0.3746Y17.0759Z-1++25++
Y28.7 J14.7++G1X-0.3534Y17.1735Z-1++25++
Y28.7 J14.7++G1X-0.3314Y17.2711Z-1++25++
Y28.7 J14.7++G1X-0.3089Y17.3684Z-1++25++
Y28.7 J14.7++G1X-0.2856Y17.4657Z-1++25++
Y28.7 J14.7++G1X-0.2617Y17.5627Z-1++25++
Y28.7 J14.7++G1X-0.2372Y17.6596Z-1++25++
Y28.7 J14.7++G1X-0.212Y17.7563Z-1++25++
Y28.7 J14.7++G1X-0.1861Y17.8529Z-1++25++
Y28.7 J14.7++G1X-0.1596Y17.9493Z-1++25++
Y28.7 J14.7++G1X-0.1324Y18.0455Z-1++25++
Y28.7 J14.7++G1X-0.1045Y18.1415Z-1++25++
Y28.7 J14.7++G1X-0.0761Y18.2373Z-1++25++
Y28.7 J14.7++G1X-0.0469Y18.3329Z-1++25++
Y28.7 J14.7++G1X-0.0171Y18.4283Z-1++25++
Y28.7 J14.7++G1X0.0133Y18.5235Z-1++25++
Y28.7 J14.7++G1X0.0444Y18.6185Z-1++25++
Y28.7 J14.7++G1X0.0761Y18.7133Z-1++25++
Y28.7 J14.7++G1X0.1085Y18.8079Z-1++25++
Y28.7 J14.7++G1X0.1415Y18.9022Z-1++25++
Y28.7 J14.7++G1X0.1752Y18.9964Z-1++25++
Y28.7 J14.7++G1X0.2095Y19.0903Z-1++25++
Y28.7 J14.7++G1X0.2444Y19.1839Z-1++25++
Y28.7 J14.7++G1X0.28Y19.2773Z-1++25++
Y28.7 J14.7++G1X0.3162Y19.3705Z-1++25++
Y28.7 J14.7++G1X0.353Y19.4634Z-1++25++
Y28.7 J14.7++G1X0.3905Y19.5561Z-1++25++
Y28.7 J14.7++G1X0.4286Y19.6485Z-1++25++
Y28.7 J14.7++G1X0.4673Y19.7407Z-1++25++
Y28.7 J14.7++G1X0.5066Y19.8326Z-1++25++
Y28.7 J14.7++G1X0.5466Y19.9242Z-1++25++
Y28.7 J14.7++G1X0.5872Y20.0155Z-1++25++
Y28.7 J14.7++G1X0.6284Y20.1066Z-1++25++
Y28.7 J14.7++G1X0.6702Y20.1974Z-1++25++
Y28.7 J14.7++G1X0.7127Y20.2879Z-1++25++
Y28.7 J14.7++G1X0.7558Y20.3781Z-1++25++
Y28.7 J14.7++G1X0.7994Y20.468Z-1++25++
Y28.7 J14.7++G1X0.8437Y20.5576Z-1++25++
Y28.7 J14.7++G1X0.8886Y20.6469Z-1++25++
Y28.7 J14.7++G1X0.9341Y20.7359Z-1++25++
Y28.7 J14.7++G1X0.9802Y20.8246Z-1++25++
Y28.7 J14.7++G1X1.0269Y20.913Z-1++25++
Y28.7 J14.7++G1X1.0742Y21.0011Z-1++25++
Y28.7 J14.7++G1X1.1221Y21.0888Z-1++25++
Y28.7 J14.7++G1X1.1706Y21.1762Z-1++25++
Y28.7 J14.7++G1X1.2197Y21.2633Z-1++25++
Y28.7 J14.7++G1X1.2694Y21.35Z-1++25++
Y28.7 J14.7++G1X1.3197Y21.4364Z-1++25++
Y28.7 J14.7++G1X1.3706Y21.5225Z-1++25++
Y28.7 J14.7++G1X1.422Y21.6082Z-1++25++
Y28.7 J14.7++G1X1.474Y21.6935Z-1++25++
Y28.7 J14.7++G1X1.5266Y21.7785Z-1++25++
Y28.7 J14.7++G1X1.5798Y21.8631Z-1++25++
Y28.7 J14.7++G1X1.6336Y21.9474Z-1++25++
Y28.7 J14.7++G1X1.6879Y22.0313Z-1++25++
Y28.7 J14.7++G1X1.7428Y22.1149Z-1++25++
Y28.7 J14.7++G1X1.7983Y22.198Z-1++25++
Y28.7 J14.7++G1X1.8543Y22.2808Z-1++25++
Y28.7 J14.7++G1X1.9109Y22.3632Z-1++25++
Y28.7 J14.7++G1X1.968Y22.4452Z-1++25++
Y28.7 J14.7++G1X2.0257Y22.5268Z-1++25++
Y28.7 J14.7++G1X2.084Y22.6081Z-1++25++
Y28.7 J14.7++G1X2.1428Y22.6889Z-1++25++
Y28.7 J14.7++G1X2.2022Y22.7693Z-1++25++
Y28.7 J14.7++G1X2.2621Y22.8493Z-1++25++
Y28.7 J14.7++G1X2.3225Y22.929Z-1++25++
Y28.7 J14.7++G1X2.3835Y23.0082Z-1++25++
Y28.7 J14.7++G1X2.445Y23.0869Z-1++25++
Y28.7 J14.7++G1X2.5071Y23.1653Z-1++25++
Y28.7 J14.7++G1X2.5697Y23.2432Z-1++25++
Y28.7 J14.7++G1X2.6328Y23.3208Z-1++25++
Y28.7 J14.7++G1X2.6964Y23.3978Z-1++25++
Y28.7 J14.7++G1X2.7606Y23.4745Z-1++25++
Y28.7 J14.7++G1X2.8253Y23.5507Z-1++25++
Y28.7 J14.7++G1X2.8905Y23.6265Z-1++25++
Y28.7 J14.7++G1X2.9562Y23.7018Z-1++25++
Y28.7 J14.7++G1X3.0224Y23.7766Z-1++25++
Y28.7 J14.7++G1X3.0892Y23.8511Z-1++25++
Y28.7 J14.7++G1X3.1564Y23.925Z-1++25++
Y28.7 J14.7++G1X3.2241Y23.9985Z-1++25++
Y28.7 J14.7++G1X3.2924Y24.0716Z-1++25++
Y28.7 J14.7++G1X3.3611Y24.1442Z-1++25++
Y28.7 J14.7++G1X3.4303Y24.2163Z-1++25++
Y28.7 J14.7++G1X3.5Y24.2879Z-1++25++
Y28.7 J14.7++G1X3.5702Y24.3591Z-1++25++
Y28.7 J14.7++G1X3.6409Y24.4298Z-1++25++
Y28.7 J14.7++G1X3.7121Y24.5Z-1++25++
Y28.7 J14.7++G1X3.7837Y24.5697Z-1++25++
Y28.7 J14.7++G1X3.8558Y24.6389Z-1++25++
Y28.7 J14.7++G1X3.9284Y24.7076Z-1++25++
Y28.7 J14.7++G1X4.0015Y24.7759Z-1++25++
Y28.7 J14.7++G1X4.075Y24.8436Z-1++25++
Y28.7 J14.7++G1X4.1489Y24.9108Z-1++25++
Y28.7 J14.7++G1X4.2234Y24.9776Z-1++25++
Y28.7 J14.7++G1X4.2982Y25.0438Z-1++25++
Y28.7 J14.7++G1X4.3735Y25.1095Z-1++25++
Y28.7 J14.7++G1X4.4493Y25.1747Z-1++25++
Y28.7 J14.7++G1X4.5255Y25.2394Z-1++25++
Y28.7 J14.7++G1X4.6022Y25.3036Z-1++25++
Y28.7 J14.7++G1X4.6792Y25.3672Z-1++25++
Y28.7 J14.7++G1X4.7568Y25.4303Z-1++25++
Y28.7 J14.7++G1X4.8347Y25.4929Z-1++25++
Y28.7 J14.7++G1X4.9131Y25.555Z-1++25++
Y28.7 J14.7++G1X4.9918Y25.6165Z-1++25++
Y28.7 J14.7++G1X5.071Y25.6775Z-1++25++
Y28.7 J14.7++G1X5.1507Y25.7379Z-1++25++
Y28.7 J14.7++G1X5.2307Y25.7978Z-1++25++
Y28.7 J14.7++G1X5.3111Y25.8572Z-1++25++
Y28.7 J14.7++G1X5.3919Y25.916Z-1++25++
Y28.7 J14.7++G1X5.4732Y25.9743Z-1++25++
Y28.7 J14.7++G1X5.5548Y26.032Z-1++25++
Y28.7 J14.7++G1X5.6368Y26.0891Z-1++25++
Y28.7 J14.7++G1X5.7192Y26.1457Z-1++25++
Y28.7 J14.7++G1X5.802Y26.2017Z-1++25++
Y28.7 J14.7++G1X5.8851Y26.2572Z-1++25++
Y28.7 J14.7++G1X5.9687Y26.3121Z-1++25++
Y28.7 J14.7++G1X6.0526Y26.3664Z-1++25++
Y28.7 J14.7++G1X6.1369Y26.4202Z-1++25++
Y28.7 J14.7++G1X6.2215Y26.4734Z-1++25++
Y28.7 J14.7++G1X6.3065Y26.526Z-1++25++
Y28.7 J14.7++G1X6.3918Y26.578Z-1++25++
Y28.7 J14.7++G1X6.4775Y26.6294Z-1++25++
Y28.7 J14.7++G1X6.5636Y26.6803Z-1++25++
Y28.7 J14.7++G1X6.65Y26.7306Z-1++25++
Y28.7 J14.7++G1X6.7367Y26.7803Z-1++25++
Y28.7 J14.7++G1X6.8238Y26.8294Z-1++25++
Y28.7 J14.7++G1X6.9112Y26.8779Z-1++25++
Y28.7 J14.7++G1X6.9989Y26.9258Z-1++25++
Y28.7 J14.7++G1X7.087Y26.9731Z-1++25++
Y28.7 J14.7++G1X7.1754Y27.0198Z-1++25++
Y28.7 J14.7++G1X7.2641Y27.0659Z-1++25++
Y28.7 J14.7++G1X7.3531Y27.1114Z-1++25++
Y28.7 J14.7++G1X7.4424Y27.1563Z-1++25++
Y28.7 J14.7++G1X7.532Y27.2006Z-1++25++
Y28.7 J14.7++G1X7.6219Y27.2442Z-1++25++
Y28.7 J14.7++G1X7.7121Y27.2873Z-1++25++
Y28.7 J14.7++G1X7.8026Y27.3298Z-1++25++
Y28.7 J14.7++G1X7.8934Y27.3716Z-1++25++
Y28.7 J14.7++G1X7.9845Y27.4128Z-1++25++
Y28.7 J14.7++G1X8.0758Y27.4534Z-1++25++
Y28.7 J14.7++G1X8.1674Y27.4934Z-1++25++
Y28.7 J14.7++G1X8.2593Y27.5327Z-1++25++
Y28.7 J14.7++G1X8.3515Y27.5714Z-1++25++
Y28.7 J14.7++G1X8.4439Y27.6095Z-1++25++
Y28.7 J14.7++G1X8.5366Y27.647Z-1++25++
Y28.7 J14.7++G1X8.6295Y27.6838Z-1++25++
Y28.7 J14.7++G1X8.7227Y27.72Z-1++25++
Y28.7 J14.7++G1X8.8161Y27.7556Z-1++25++
Y28.7 J14.7++G1X8.9097Y27.7905Z-1++25++
Y28.7 J14.7++G1X9.0036Y27.8248Z-1++25++
Y28.7 J14.7++G1X9.0978Y27.8585Z-1++25++
Y28.7 J14.7++G1X9.1921Y27.8915Z-1++25++
Y28.7 J14.7++G1X9.2867Y27.9239Z-1++25++
Y28.7 J14.7++G1X9.3815Y27.9556Z-1++25++
Y28.7 J14.7++G1X9.4765Y27.9867Z-1++25++
Y28.7 J14.7++G1X9.5717Y28.0171Z-1++25++
Y28.7 J14.7++G1X9.6671Y28.0469Z-1++25++
Y28.7 J14.7++G1X9.7627Y28.0761Z-1++25++
Y28.7 J14.7++G1X9.8585Y28.1045Z-1++25++
Y28.7 J14.7++G1X9.9545Y28.1324Z-1++25++
Y28.7 J14.7++G1X10.0507Y28.1596Z-1++25++
Y28.7 J14.7++G1X10.1471Y28.1861Z-1++25++
Y28.7 J14.7++G1X10.2437Y28.212Z-1++25++
Y28.7 J14.7++G1X10.3404Y28.2372Z-1++25++
Y28.7 J14.7++G1X10.4373Y28.2617Z-1++25++
Y28.7 J14.7++G1X10.5343Y28.2856Z-1++25++
Y28.7 J14.7++G1X10.6316Y28.3089Z-1++25++
Y28.7 J14.7++G1X10.7289Y28.3314Z-1++25++
Y28.7 J14.7++G1X10.8265Y28.3534Z-1++25++
Y28.7 J14.7++G1X10.9241Y28.3746Z-1++25++
Y28.7 J14.7++G1X11.022Y28.3952Z-1++25++
Y28.7 J14.7++G1X11.1199Y28.4151Z-1++25++
Y28.7 J14.7++G1X11.218Y28.4344Z-1++25++
Y28.7 J14.7++G1X11.3162Y28.4529Z-1++25++
Y28.7 J14.7++G1X11.4146Y28.4709Z-1++25++
Y28.7 J14.7++G1X11.513Y28.4881Z-1++25++
Y28.7 J14.7++G1X11.6116Y28.5047Z-1++25++
Y28.7 J14.7++G1X11.7103Y28.5206Z-1++25++
Y28.7 J14.7++G1X11.8091Y28.5358Z-1++25++
Y28.7 J14.7++G1X11.908Y28.5504Z-1++25++
Y28.7 J14.7++G1X12.007Y28.5643Z-1++25++
Y28.7 J14.7++G1X12.106Y28.5775Z-1++25++
Y28.7 J14.7++G1X12.2052Y28.59Z-1++25++
Y28.7 J14.7++G1X12.3045Y28.6019Z-1++25++
Y28.7 J14.7++G1X12.4038Y28.6131Z-1++25++
Y28.7 J14.7++G1X12.5032Y28.6236Z-1++25++
Y28.7 J14.7++G1X12.6027Y28.6334Z-1++25++
Y28.7 J14.7++G1X12.7022Y28.6426Z-1++25++
Y28.7 J14.7++G1X12.8018Y28.6511Z-1++25++
Y28.7 J14.7++G1X12.9015Y28.6589Z-1++25++
Y28.7 J14.7++G1X13.0012Y28.666Z-1++25++
Y28.7 J14.7++G1X13.1009Y28.6725Z-1++25++
Y28.7 J14.7++G1X13.2007Y28.6783Z-1++25++
Y28.7 J14.7++G1X13.3005Y28.6833Z-1++25++
Y28.7 J14.7++G1X13.4004Y28.6878Z-1++25++
Y28.7 J14.7++G1X13.5003Y28.6915Z-1++25++
Y28.7 J14.7++G1X13.6002Y28.6946Z-1++25++
Y28.7 J14.7++G1X13.7001Y28.6969Z-1++25++
Y28.7 J14.7++G1X13.8001Y28.6986Z-1++25++
Y28.7 J14.7++G1X13.9Y28.6997Z-1++25++
Y28.7 J14.7++G1X14Y28.7Z-1++25++
G3 X14.14 Y28.84 J0.14++G1X14.07Y28.7188Z-1++26++
G3 X14.14 Y28.84 J0.14++G1X14.1212Y28.77Z-1++26++
G3 X14.14 Y28.84 J0.14++G1X14.14Y28.84Z-1++26++
G1 Y28.98++G1X14.14Y28.98Z-1++27++
G19 G3 Y29.12 Z-0.86 K0.14++G19++28++
G19 G3 Y29.12 Z-0.86 K0.14++G1X14.14Y29.05Z-0.9812++28++
G19 G3 Y29.12 Z-0.86 K0.14++G1X14.14Y29.1012Z-0.93++28++
G19 G3 Y29.12 Z-0.86 K0.14++G1X14.14Y29.12Z-0.86++28++
G0 Z10++G0X14.14Y29.12Z0.1273++29++
G0 Z10++G0X14.14Y29.12Z1.1145++29++
G0 Z10++G0X14.14Y29.12Z2.1018++29++
G0 Z10++G0X14.14Y29.12Z3.0891++29++
G0 Z10++G0X14.14Y29.12Z4.0764++29++
G0 Z10++G0X14.14Y29.12Z5.0636++29++
G0 Z10++G0X14.14Y29.12Z6.0509++29++
G0 Z10++G0X14.14Y29.12Z7.0382++29++
G0 Z10++G0X14.14Y29.12Z8.0255++29++
G0 Z10++G0X14.14Y29.12Z9.0127++29++
G0 Z10++G0X14.14Y29.12Z10++29++
S0 M5++S0 M5++30++
G17++G17++31++
M9++M9++32++
G28 G91 Z0++G28 G91 Z0++33++
G28 X0 Y0++G28 X0 Y0++34++
M30++M30++35++
++++36++
++++37++
