%
(Generated by SketchUcam {1.1b})
(Bit diameter: 1/8")
(Feed rate: 100"/min)
(Material Thickness: 3/4")
(Material length: 7" X width: 7")
(Overhead Gantry: true)
(Retract feed rate NOT limited to plunge feed rate)
(Multipass enabled, Depth = 1/8")
(Optimization is ON)
(www.PhlatBoyz.com)
(KJOs defaults)
G90 G20 (G49 G61)
M3 S15000
G17 G0   Z0.2500    
(Pass: 1)
   X0.3645       Y0.3782    
G1   Z-0.1250    F100 
   X3.4311    
G17 G3   X3.7021       Y0.4139       Z-0.1250      R1.0625    
   X3.9585       Y0.5201       Z-0.1250      R1.0625    
   X4.1787       Y0.6890       Z-0.1250      R1.0625    
   X4.3476       Y0.9092       Z-0.1250      R1.0625    
   X4.4538       Y1.1656       Z-0.1250      R1.0625    
   X4.4901       Y1.4407       Z-0.1250      R1.0625    
   X4.4538       Y1.7159       Z-0.1250      R1.0625    
   X4.3476       Y1.9722       Z-0.1250      R1.0625    
   X4.1787       Y2.1924       Z-0.1250      R1.0625    
   X3.9585       Y2.3613       Z-0.1250      R1.0625    
   X3.7021       Y2.4675       Z-0.1250      R1.0625    
   X3.4311       Y2.5032       Z-0.1250      R1.0625    
G1   X1.9818    
G17 G3   X1.9623       Y2.6512       Z-0.1250      R0.8125    
   X1.8811       Y2.8472       Z-0.1250      R0.8125    
   X1.7519       Y3.0156       Z-0.1250      R0.8125    
   X1.5835       Y3.1448       Z-0.1250      R0.8125    
   X1.3874       Y3.2261       Z-0.1250      R0.8125    
   X1.1770       Y3.2538       Z-0.1250      R0.8125    
   X0.9666       Y3.2261       Z-0.1250      R0.8125    
   X0.7705       Y3.1448       Z-0.1250      R0.8125    
   X0.6021       Y3.0156       Z-0.1250      R0.8125    
   X0.4729       Y2.8472       Z-0.1250      R0.8125    
   X0.3917       Y2.6512       Z-0.1250      R0.8125    
   X0.3645       Y2.4448       Z-0.1250      R0.8125    
G1   Y0.3782    
(Pass: 2)
   Z-0.2500   
   X3.4311    
G17 G3   X3.7021       Y0.4139       Z-0.2500      R1.0625    
   X3.9585       Y0.5201       Z-0.2500      R1.0625    
   X4.1787       Y0.6890       Z-0.2500      R1.0625    
   X4.3476       Y0.9092       Z-0.2500      R1.0625    
   X4.4538       Y1.1656       Z-0.2500      R1.0625    
   X4.4901       Y1.4407       Z-0.2500      R1.0625    
   X4.4538       Y1.7159       Z-0.2500      R1.0625    
   X4.3476       Y1.9722       Z-0.2500      R1.0625    
   X4.1787       Y2.1924       Z-0.2500      R1.0625    
   X3.9585       Y2.3613       Z-0.2500      R1.0625    
   X3.7021       Y2.4675       Z-0.2500      R1.0625    
   X3.4311       Y2.5032       Z-0.2500      R1.0625    
G1   X1.9818    
G17 G3   X1.9623       Y2.6512       Z-0.2500      R0.8125    
   X1.8811       Y2.8472       Z-0.2500      R0.8125    
   X1.7519       Y3.0156       Z-0.2500      R0.8125    
   X1.5835       Y3.1448       Z-0.2500      R0.8125    
   X1.3874       Y3.2261       Z-0.2500      R0.8125    
   X1.1770       Y3.2538       Z-0.2500      R0.8125    
   X0.9666       Y3.2261       Z-0.2500      R0.8125    
   X0.7705       Y3.1448       Z-0.2500      R0.8125    
   X0.6021       Y3.0156       Z-0.2500      R0.8125    
   X0.4729       Y2.8472       Z-0.2500      R0.8125    
   X0.3917       Y2.6512       Z-0.2500      R0.8125    
   X0.3645       Y2.4448       Z-0.2500      R0.8125    
G1   Y0.3782    
(Pass: 3)
   Z-0.3750   
   X3.4311    
G17 G3   X3.7021       Y0.4139       Z-0.3750      R1.0625    
   X3.9585       Y0.5201       Z-0.3750      R1.0625    
   X4.1787       Y0.6890       Z-0.3750      R1.0625    
   X4.3476       Y0.9092       Z-0.3750      R1.0625    
   X4.4538       Y1.1656       Z-0.3750      R1.0625    
   X4.4901       Y1.4407       Z-0.3750      R1.0625    
   X4.4538       Y1.7159       Z-0.3750      R1.0625    
   X4.3476       Y1.9722       Z-0.3750      R1.0625    
   X4.1787       Y2.1924       Z-0.3750      R1.0625    
   X3.9585       Y2.3613       Z-0.3750      R1.0625    
   X3.7021       Y2.4675       Z-0.3750      R1.0625    
   X3.4311       Y2.5032       Z-0.3750      R1.0625    
G1   X1.9818    
G17 G3   X1.9623       Y2.6512       Z-0.3750      R0.8125    
   X1.8811       Y2.8472       Z-0.3750      R0.8125    
   X1.7519       Y3.0156       Z-0.3750      R0.8125    
   X1.5835       Y3.1448       Z-0.3750      R0.8125    
   X1.3874       Y3.2261       Z-0.3750      R0.8125    
   X1.1770       Y3.2538       Z-0.3750      R0.8125    
   X0.9666       Y3.2261       Z-0.3750      R0.8125    
   X0.7705       Y3.1448       Z-0.3750      R0.8125    
   X0.6021       Y3.0156       Z-0.3750      R0.8125    
   X0.4729       Y2.8472       Z-0.3750      R0.8125    
   X0.3917       Y2.6512       Z-0.3750      R0.8125    
   X0.3645       Y2.4448       Z-0.3750      R0.8125    
G1   Y0.3782    
(Pass: 4)
   Z-0.5000   
   X3.4311    
G17 G3   X3.7021       Y0.4139       Z-0.5000      R1.0625    
   X3.9585       Y0.5201       Z-0.5000      R1.0625    
   X4.1787       Y0.6890       Z-0.5000      R1.0625    
   X4.3476       Y0.9092       Z-0.5000      R1.0625    
   X4.4538       Y1.1656       Z-0.5000      R1.0625    
   X4.4901       Y1.4407       Z-0.5000      R1.0625    
   X4.4538       Y1.7159       Z-0.5000      R1.0625    
   X4.3476       Y1.9722       Z-0.5000      R1.0625    
   X4.1787       Y2.1924       Z-0.5000      R1.0625    
   X3.9585       Y2.3613       Z-0.5000      R1.0625    
   X3.7021       Y2.4675       Z-0.5000      R1.0625    
   X3.4311       Y2.5032       Z-0.5000      R1.0625    
G1   X1.9818    
G17 G3   X1.9623       Y2.6512       Z-0.5000      R0.8125    
   X1.8811       Y2.8472       Z-0.5000      R0.8125    
   X1.7519       Y3.0156       Z-0.5000      R0.8125    
   X1.5835       Y3.1448       Z-0.5000      R0.8125    
   X1.3874       Y3.2261       Z-0.5000      R0.8125    
   X1.1770       Y3.2538       Z-0.5000      R0.8125    
   X0.9666       Y3.2261       Z-0.5000      R0.8125    
   X0.7705       Y3.1448       Z-0.5000      R0.8125    
   X0.6021       Y3.0156       Z-0.5000      R0.8125    
   X0.4729       Y2.8472       Z-0.5000      R0.8125    
   X0.3917       Y2.6512       Z-0.5000      R0.8125    
   X0.3645       Y2.4448       Z-0.5000      R0.8125    
G1   Y0.3782    
(Pass: 5)
   Z-0.6250   
   X3.4311    
G17 G3   X3.7021       Y0.4139       Z-0.6250      R1.0625    
   X3.9585       Y0.5201       Z-0.6250      R1.0625    
   X4.1787       Y0.6890       Z-0.6250      R1.0625    
   X4.3476       Y0.9092       Z-0.6250      R1.0625    
   X4.4538       Y1.1656       Z-0.6250      R1.0625    
   X4.4901       Y1.4407       Z-0.6250      R1.0625    
   X4.4538       Y1.7159       Z-0.6250      R1.0625    
   X4.3476       Y1.9722       Z-0.6250      R1.0625    
   X4.1787       Y2.1924       Z-0.6250      R1.0625    
   X3.9585       Y2.3613       Z-0.6250      R1.0625    
   X3.7021       Y2.4675       Z-0.6250      R1.0625    
   X3.4311       Y2.5032       Z-0.6250      R1.0625    
G1   X1.9818    
G17 G3   X1.9623       Y2.6512       Z-0.6250      R0.8125    
   X1.8811       Y2.8472       Z-0.6250      R0.8125    
   X1.7519       Y3.0156       Z-0.6250      R0.8125    
   X1.5835       Y3.1448       Z-0.6250      R0.8125    
   X1.3874       Y3.2261       Z-0.6250      R0.8125    
   X1.1770       Y3.2538       Z-0.6250      R0.8125    
   X0.9666       Y3.2261       Z-0.6250      R0.8125    
   X0.7705       Y3.1448       Z-0.6250      R0.8125    
   X0.6021       Y3.0156       Z-0.6250      R0.8125    
   X0.4729       Y2.8472       Z-0.6250      R0.8125    
   X0.3917       Y2.6512       Z-0.6250      R0.8125    
   X0.3645       Y2.4448       Z-0.6250      R0.8125    
G1   Y0.3782    
(Pass: 6)
   Z-0.7500   
   X3.4311    
G17 G3   X3.7021       Y0.4139       Z-0.7500      R1.0625    
   X3.9585       Y0.5201       Z-0.7500      R1.0625    
   X4.1787       Y0.6890       Z-0.7500      R1.0625    
   X4.3476       Y0.9092       Z-0.7500      R1.0625    
   X4.4538       Y1.1656       Z-0.7500      R1.0625    
   X4.4901       Y1.4407       Z-0.7500      R1.0625    
   X4.4538       Y1.7159       Z-0.7500      R1.0625    
   X4.3476       Y1.9722       Z-0.7500      R1.0625    
   X4.1787       Y2.1924       Z-0.7500      R1.0625    
   X3.9585       Y2.3613       Z-0.7500      R1.0625    
   X3.7021       Y2.4675       Z-0.7500      R1.0625    
   X3.4311       Y2.5032       Z-0.7500      R1.0625    
G1   X1.9818    
G17 G3   X1.9623       Y2.6512       Z-0.7500      R0.8125    
   X1.8811       Y2.8472       Z-0.7500      R0.8125    
   X1.7519       Y3.0156       Z-0.7500      R0.8125    
   X1.5835       Y3.1448       Z-0.7500      R0.8125    
   X1.3874       Y3.2261       Z-0.7500      R0.8125    
   X1.1770       Y3.2538       Z-0.7500      R0.8125    
   X0.9666       Y3.2261       Z-0.7500      R0.8125    
   X0.7705       Y3.1448       Z-0.7500      R0.8125    
   X0.6021       Y3.0156       Z-0.7500      R0.8125    
   X0.4729       Y2.8472       Z-0.7500      R0.8125    
   X0.3917       Y2.6512       Z-0.7500      R0.8125    
   X0.3645       Y2.4448       Z-0.7500      R0.8125    
G1   Y0.3782    
(Pass: 7)
   Z-0.8250   
   X3.4311    
G17 G3   X3.7021       Y0.4139       Z-0.8250      R1.0625    
   X3.9585       Y0.5201       Z-0.8250      R1.0625    
   X4.1787       Y0.6890       Z-0.8250      R1.0625    
   X4.3476       Y0.9092       Z-0.8250      R1.0625    
   X4.4538       Y1.1656       Z-0.8250      R1.0625    
   X4.4901       Y1.4407       Z-0.8250      R1.0625    
   X4.4538       Y1.7159       Z-0.8250      R1.0625    
   X4.3476       Y1.9722       Z-0.8250      R1.0625    
   X4.1787       Y2.1924       Z-0.8250      R1.0625    
   X3.9585       Y2.3613       Z-0.8250      R1.0625    
   X3.7021       Y2.4675       Z-0.8250      R1.0625    
   X3.4311       Y2.5032       Z-0.8250      R1.0625    
G1   X1.9818    
G17 G3   X1.9623       Y2.6512       Z-0.8250      R0.8125    
   X1.8811       Y2.8472       Z-0.8250      R0.8125    
   X1.7519       Y3.0156       Z-0.8250      R0.8125    
   X1.5835       Y3.1448       Z-0.8250      R0.8125    
   X1.3874       Y3.2261       Z-0.8250      R0.8125    
   X1.1770       Y3.2538       Z-0.8250      R0.8125    
   X0.9666       Y3.2261       Z-0.8250      R0.8125    
   X0.7705       Y3.1448       Z-0.8250      R0.8125    
   X0.6021       Y3.0156       Z-0.8250      R0.8125    
   X0.4729       Y2.8472       Z-0.8250      R0.8125    
   X0.3917       Y2.6512       Z-0.8250      R0.8125    
   X0.3645       Y2.4448       Z-0.8250      R0.8125    
G1   Y0.3782    
G0   Z0.2500    
G0 X0 Y0 (home)
M05
M30
%
