( Made using CamBam - http://www.cambam.co.uk )
( TNG_Communicator_3thick.stl 10/15/2012 7:15:28 PM )
( T0 : 3.175 )
G21 G90 G64 G40
G0 Z3.0
( T0 : 3.175 )
T0 M6
( Roughing )
G17
M3 S1000
G0 X2.5548 Y22.4311
G1 F300.0 Z-1.0
G1 F2000.0 X0.5567 Y26.0488
G2 X0.5411 Y26.0931 I0.1247 J0.0689
G1 X-0.1404 Y29.9754
G2 Y30.0246 I0.1404 J0.0246
G1 X0.4558 Y33.4206
G3 X3.2428 Y22.2223 I118.9132 J23.6492
G3 X3.284 Y22.0899 I6.3837 J1.9156
G3 X3.4644 Y21.5335 I235.5689 J76.0687
G1 X2.5799 Y22.3981
G2 X2.5548 Y22.4311 I0.0996 J0.1019
G1 F300.0 X1.443 Y21.8171
G1 F2000.0 X-0.555 Y25.4348
G2 X-0.7097 Y25.8735 I1.2365 J0.6829
G1 X-1.3912 Y29.7558
G2 Y30.2442 I1.3912 J0.2442
G1 X-0.7097 Y34.1265
G2 X-0.555 Y34.5652 I1.3912 J-0.2442
G1 X1.0303 Y37.4356
G1 X1.248 Y36.0806
G3 X1.2637 Y35.9882 I5.3267 J0.8557
G3 X4.4592 Y22.5873 I118.1053 J21.0815
G3 X4.4926 Y22.4801 I5.1673 J1.5506
G3 X6.1206 Y17.6125 I234.3604 J75.6785
G1 X5.1533 Y18.1692
G2 X4.8705 Y18.3833 I0.7045 J1.2242
G1 X1.6922 Y21.4899
G2 X1.443 Y21.8171 I0.9873 J1.0101
G0 Z3.0
G0 X5.293 Y44.9699
G1 F300.0 Z-1.0
G2 F2000.0 X4.8578 Y49.9904 I130.6598 J13.8559
G2 X5.1402 Y50.0253 I0.1422 J0.0096
G3 X5.265 Y49.3698 I33.1577 J5.9719
G3 X8.2278 Y45.0529 I6.5372 J1.3116
G1 X6.3415
G3 X5.293 Y44.9699 I0.0 J-6.665
G0 Z3.0
G0 X17.7192 Y42.3656
G1 F300.0 Z-1.0
G1 F2000.0 X19.5317 Y42.5446
G2 X18.4119 Y41.2623 I-36.3804 J30.6393
G2 X17.7192 Y42.3656 I20.1225 J13.4028
G1 F300.0 X16.6258 Y41.7196
G2 F2000.0 X16.3361 Y42.2229 I21.9086 J12.9456
G3 X15.5096 Y43.4236 I-6.9218 J-3.8797
G1 X20.0 Y43.867
G1 X22.0752 Y43.6621
G3 X21.7482 Y43.2672 I5.9445 J-5.256
G2 X18.279 Y39.2609 I-38.5969 J29.9167
G2 X16.6258 Y41.7196 I20.2554 J15.4043
G1 F300.0 X15.5324 Y41.0735
G2 F2000.0 X15.2282 Y41.602 I23.002 J13.5916
G3 X13.9315 Y43.2439 I-5.814 J-3.2587
G3 X12.8009 Y44.089 I-4.6614 J-5.057
G3 X13.7803 Y44.314 I-0.9987 J6.5923
G1 X14.7813 Y44.625
G2 X14.8096 Y44.6307 I0.0423 J-0.1361
G1 X19.986 Y45.1418
G2 X20.014 I0.014 J-0.1418
G1 X25.1904 Y44.6307
G2 X25.2187 Y44.625 I-0.014 J-0.1418
G1 X25.4464 Y44.5542
G3 X22.7519 Y42.4892 I2.5733 J-6.1481
G2 X18.1794 Y37.3592 I-39.6007 J30.6947
G2 X15.5324 Y41.0735 I20.355 J17.306
G0 Z3.0
G0 X31.275 Y45.0621
G1 F300.0 Z-1.0
G3 F2000.0 X33.8277 Y47.8188 I-3.4176 J5.725
G3 X34.8693 Y50.0568 I-42.8526 J21.3049
G2 X35.1422 Y49.9912 I0.1307 J-0.0568
G2 X34.7187 Y44.9885 I-109.3436 J6.7372
G3 X33.2827 Y45.0621 I-1.0572 J-6.5806
G1 X31.275
G1 F300.0 X30.624 Y46.1525
G3 F2000.0 X32.6905 Y48.3842 I-2.7666 J4.6345
G3 X33.7044 Y50.5628 I-41.7154 J20.7395
G2 X36.4098 Y49.9131 I1.2956 J-0.5628
G2 X35.8666 Y43.8321 I-110.6112 J6.8153
G3 X35.8319 Y43.347 I5.3608 J-0.6281
G3 X33.3208 Y43.7921 I-2.1703 J-4.9391
G1 X28.3307
G3 X23.7557 Y41.7112 I-0.3109 J-5.386
G2 X18.1057 Y35.5349 I-40.6044 J31.4727
G2 X14.1204 Y40.9811 I20.4287 J19.1302
G3 X13.0707 Y42.3101 I-4.7061 J-2.6378
G3 X8.9093 Y43.7829 I-3.8006 J-4.1232
G1 X6.3415
G3 X4.1751 Y43.3288 I0.0 J-5.395
G3 X4.1418 Y43.8207 I-5.3962 J-0.1187
G2 X3.5907 Y49.905 I131.8111 J15.0051
G2 X6.3901 Y50.2504 I1.4093 J0.095
G3 X6.5102 Y49.6196 I31.9079 J5.7468
G3 X13.4035 Y45.5268 I5.292 J1.0617
G1 X14.4046 Y45.8378
G2 X14.6848 Y45.8946 I0.4191 J-1.3489
G1 X19.8612 Y46.4057
G2 X20.1388 I0.1388 J-1.4057
G1 X25.3152 Y45.8946
G2 X25.5954 Y45.8378 I-0.1388 J-1.4057
G1 X26.2561 Y45.6326
G3 X30.624 Y46.1525 I1.6013 J5.1545
G0 Z3.0
G0 X39.5306 Y33.4985
G1 F300.0 Z-1.0
G1 F2000.0 X40.1404 Y30.0246
G2 Y29.9754 I-0.1404 J-0.0246
G1 X39.4589 Y26.0931
G2 X39.4433 Y26.0488 I-0.1404 J0.0246
G1 X37.4453 Y22.4311
G2 X37.4201 Y22.3981 I-0.1247 J0.0689
G1 X36.5327 Y21.5307
G3 X39.0691 Y31.1877 I-127.8924 J38.7525
G3 X39.1013 Y31.3405 I-6.5051 J1.4511
G2 X39.5306 Y33.4985 I3515.7642 J-698.2518
G1 F300.0 X38.2851 Y33.7466
G2 F2000.0 X38.7115 Y35.8837 I3516.5804 J-700.6579
G3 X38.7491 Y36.0933 I-5.2903 J1.0574
G2 X38.9689 Y37.4369 I154.6756 J-24.6136
G1 X40.555 Y34.5652
G2 X40.7097 Y34.1265 I-1.2365 J-0.6829
G1 X41.3912 Y30.2442
G2 Y29.7558 I-1.3912 J-0.2442
G1 X40.7097 Y25.8735
G2 X40.555 Y25.4348 I-1.3912 J0.2442
G1 X38.557 Y21.8171
G2 X38.3078 Y21.4899 I-1.2365 J0.6829
G1 X35.1295 Y18.3833
G2 X34.8467 Y18.1692 I-0.9873 J1.0101
G1 X33.9394 Y17.647
G3 X35.2684 Y21.7381 I-100.1274 J34.7884
G3 X37.8296 Y31.4642 I-126.6281 J38.5451
G3 X37.8556 Y31.5879 I-5.2655 J1.1746
G2 X38.2851 Y33.7466 I3517.0098 J-698.4992
G1 F300.0 X37.0395 Y33.9948
G2 F2000.0 X37.4662 Y36.1327 I3517.8259 J-700.9061
G3 X37.4949 Y36.2929 I-4.045 J0.8085
G2 X37.7291 Y37.7223 I155.9298 J-24.8132
G3 X33.3636 Y42.5221 I-4.0676 J0.6856
G1 X28.2916
G3 X24.7595 Y40.9331 I-0.2719 J-4.116
G2 X18.0526 Y33.7726 I-41.6082 J32.2508
G2 X13.0125 Y40.3601 I20.4817 J20.8925
G3 X12.21 Y41.3763 I-3.5983 J-2.0168
G3 X8.9528 Y42.5129 I-2.9399 J-3.1894
G1 X6.3415
G3 X2.2687 Y37.7337 I0.0 J-4.125
G1 X2.5019 Y36.282
G3 X2.5139 Y36.2114 I4.0727 J0.6542
G3 X5.6756 Y22.9524 I116.855 J20.8584
G3 X5.7011 Y22.8704 I3.9509 J1.1856
G3 X8.4637 Y14.7988 I233.1518 J75.2882
G1 X4.5199 Y17.0684
G2 X3.9828 Y17.475 I1.338 J2.325
G1 X0.8045 Y20.5816
G2 X0.3313 Y21.2031 I1.875 J1.9183
G1 X-1.6667 Y24.8208
G2 X-1.9606 Y25.6539 I2.3482 J1.2969
G1 X-2.6421 Y29.5362
G2 Y30.4638 I2.6421 J0.4638
G1 X-1.9606 Y34.3461
G2 X-1.6667 Y35.1792 I2.6421 J-0.4638
G1 X0.3313 Y38.7969
G2 X0.8045 Y39.4183 I2.3482 J-1.2969
G1 X1.664 Y40.2584
G3 X2.8799 Y43.677 I-2.8851 J2.9517
G2 X2.3236 Y49.8196 I133.0729 J15.1488
G2 X7.64 Y50.4755 I2.6764 J0.1804
G3 X7.7554 Y49.8694 I30.658 J5.5217
G3 X13.0268 Y46.7396 I4.0469 J0.8119
G1 X14.0278 Y47.0506
G2 X14.56 Y47.1584 I0.7958 J-2.5617
G1 X19.7364 Y47.6695
G2 X20.2636 I0.2636 J-2.6695
G1 X25.44 Y47.1584
G2 X25.9722 Y47.0506 I-0.2636 J-2.6695
G1 X26.6329 Y46.8454
G3 X31.5533 Y48.9496 I1.2245 J3.9417
G3 X32.5396 Y51.0688 I-40.5782 J20.1742
G2 X37.6774 Y49.835 I2.4604 J-1.0688
G2 X37.128 Y43.6843 I-111.8788 J6.8934
G3 X38.3424 Y40.2522 I4.0995 J-0.4803
G1 X39.1955 Y39.4183
G2 X39.6687 Y38.7969 I-1.875 J-1.9183
G1 X41.6667 Y35.1791
G2 X41.9606 Y34.3461 I-2.3482 J-1.2969
G1 X42.6421 Y30.4638
G2 Y29.5362 I-2.6421 J-0.4638
G1 X41.9606 Y25.6539
G2 X41.6667 Y24.8209 I-2.6421 J0.4638
G1 X39.6687 Y21.2031
G2 X39.1955 Y20.5817 I-2.3482 J1.2969
G1 X36.0172 Y17.475
G2 X35.4802 Y17.0684 I-1.875 J1.9183
G1 X31.5465 Y14.8046
G3 X34.0531 Y22.1069 I-97.7345 J37.6308
G3 X36.59 Y31.7407 I-125.4128 J38.1763
G3 X36.61 Y31.8353 I-4.026 J0.8981
G2 X37.0395 Y33.9948 I3518.2555 J-698.7466
G0 Z3.0
G0 X20.1162 Y5.1712
G1 F300.0 Z-1.0
G2 F2000.0 X20.0105 Y4.9696 I-89.7682 J46.9555
G2 X19.9053 Y5.1712 I99.0303 J51.8003
G1 X20.1162
G1 F300.0 Y6.4412
G1 F2000.0 X22.1898
G2 X20.0061 Y2.2917 I-91.8418 J45.6855
G2 X17.8342 Y6.4412 I99.0347 J54.4781
G1 X20.1162
G1 F300.0 Y7.7112
G1 F2000.0 X24.2177
G2 X20.1232 Y-0.0716 I-93.8696 J44.4155
G2 X19.8764 Y-0.0709 I-0.1232 J0.0716
G2 X15.8047 Y7.7112 I99.1644 J56.8408
G1 X20.1162
G1 F300.0 Y8.9812
G1 F2000.0 X26.2026
G2 X21.2211 Y-0.71 I-95.8545 J43.1455
G2 X18.7745 Y-0.7024 I-1.2211 J0.71
G2 X13.8142 Y8.9812 I100.2663 J57.4723
G1 X20.1162
G1 F300.0 Y10.2512
G1 F2000.0 X26.6628
G3 X28.2328 Y10.4516 I0.2724 J4.116
G2 X22.319 Y-1.3483 I-97.8847 J41.675
G2 X17.6727 Y-1.334 I-2.319 J1.3483
G2 X11.762 Y10.4795 I101.3681 J58.1039
G3 X12.5453 Y10.3036 I1.2912 J3.9177
G1 X12.7148 Y10.2826
G3 X13.2226 Y10.2512 I0.5078 J4.0936
G1 X20.1162
G1 F300.0 Y11.5212
G1 F2000.0 X26.7086
G3 X29.5778 Y13.2868 I0.2266 J2.846
G3 X32.8379 Y22.4757 I-95.7659 J39.1485
G3 X35.3505 Y32.0173 I-124.1975 J37.8075
G3 X35.3643 Y32.0827 I-2.7865 J0.6216
G2 X36.2208 Y36.3816 I3519.5012 J-698.994
G3 X36.2407 Y36.4925 I-2.7996 J0.5596
G2 X36.4768 Y37.9334 I157.184 J-25.0127
G3 X33.4137 Y41.2521 I-2.8153 J0.4745
G1 X28.2459
G3 X25.7633 Y40.1551 I-0.2261 J-2.846
G2 X18.2019 Y32.2188 I-42.612 J33.0288
G2 X18.0967 Y32.1966 I-0.0825 J0.1299
G3 X17.8394 Y32.2231 I-0.4218 J-2.8236
G2 X11.9047 Y39.7392 I20.695 J22.442
G3 X11.3492 Y40.4425 I-2.4904 J-1.3959
G3 X9.0034 Y41.2429 I-2.0791 J-2.2556
G1 X6.3415
G3 X3.5227 Y37.9351 I0.0 J-2.855
G1 X3.7559 Y36.4834
G3 X3.7641 Y36.4346 I2.8188 J0.4528
G3 X6.892 Y23.3174 I115.6048 J20.6352
G3 X6.9097 Y23.2607 I2.7345 J0.8206
G3 X9.7902 Y14.8661 I231.9432 J74.8979
G3 X9.8238 Y14.7783 I2.6831 J0.9756
G1 X10.4036 Y13.3337
G3 X12.7017 Y11.5639 I2.6495 J1.0635
G1 X12.8711 Y11.5429
G3 X13.2226 Y11.5212 I0.3515 J2.8332
G1 X20.1162
G1 F300.0 Y12.7886
G1 F2000.0 X26.7663
G3 X28.4046 Y13.7664 I0.1688 J1.5785
G3 X31.625 Y22.8438 I-94.5927 J38.6689
G3 X34.1134 Y32.2932 I-122.9847 J37.4394
G3 X34.1211 Y32.3296 I-1.5494 J0.3456
G2 X34.9779 Y36.63 I3520.7444 J-699.2409
G3 X34.989 Y36.6917 I-1.5567 J0.3111
G2 X35.2269 Y38.144 I158.4357 J-25.2119
G3 X33.4769 Y39.9846 I-1.5654 J0.2639
G1 X28.1883
G3 X26.765 Y39.3786 I-0.1685 J-1.5785
G2 X18.9918 Y31.2266 I-43.6138 J33.8053
G2 X17.9094 Y30.943 I-0.8724 J1.1222
G3 X17.6505 Y30.9602 I-0.2346 J-1.5701
G2 X17.3338 Y30.9701 I-0.0522 J3.4021
G2 X10.7991 Y39.1194 I21.2006 J23.695
G3 X10.4902 Y39.5105 I-1.3848 J-0.7762
G3 X9.0659 Y39.9754 I-1.2201 J-1.3236
G1 X6.3415
G3 X4.7741 Y38.1362 I0.0 J-1.5875
G1 X5.0073 Y36.6845
G3 X5.0119 Y36.6573 I1.5674 J0.2518
G3 X8.106 Y23.6817 I114.357 J20.4125
G3 X8.1158 Y23.6501 I1.5205 J0.4563
G3 X10.9814 Y15.2992 I230.7371 J74.5085
G3 X11.0 Y15.2504 I1.4919 J0.5425
G1 X11.5799 Y13.8058
G3 X12.8577 Y12.8217 I1.4733 J0.5913
G1 X13.0272 Y12.8007
G3 X13.2226 Y12.7886 I0.1954 J1.5754
G1 X20.1162
G0 Z3.0
G0 X28.953 Y8.9162
G1 F300.0 Z-1.0
G2 F2000.0 X23.4169 Y-1.9867 I-98.6049 J43.2104
G2 X16.5709 Y-1.9656 I-3.4169 J1.9867
G2 X9.7792 Y11.9164 I102.4699 J58.7355
G3 X8.3376 Y13.4237 I-2.6434 J-1.0852
G2 X8.0285 Y13.5839 I1.6624 J3.5859
G1 X3.8864 Y15.9677
G2 X3.0951 Y16.5668 I1.9715 J3.4257
G1 X-0.0832 Y19.6734
G2 X-0.7804 Y20.5891 I2.7627 J2.8266
G1 X-2.7784 Y24.2069
G2 X-3.2115 Y25.4344 I3.4599 J1.9109
G1 X-3.893 Y29.3166
G2 Y30.6834 I3.893 J0.6834
G1 X-3.2115 Y34.5656
G2 X-2.7784 Y35.7931 I3.893 J-0.6834
G1 X-0.7804 Y39.4109
G2 X-0.0833 Y40.3266 I3.4599 J-1.9109
G1 X0.7762 Y41.1667
G3 X1.6181 Y43.5334 I-1.9974 J2.0435
G2 X1.0564 Y49.7342 I134.3348 J15.2924
G2 X8.8899 Y50.7006 I3.9436 J0.2658
G3 X9.0006 Y50.1192 I29.4081 J5.2965
G3 X12.65 Y47.9525 I2.8017 J0.5621
G1 X13.651 Y48.2634
G2 X14.4352 Y48.4223 I1.1726 J-3.7746
G1 X19.6116 Y48.9334
G2 X20.3884 I0.3884 J-3.9334
G1 X25.5648 Y48.4223
G2 X26.349 Y48.2634 I-0.3884 J-3.9334
G1 X27.0097 Y48.0582
G3 X30.4161 Y49.5149 I0.8477 J2.7289
G3 X31.3748 Y51.5748 I-39.441 J19.6088
G2 X38.945 Y49.7569 I3.6252 J-1.5748
G2 X38.3894 Y43.5365 I-113.1464 J6.9715
G3 X39.2301 Y41.1604 I2.8381 J-0.3325
G1 X40.0833 Y40.3266
G2 X40.7804 Y39.4109 I-2.7627 J-2.8266
G1 X42.7784 Y35.7931
G2 X43.2115 Y34.5656 I-3.4599 J-1.9109
G1 X43.893 Y30.6834
G2 Y29.3166 I-3.893 J-0.6834
G1 X43.2115 Y25.4344
G2 X42.7784 Y24.2069 I-3.893 J0.6834
G1 X40.7804 Y20.5891
G2 X40.0833 Y19.6734 I-3.4599 J1.9109
G1 X36.9049 Y16.5668
G2 X36.1136 Y15.9677 I-2.7627 J2.8266
G1 X31.9715 Y13.5839
G2 X31.6576 Y13.4215 I-1.9715 J3.4257
G3 X30.2055 Y11.8953 I1.1984 J-2.5941
G2 X28.953 Y8.9162 I-99.8574 J40.2314
G1 F300.0 X30.1162 Y8.4065
G2 F2000.0 X24.5148 Y-2.6251 I-99.7681 J43.7202
G2 X15.4691 Y-2.5971 I-4.5148 J2.6251
G2 X8.6043 Y11.4341 I103.5717 J59.367
G3 X7.8034 Y12.2715 I-1.4686 J-0.6029
G2 X7.3951 Y12.4832 I2.1966 J4.7381
G1 X3.2529 Y14.8669
G2 X2.2074 Y15.6586 I2.6049 J4.5265
G1 X-0.971 Y18.7652
G2 X-1.8921 Y19.9752 I3.6505 J3.7348
G1 X-3.8901 Y23.5929
G2 X-4.4624 Y25.2148 I4.5716 J2.5248
G1 X-5.1439 Y29.0971
G2 Y30.9029 I5.1439 J0.9029
G1 X-4.4624 Y34.7852
G2 X-3.8901 Y36.4071 I5.1439 J-0.9029
G1 X-1.8921 Y40.0248
G2 X-0.971 Y41.2348 I4.5716 J-2.5248
G1 X-0.1115 Y42.0749
G3 X0.3562 Y43.3897 I-1.1096 J1.1353
G2 X-0.2107 Y49.6488 I135.5966 J15.4361
G2 X10.1398 Y50.9257 I5.2107 J0.3512
G3 X10.2458 Y50.369 I28.1582 J5.0714
G3 X12.2732 Y49.1653 I1.5565 J0.3123
G1 X13.2742 Y49.4763
G2 X14.3105 Y49.6861 I1.5494 J-4.9874
G1 X19.4868 Y50.1972
G2 X20.5132 I0.5132 J-5.1972
G1 X25.6895 Y49.6861
G2 X26.7258 Y49.4763 I-0.5132 J-5.1972
G1 X27.3864 Y49.271
G3 X29.2789 Y50.0803 I0.471 J1.516
G3 X30.2099 Y52.0807 I-38.3038 J19.0434
G2 X40.2126 Y49.6788 I4.7901 J-2.0807
G2 X39.6508 Y43.3887 I-114.414 J7.0496
G3 X40.1178 Y42.0687 I1.5767 J-0.1847
G1 X40.971 Y41.2348
G2 X41.8921 Y40.0248 I-3.6505 J-3.7348
G1 X43.8901 Y36.4071
G2 X44.4624 Y34.7852 I-4.5716 J-2.5248
G1 X45.1439 Y30.9029
G2 Y29.0971 I-5.1439 J-0.9029
G1 X44.4624 Y25.2148
G2 X43.8901 Y23.5929 I-5.1439 J0.9029
G1 X41.8921 Y19.9752
G2 X40.971 Y18.7652 I-4.5716 J2.5248
G1 X37.7926 Y15.6586
G2 X36.7471 Y14.8669 I-3.6505 J3.7348
G1 X32.6049 Y12.4832
G2 X32.1902 Y12.2686 I-2.6049 J4.5265
G3 X31.3835 Y11.4207 I0.6658 J-1.4412
G2 X30.1162 Y8.4065 I-101.0354 J40.706
G0 Z3.0
G0 X20.6214 Y0.7948
G1 F300.0 Z-2.0
G2 F2000.0 X20.1232 Y-0.0716 I-90.2733 J51.3318
G2 X19.8764 Y-0.0709 I-0.1232 J0.0716
G2 X19.3495 Y0.8584 I99.1644 J56.8408
G1 X20.5136 Y0.8057
G1 X20.6214 Y0.7948
G1 F300.0 X21.7254 Y0.167
G2 F2000.0 X21.2211 Y-0.71 I-91.3773 J51.9596
G2 X18.7745 Y-0.7024 I-1.2211 J0.71
G2 X17.1502 Y2.2292 I100.2663 J57.4723
G1 X20.6061 Y2.0728
G1 X21.545 Y1.978
G3 X22.5587 Y1.6607 I2.1105 J4.965
G2 X21.7254 Y0.167 I-92.2107 J50.4659
G1 F300.0 X22.8294 Y-0.4607
G2 F2000.0 X22.319 Y-1.3483 I-92.4813 J52.5874
G2 X17.6727 Y-1.334 I-2.319 J1.3483
G2 X14.9545 Y3.6889 I101.3681 J58.1039
G3 X15.802 Y3.5615 I1.0339 J3.9933
G1 X20.6987 Y3.3399
G1 X21.8776 Y3.2209
G3 X24.6868 Y2.9491 I1.7779 J3.7221
G2 X22.8294 Y-0.4607 I-94.3387 J49.1776
G0 Z3.0
G0 X36.5382 Y21.5361
G1 F300.0 Z-2.0
G3 F2000.0 X36.7197 Y22.1014 I-4164.7929 J1337.1702
G3 X36.7569 Y22.2214 I-6.3462 J2.0366
G3 X39.5431 Y33.4269 I-115.3127 J34.6212
G1 X40.1404 Y30.0246
G2 Y29.9754 I-0.1404 J-0.0246
G1 X39.4589 Y26.0931
G2 X39.4433 Y26.0488 I-0.1404 J0.0246
G1 X37.4453 Y22.4311
G2 X37.4201 Y22.3981 I-0.1247 J0.0689
G1 X36.5382 Y21.5361
G1 F300.0 X35.329 Y21.9243
G3 F2000.0 X35.5104 Y22.4894 I-4163.5837 J1336.7819
G3 X35.5406 Y22.5866 I-5.1369 J1.6485
G3 X38.734 Y35.9963 I-114.0963 J34.256
G3 X38.7499 Y36.0911 I-5.3117 J0.9441
G3 X38.9626 Y37.4485 I-250.075 J39.8661
G1 X40.555 Y34.5652
G2 X40.7097 Y34.1265 I-1.2365 J-0.6829
G1 X41.3912 Y30.2442
G2 Y29.7558 I-1.3912 J-0.2442
G1 X40.7097 Y25.8735
G2 X40.555 Y25.4348 I-1.3912 J0.2442
G1 X38.557 Y21.8171
G2 X38.3078 Y21.4899 I-1.2365 J0.6829
G1 X35.1295 Y18.3833
G2 X34.8467 Y18.1692 I-0.9873 J1.0101
G1 X33.9399 Y17.6473
G3 X34.1353 Y18.2147 I-113.396 J39.3667
G3 X34.1652 Y18.3048 I-5.1054 J1.7438
G3 X35.329 Y21.9243 I-4162.4199 J1340.4015
G1 F300.0 X34.1198 Y22.3126
G3 F2000.0 X34.3011 Y22.8775 I-4162.3745 J1336.3937
G3 X34.3242 Y22.9518 I-3.9277 J1.2604
G3 X37.4836 Y36.2185 I-112.8799 J33.8908
G3 X37.4958 Y36.291 I-4.0613 J0.7218
G3 X38.1274 Y40.479 I-248.8208 J39.6662
G3 X38.3424 Y40.2522 I3.1001 J2.725
G1 X39.1955 Y39.4183
G2 X39.6687 Y38.7969 I-1.875 J-1.9183
G1 X41.6667 Y35.1791
G2 X41.9606 Y34.3461 I-2.3482 J-1.2969
G1 X42.6421 Y30.4638
G2 Y29.5362 I-2.6421 J-0.4638
G1 X41.9606 Y25.6539
G2 X41.6667 Y24.8209 I-2.6421 J0.4638
G1 X39.6687 Y21.2031
G2 X39.1955 Y20.5817 I-2.3482 J1.2969
G1 X36.0172 Y17.475
G2 X35.4802 Y17.0684 I-1.875 J1.9183
G1 X31.5575 Y14.8109
G3 X32.9334 Y18.6252 I-111.0136 J42.2031
G3 X32.9563 Y18.6941 I-3.9035 J1.3333
G3 X34.1198 Y22.3126 I-4161.211 J1340.0122
G0 Z3.0
G0 X18.4323 Y41.2793
G1 F300.0 Z-2.0
G2 F2000.0 X17.7169 Y42.3654 I22.8476 J15.8269
G1 X19.5404 Y42.5455
G2 X18.4323 Y41.2793 I-36.7183 J31.0183
G1 F300.0 X17.3883 Y40.5561
G2 F2000.0 X15.9491 Y42.8561 I23.8916 J16.55
G3 X15.9098 Y42.926 I-6.9356 J-3.855
G2 X15.6272 Y43.4353 I23.4968 J13.3728
G1 X20.0 Y43.867
G1 X22.0582 Y43.6638
G2 X21.1467 Y42.4945 I-40.1922 J30.3939
G2 X18.3138 Y39.2941 I-38.3246 J31.0692
G2 X17.3883 Y40.5561 I22.9661 J17.8121
G1 F300.0 X16.3443 Y39.833
G2 F2000.0 X14.8406 Y42.2364 I24.9355 J17.2732
G3 X14.8061 Y42.2978 I-5.827 J-3.2354
G2 X13.7655 Y44.3094 I24.6006 J14.001
G3 X13.7803 Y44.314 I-1.9632 J6.3719
G1 X14.7813 Y44.625
G2 X14.8096 Y44.6307 I0.0423 J-0.1361
G1 X19.986 Y45.1418
G2 X20.014 I0.014 J-0.1418
G1 X24.3814 Y44.7106
G2 X22.135 Y41.6969 I-42.5153 J29.3471
G2 X18.2204 Y37.3981 I-39.3128 J31.8669
G2 X16.3443 Y39.833 I23.0594 J19.7081
G1 F300.0 X15.3003 Y39.1098
G2 F2000.0 X13.7318 Y41.6171 I25.9795 J17.9964
G3 X13.7023 Y41.6696 I-4.7183 J-2.616
G2 X11.9577 Y45.2861 I25.7043 J14.6292
G3 X13.4035 Y45.5268 I-0.1554 J5.3953
G1 X14.4046 Y45.8378
G2 X14.6848 Y45.8946 I0.4191 J-1.3489
G1 X19.8612 Y46.4057
G2 X20.1388 I0.1388 J-1.4057
G1 X25.3152 Y45.8946
G2 X25.5954 Y45.8378 I-0.1388 J-1.4057
G1 X26.2561 Y45.6326
G3 X26.476 Y45.5693 I1.6013 J5.1545
G2 X23.1232 Y40.8993 I-44.61 J28.4884
G2 X18.147 Y35.573 I-40.3011 J32.6645
G2 X15.3003 Y39.1098 I23.1328 J21.5332
G0 Z3.0
G0 X6.5768 Y49.3295
G1 F300.0 Z-2.0
G3 F2000.0 X3.6487 Y49.0821 I-1.027 J-5.2963
G2 X3.5907 Y49.905 I132.3041 J9.7437
G2 X6.3901 Y50.2504 I1.4093 J0.095
G3 X6.5102 Y49.6196 I31.9079 J5.7468
G3 X6.5768 Y49.3295 I5.292 J1.0617
G1 F300.0 X7.8063 Y49.6475
G3 F2000.0 X13.0268 Y46.7396 I3.9959 J1.0338
G1 X14.0278 Y47.0506
G2 X14.56 Y47.1584 I0.7958 J-2.5617
G1 X19.7364 Y47.6695
G2 X20.2636 I0.2636 J-2.6695
G1 X25.44 Y47.1584
G2 X25.9722 Y47.0506 I-0.2636 J-2.6695
G1 X26.6329 Y46.8454
G3 X28.6749 Y46.7413 I1.2245 J3.9417
G3 X28.6449 Y46.6892 I3.5597 J-2.0841
G1 X28.533 Y46.4916
G2 X24.1115 Y40.1016 I-46.667 J27.5661
G2 X18.0941 Y33.8093 I-41.2894 J33.4621
G3 X17.9921 Y33.9033 I-184.5102 J-200.0102
G2 X12.6228 Y40.9982 I23.2878 J23.2028
G3 X12.5986 Y41.0414 I-3.6093 J-1.9971
G2 X10.7031 Y45.0042 I26.8081 J15.2573
G3 X7.8201 Y47.5066 I-3.8385 J-1.5104
G3 X7.7302 Y47.5427 I-2.403 J-5.8556
G3 X7.3311 Y47.7537 I-2.8503 J-4.9087
G3 X2.5551 Y46.8699 I-1.7813 J-3.7205
G2 X2.3236 Y49.8196 I133.3977 J11.9559
G2 X7.64 Y50.4755 I2.6764 J0.1804
G3 X7.7554 Y49.8694 I30.658 J5.5217
G3 X7.8063 Y49.6475 I4.0469 J0.8119
G0 Z3.0
G0 X0.4694 Y33.4985
G1 F300.0 Z-2.0
G3 F2000.0 X1.965 Y26.809 I215.6566 J44.7034
G3 X1.9933 Y26.6957 I6.481 J1.5553
G3 X3.4465 Y21.5511 I116.285 J30.0694
G1 X2.5799 Y22.3981
G2 X2.5548 Y22.4311 I0.0996 J0.1019
G1 X0.5567 Y26.0488
G2 X0.5411 Y26.0931 I0.1247 J0.0689
G1 X-0.1404 Y29.9754
G2 Y30.0246 I0.1404 J0.0246
G1 X0.4694 Y33.4985
G1 F300.0 X-0.7814 Y33.7181
G1 F2000.0 X-0.7097 Y34.1265
G2 X-0.555 Y34.5652 I1.3912 J-0.2442
G1 X1.0136 Y37.4054
G3 X1.2686 Y35.9591 I97.0384 J16.3593
G3 X1.2812 Y35.8928 I5.3059 J0.9761
G3 X3.2 Y27.1053 I214.8448 J42.3091
G3 X3.2228 Y27.0136 I5.246 J1.2589
G3 X6.0613 Y17.6466 I115.0554 J29.7515
G1 X5.1533 Y18.1692
G2 X4.8705 Y18.3833 I0.7045 J1.2242
G1 X1.6922 Y21.4899
G2 X1.443 Y21.8171 I0.9873 J1.0101
G1 X-0.555 Y25.4348
G2 X-0.7097 Y25.8735 I1.2365 J0.6829
G1 X-1.3912 Y29.7558
G2 Y30.2442 I1.3912 J0.2442
G1 X-0.7814 Y33.7181
G1 F300.0 X-2.0323 Y33.9377
G1 F2000.0 X-1.9606 Y34.3461
G2 X-1.6667 Y35.1792 I2.6421 J-0.4638
G1 X0.3313 Y38.7969
G2 X0.8045 Y39.4183 I2.3482 J-1.2969
G1 X1.664 Y40.2584
G3 X1.8334 Y40.4341 I-2.8851 J2.9517
G3 X2.5176 Y36.1889 I96.2187 J13.3305
G3 X2.5273 Y36.1382 I4.0569 J0.7464
G3 X4.4349 Y27.4017 I213.5988 J42.0637
G3 X4.4524 Y27.3316 I4.0111 J0.9626
G3 X8.4506 Y14.8063 I113.8259 J29.4336
G1 X4.5199 Y17.0684
G2 X3.9828 Y17.475 I1.338 J2.325
G1 X0.8045 Y20.5816
G2 X0.3313 Y21.2031 I1.875 J1.9183
G1 X-1.6667 Y24.8208
G2 X-1.9606 Y25.6539 I2.3482 J1.2969
G1 X-2.6421 Y29.5362
G2 Y30.4638 I2.6421 J0.4638
G1 X-2.0323 Y33.9377
G0 Z3.0
G0 X33.4322 Y49.9482
G1 F300.0 Z-2.0
G3 F2000.0 X33.7044 Y50.5628 I-42.4571 J19.1755
G2 X36.4098 Y49.9131 I1.2956 J-0.5628
G2 X36.3742 Y49.3582 I-110.6112 J6.8153
G3 X35.1434 Y49.6599 I-1.891 J-5.0527
G3 X34.6314 Y49.7294 I-1.0625 J-5.9116
G3 X33.4322 Y49.9482 I-3.238 J-14.3481
G1 F300.0 X33.2562 Y48.6905
G3 F2000.0 X32.6071 Y48.7653 I-1.8628 J-13.3092
G3 X31.4187 Y48.7006 I-0.3725 J-4.1081
G3 X31.5533 Y48.9496 I-3.5613 J2.0864
G3 X32.5396 Y51.0688 I-40.5782 J20.1742
G2 X37.6774 Y49.835 I2.4604 J-1.0688
G2 X37.4788 Y47.1413 I-111.8788 J6.8934
G3 X34.9535 Y48.4036 I-2.9956 J-2.8358
G3 X34.4355 Y48.4713 I-0.8726 J-4.6553
G3 X33.2562 Y48.6905 I-3.0421 J-13.0901
G1 F300.0 X33.0801 Y47.4327
G3 F2000.0 X32.4924 Y47.5005 I-1.6867 J-12.0515
G3 X29.7501 Y46.0636 I-0.2578 J-2.8433
G1 X29.6325 Y45.8559
G2 X25.0998 Y39.304 I-47.7664 J28.2018
G2 X18.1941 Y32.2122 I-42.2776 J34.2598
G2 X17.9455 Y32.2161 I-0.0747 J3.0954
G3 X17.1117 Y32.9876 I-184.3616 J-198.417
G2 X11.5134 Y40.38 I24.1681 J24.1186
G3 X11.4948 Y40.4132 I-2.4999 J-1.3789
G2 X9.5213 Y44.5392 I27.9118 J15.8855
G3 X7.4326 Y46.2917 I-2.6567 J-1.0454
G3 X7.175 Y46.3953 I-2.0155 J-4.6407
G3 X6.7826 Y46.6082 I-2.2951 J-3.7613
G3 X2.7105 Y43.7344 I-1.2329 J-2.575
G3 X3.7667 Y36.4187 I95.3416 J10.0302
G3 X3.7733 Y36.3836 I2.8078 J0.5166
G3 X5.6699 Y27.6981 I212.3527 J41.8183
G3 X5.682 Y27.6495 I2.7761 J0.6662
G3 X9.8095 Y14.8108 I112.5963 J29.1156
G3 X9.8177 Y14.7896 I2.6627 J1.0299
G3 X13.4015 Y6.4744 I140.8226 J55.7631
G3 X15.8594 Y4.8302 I2.5869 J1.2078
G1 X20.7912 Y4.607
G1 X22.2462 Y4.4601
G3 X26.2097 Y5.6674 I1.4093 J2.4829
G1 X26.6232 Y6.4955
G3 X26.6472 Y6.5448 I-2.5541 J1.2756
G3 X31.7316 Y19.0357 I-106.1034 J50.4692
G3 X31.7474 Y19.0834 I-2.7017 J0.9228
G3 X33.0919 Y23.2656 I-4160.0021 J1339.6229
G3 X33.1079 Y23.317 I-2.7184 J0.8724
G3 X36.2332 Y36.4408 I-111.6636 J33.5256
G3 X36.2416 Y36.4909 I-2.8109 J0.4996
G3 X37.3148 Y43.9409 I-247.5667 J39.4663
G3 X34.7645 Y47.1466 I-2.8316 J0.3646
G3 X34.2481 Y47.2106 I-0.6836 J-3.3983
G3 X33.0801 Y47.4327 I-2.8547 J-11.8293
G1 F300.0 X32.9045 Y46.1775
G3 F2000.0 X32.3779 Y46.2382 I-1.511 J-10.7962
G3 X30.8531 Y45.4392 I-0.1434 J-1.581
G1 X30.7298 Y45.2215
G2 X26.0861 Y38.5079 I-48.8638 J28.8362
G2 X18.97 Y31.208 I-43.2639 J35.0558
G2 X18.4066 Y30.9533 I-0.7232 J0.8492
G2 X17.3854 Y31.006 I-0.2872 J4.3543
G3 X16.2335 Y32.0733 I-183.8015 J-197.2069
G2 X10.4056 Y39.7641 I25.0463 J25.0329
G3 X10.3932 Y39.7863 I-1.3921 J-0.763
G2 X8.3419 Y44.0751 I29.0134 J16.5125
G3 X7.1778 Y45.0501 I-1.4772 J-0.5813
G1 X7.0412 Y45.0776
G3 X6.6172 Y45.2481 I-1.6242 J-3.4266
G3 X6.2353 Y45.465 I-1.7373 J-2.6142
G3 X3.971 Y43.8671 I-0.6855 J-1.4319
G3 X5.0132 Y36.648 I94.0811 J9.8976
G3 X5.0169 Y36.6285 I1.5613 J0.2872
G3 X6.9023 Y27.9938 I211.1091 J41.5734
G3 X6.9091 Y27.9668 I1.5437 J0.3704
G3 X10.9916 Y15.2681 I111.3692 J28.7983
G3 X10.9962 Y15.2563 I1.4806 J0.5727
G3 X14.55 Y7.0106 I139.6441 J55.2964
G3 X15.9167 Y6.0963 I1.4384 J0.6716
G1 X20.8836 Y5.8716
G1 X22.6806 Y5.6902
G3 X25.0758 Y6.2337 I0.975 J1.2528
G1 X25.4893 Y7.0618
G3 X25.5027 Y7.0892 I-1.4202 J0.7093
G3 X30.5322 Y19.4454 I-104.9588 J49.9248
G3 X30.541 Y19.4719 I-1.5023 J0.5131
G3 X31.8851 Y23.6529 I-4158.7957 J1339.2344
G3 X31.8939 Y23.6815 I-1.5116 J0.4851
G3 X34.9853 Y36.6626 I-110.4497 J33.1612
G3 X34.99 Y36.6905 I-1.563 J0.2778
G3 X36.0578 Y44.1027 I-246.315 J39.2667
G3 X34.5785 Y45.8901 I-1.5745 J0.2027
G3 X34.0773 Y45.9472 I-0.4976 J-2.1418
G3 X32.9045 Y46.1775 I-2.6839 J-10.5659
G0 Z3.0
G0 X29.9673 Y48.86
G1 F300.0 Z-2.0
G3 F2000.0 X30.4161 Y49.5149 I-2.1099 J1.927
G3 X31.3748 Y51.5748 I-39.441 J19.6088
G2 X38.945 Y49.7569 I3.6252 J-1.5748
G2 X38.3894 Y43.5365 I-113.1464 J6.9715
G3 X39.2301 Y41.1604 I2.8381 J-0.3325
G1 X40.0833 Y40.3266
G2 X40.7804 Y39.4109 I-2.7627 J-2.8266
G1 X42.7784 Y35.7931
G2 X43.2115 Y34.5656 I-3.4599 J-1.9109
G1 X43.893 Y30.6834
G2 Y29.3166 I-3.893 J-0.6834
G1 X43.2115 Y25.4344
G2 X42.7784 Y24.2069 I-3.893 J0.6834
G1 X40.7804 Y20.5891
G2 X40.0833 Y19.6734 I-3.4599 J1.9109
G1 X36.9049 Y16.5668
G2 X36.1136 Y15.9677 I-2.7627 J2.8266
G1 X31.9715 Y13.5839
G2 X31.6576 Y13.4215 I-1.9715 J3.4257
G3 X30.2055 Y11.8953 I1.1984 J-2.5941
G2 X23.4169 Y-1.9867 I-99.8574 J40.2314
G2 X16.5709 Y-1.9656 I-3.4169 J1.9867
G2 X9.7792 Y11.9164 I102.4699 J58.7355
G3 X8.3376 Y13.4237 I-2.6434 J-1.0852
G2 X8.0285 Y13.5839 I1.6624 J3.5859
G1 X3.8864 Y15.9677
G2 X3.0951 Y16.5668 I1.9715 J3.4257
G1 X-0.0832 Y19.6734
G2 X-0.7804 Y20.5891 I2.7627 J2.8266
G1 X-2.7784 Y24.2069
G2 X-3.2115 Y25.4344 I3.4599 J1.9109
G1 X-3.893 Y29.3166
G2 Y30.6834 I3.893 J0.6834
G1 X-3.2115 Y34.5656
G2 X-2.7784 Y35.7931 I3.893 J-0.6834
G1 X-0.7804 Y39.4109
G2 X-0.0833 Y40.3266 I3.4599 J-1.9109
G1 X0.7762 Y41.1667
G3 X1.6181 Y43.5334 I-1.9974 J2.0435
G2 X1.0564 Y49.7342 I134.3348 J15.2924
G2 X8.8899 Y50.7006 I3.9436 J0.2658
G3 X9.0006 Y50.1192 I29.4081 J5.2965
G3 X12.65 Y47.9525 I2.8017 J0.5621
G1 X13.651 Y48.2634
G2 X14.4352 Y48.4223 I1.1726 J-3.7746
G1 X19.6116 Y48.9334
G2 X20.3884 I0.3884 J-3.9334
G1 X25.5648 Y48.4223
G2 X26.349 Y48.2634 I-0.3884 J-3.9334
G1 X27.0097 Y48.0582
G3 X29.9673 Y48.86 I0.8477 J2.7289
G1 F300.0 X29.0296 Y49.7165
G3 F2000.0 X29.2789 Y50.0803 I-1.1722 J1.0706
G3 X30.2099 Y52.0807 I-38.3038 J19.0434
G2 X40.2126 Y49.6788 I4.7901 J-2.0807
G2 X39.6508 Y43.3887 I-114.414 J7.0496
G3 X40.1178 Y42.0687 I1.5767 J-0.1847
G1 X40.971 Y41.2348
G2 X41.8921 Y40.0248 I-3.6505 J-3.7348
G1 X43.8901 Y36.4071
G2 X44.4624 Y34.7852 I-4.5716 J-2.5248
G1 X45.1439 Y30.9029
G2 Y29.0971 I-5.1439 J-0.9029
G1 X44.4624 Y25.2148
G2 X43.8901 Y23.5929 I-5.1439 J0.9029
G1 X41.8921 Y19.9752
G2 X40.971 Y18.7652 I-4.5716 J2.5248
G1 X37.7926 Y15.6586
G2 X36.7471 Y14.8669 I-3.6505 J3.7348
G1 X32.6049 Y12.4832
G2 X32.1902 Y12.2686 I-2.6049 J4.5265
G3 X31.3835 Y11.4207 I0.6658 J-1.4412
G2 X24.5148 Y-2.6251 I-101.0354 J40.706
G2 X15.4691 Y-2.5971 I-4.5148 J2.6251
G2 X8.6043 Y11.4341 I103.5717 J59.367
G3 X7.8034 Y12.2715 I-1.4686 J-0.6029
G2 X7.3951 Y12.4832 I2.1966 J4.7381
G1 X3.2529 Y14.8669
G2 X2.2074 Y15.6586 I2.6049 J4.5265
G1 X-0.971 Y18.7652
G2 X-1.8921 Y19.9752 I3.6505 J3.7348
G1 X-3.8901 Y23.5929
G2 X-4.4624 Y25.2148 I4.5716 J2.5248
G1 X-5.1439 Y29.0971
G2 Y30.9029 I5.1439 J0.9029
G1 X-4.4624 Y34.7852
G2 X-3.8901 Y36.4071 I5.1439 J-0.9029
G1 X-1.8921 Y40.0248
G2 X-0.971 Y41.2348 I4.5716 J-2.5248
G1 X-0.1115 Y42.0749
G3 X0.3562 Y43.3897 I-1.1096 J1.1353
G2 X-0.2107 Y49.6488 I135.5966 J15.4361
G2 X10.1398 Y50.9257 I5.2107 J0.3512
G3 X10.2458 Y50.369 I28.1582 J5.0714
G3 X12.2732 Y49.1653 I1.5565 J0.3123
G1 X13.2742 Y49.4763
G2 X14.3105 Y49.6861 I1.5494 J-4.9874
G1 X19.4868 Y50.1972
G2 X20.5132 I0.5132 J-5.1972
G1 X25.6895 Y49.6861
G2 X26.7258 Y49.4763 I-0.5132 J-5.1972
G1 X27.3864 Y49.271
G3 X29.0296 Y49.7165 I0.471 J1.516
G0 Z3.0
G0 X19.5194 Y42.5434
G1 F300.0 Z-3.0
G2 F2000.0 X18.432 Y41.2973 I-36.9866 J31.1798
G2 X17.722 Y42.3659 I22.3548 J15.6215
G1 X19.5194 Y42.5434
G1 F300.0 X19.3946 Y43.8072
G1 F2000.0 X20.0 Y43.867
G1 X22.0447 Y43.6651
G2 X18.3201 Y39.3148 I-39.5119 J30.058
G2 X15.9374 Y42.8775 I22.4666 J17.604
G2 X15.6345 Y43.436 I29.0999 J16.1393
G1 X19.3946 Y43.8072
G1 F300.0 X19.2698 Y45.0711
G1 F2000.0 X19.986 Y45.1418
G2 X20.014 I0.014 J-0.1418
G1 X24.3741 Y44.7113
G2 X18.2341 Y37.4216 I-41.8413 J29.0119
G2 X14.8292 Y42.2571 I22.5527 J19.4972
G2 X13.7769 Y44.3129 I30.208 J16.7597
G3 X13.7803 Y44.314 I-1.9746 J6.3684
G1 X14.7813 Y44.625
G2 X14.8096 Y44.6307 I0.0423 J-0.1361
G1 X19.2698 Y45.0711
G1 F300.0 X19.145 Y46.3349
G1 F2000.0 X19.8612 Y46.4057
G2 X20.1388 I0.1388 J-1.4057
G1 X25.3152 Y45.8946
G2 X25.5954 Y45.8378 I-0.1388 J-1.4057
G1 X26.2561 Y45.6326
G3 X26.4729 Y45.5701 I1.6013 J5.1545
G2 X18.1686 Y35.5995 I-43.9401 J28.153
G2 X13.721 Y41.6367 I22.6182 J21.3193
G2 X11.9579 Y45.2861 I31.3162 J17.3801
G3 X13.4035 Y45.5268 I-0.1557 J5.3953
G1 X14.4046 Y45.8378
G2 X14.6848 Y45.8946 I0.4191 J-1.3489
G1 X19.145 Y46.3349
G1 F300.0 X19.0202 Y47.5988
G1 F2000.0 X19.7364 Y47.6695
G2 X20.2636 I0.2636 J-2.6695
G1 X25.44 Y47.1584
G2 X25.9722 Y47.0506 I-0.2636 J-2.6695
G1 X26.6329 Y46.8454
G3 X28.6795 Y46.7423 I1.2245 J3.9417
G2 X18.1255 Y33.8403 I-46.1467 J26.9809
G3 X17.9647 Y33.9882 I-183.2349 J-199.0655
G2 X12.6128 Y41.0164 I22.8221 J22.9306
G2 X10.4019 Y45.7597 I32.4244 J18.0004
G2 X9.9894 Y46.9732 I28.3407 J10.309
G3 X13.0268 Y46.7396 I1.8128 J3.7081
G1 X14.0278 Y47.0506
G2 X14.56 Y47.1584 I0.7958 J-2.5617
G1 X19.0202 Y47.5988
G0 Z3.0
G0 X0.4557 Y33.4202
G1 F300.0 Z-3.0
G3 F2000.0 X0.9189 Y31.2058 I118.9199 J23.7191
G3 X0.9394 Y31.1151 I6.5108 J1.4254
G3 X3.5099 Y21.4891 I154.1648 J36.0119
G1 X2.5799 Y22.3981
G2 X2.5548 Y22.4311 I0.0996 J0.1019
G1 X0.5567 Y26.0488
G2 X0.5411 Y26.0931 I0.1247 J0.0689
G1 X-0.1404 Y29.9754
G2 Y30.0246 I0.1404 J0.0246
G1 X0.4557 Y33.4202
G1 F300.0 X-0.7952 Y33.6397
G1 F2000.0 X-0.7097 Y34.1265
G2 X-0.555 Y34.5652 I1.3912 J-0.2442
G1 X1.0163 Y37.4103
G3 X2.1595 Y31.4774 I118.3593 J19.729
G3 X2.1761 Y31.404 I5.2701 J1.1538
G3 X5.8465 Y18.2878 I152.9281 J35.723
G3 X5.9008 Y18.13 I5.1274 J1.6778
G3 X6.0805 Y17.6356 I177.7242 J64.3064
G1 X5.1533 Y18.1692
G2 X4.8705 Y18.3833 I0.7045 J1.2242
G1 X1.6922 Y21.4899
G2 X1.443 Y21.8171 I0.9873 J1.0101
G1 X-0.555 Y25.4348
G2 X-0.7097 Y25.8735 I1.2365 J0.6829
G1 X-1.3912 Y29.7558
G2 Y30.2442 I1.3912 J0.2442
G1 X-0.7952 Y33.6397
G1 F300.0 X-2.0461 Y33.8593
G1 F2000.0 X-1.9606 Y34.3461
G2 X-1.6667 Y35.1792 I2.6421 J-0.4638
G1 X0.3313 Y38.7969
G2 X0.8045 Y39.4183 I2.3482 J-1.2969
G1 X1.664 Y40.2584
G3 X1.8343 Y40.4352 I-2.8851 J2.9517
G3 X3.4001 Y31.749 I117.5413 J16.7041
G3 X3.4128 Y31.6928 I4.0295 J0.8822
G3 X7.0535 Y18.6828 I151.6914 J35.4341
G3 X7.095 Y18.5621 I3.9204 J1.2828
G3 X8.5136 Y14.7701 I176.53 J63.8743
G1 X4.5199 Y17.0684
G2 X3.9828 Y17.475 I1.338 J2.325
G1 X0.8045 Y20.5816
G2 X0.3313 Y21.2031 I1.875 J1.9183
G1 X-1.6667 Y24.8208
G2 X-1.9606 Y25.6539 I2.3482 J1.2969
G1 X-2.6421 Y29.5362
G2 Y30.4638 I2.6421 J0.4638
G1 X-2.0461 Y33.8593
G0 Z3.0
G0 X36.5407 Y21.5385
G1 F300.0 Z-3.0
G3 F2000.0 X36.7282 Y22.1281 I-184.8846 J59.125
G3 X36.757 Y22.2217 I-6.3547 J2.0099
G3 X39.5435 Y33.4249 I-115.5624 J34.6907
G1 X40.1404 Y30.0246
G2 Y29.9754 I-0.1404 J-0.0246
G1 X39.4589 Y26.0931
G2 X39.4433 Y26.0488 I-0.1404 J0.0246
G1 X37.4453 Y22.4311
G2 X37.4201 Y22.3981 I-0.1247 J0.0689
G1 X36.5407 Y21.5385
G1 F300.0 X35.331 Y21.9253
G3 F2000.0 X35.5173 Y22.511 I-183.6749 J58.7382
G3 X35.5406 Y22.5868 I-5.1438 J1.6269
G3 X38.7348 Y35.9943 I-114.346 J34.3255
G3 X38.7509 Y36.0895 I-5.3115 J0.9453
G3 X38.9624 Y37.4488 I-175.9234 J28.0709
G1 X40.555 Y34.5652
G2 X40.7097 Y34.1265 I-1.2365 J-0.6829
G1 X41.3912 Y30.2442
G2 Y29.7558 I-1.3912 J-0.2442
G1 X40.7097 Y25.8735
G2 X40.555 Y25.4348 I-1.3912 J0.2442
G1 X38.557 Y21.8171
G2 X38.3078 Y21.4899 I-1.2365 J0.6829
G1 X35.1295 Y18.3833
G2 X34.8467 Y18.1692 I-0.9873 J1.0101
G1 X33.8996 Y17.6241
G3 X35.331 Y21.9253 I-182.2435 J63.0394
G1 F300.0 X34.1214 Y22.3122
G3 F2000.0 X34.3064 Y22.894 I-182.4653 J58.3513
G3 X34.3243 Y22.952 I-3.9329 J1.2439
G3 X37.4844 Y36.2169 I-113.1297 J33.9604
G3 X37.4967 Y36.2896 I-4.0611 J0.7227
G3 X38.1157 Y40.4923 I-174.6692 J27.8708
G3 X38.3424 Y40.2522 I3.1118 J2.7116
G1 X39.1955 Y39.4183
G2 X39.6687 Y38.7969 I-1.875 J-1.9183
G1 X41.6667 Y35.1791
G2 X41.9606 Y34.3461 I-2.3482 J-1.2969
G1 X42.6421 Y30.4638
G2 Y29.5362 I-2.6421 J-0.4638
G1 X41.9606 Y25.6539
G2 X41.6667 Y24.8209 I-2.6421 J0.4638
G1 X39.6687 Y21.2031
G2 X39.1955 Y20.5817 I-2.3482 J1.2969
G1 X36.0172 Y17.475
G2 X35.4802 Y17.0684 I-1.875 J1.9183
G1 X31.5483 Y14.8056
G3 X34.1214 Y22.3122 I-179.8922 J65.8579
G1 F300.0 X32.9117 Y22.699
G3 F2000.0 X33.0955 Y23.277 I-181.2556 J57.9645
G3 X33.1079 Y23.3171 I-2.7221 J0.8609
G3 X36.2341 Y36.4394 I-111.9133 J33.5952
G3 X36.2426 Y36.4897 I-2.8108 J0.5002
G3 X37.8418 Y49.7227 I-173.4151 J27.6707
G3 X35.7199 Y52.7192 I-2.8453 J0.2347
G3 X32.3811 Y51.1395 I-0.7382 J-2.7579
G2 X18.1824 Y32.2023 I-49.8483 J22.5836
G2 X18.0394 Y32.1907 I-0.1649 J1.1407
G3 X17.0869 Y33.0701 I-183.1487 J-197.4159
G2 X11.5046 Y40.396 I23.6999 J23.8487
G2 X9.212 Y45.3156 I33.5326 J18.6208
G2 X7.8205 Y50.4554 I29.5306 J10.7531
G3 X7.1815 Y51.8007 I-2.8091 J-0.5099
G1 X7.1737 Y51.8097
G3 X2.1544 Y49.7755 I-2.17 J-1.8552
G3 X4.6407 Y32.0206 I117.2212 J7.3637
G3 X4.6495 Y31.9817 I2.7889 J0.6106
G3 X8.2605 Y19.0777 I150.4547 J35.1453
G3 X8.2893 Y18.9942 I2.7134 J0.8879
G3 X12.0123 Y9.5214 I175.3358 J63.4422
G3 X12.0233 Y9.4957 I2.6276 J1.1164
G3 X17.4918 Y-1.3622 I101.3687 J44.2471
G3 X19.5868 Y-2.7693 I2.4754 J1.4224
G3 X22.505 Y-1.3686 I0.4414 J2.8206
G3 X30.1967 Y14.8105 I-101.3497 J58.1009
G3 X30.2107 Y14.8476 I-2.6648 J1.0245
G3 X32.9117 Y22.699 I-178.5546 J65.8159
G1 F300.0 X31.7045 Y23.0851
G3 F2000.0 X31.8871 Y23.6592 I-180.0484 J57.5784
G3 X31.8939 Y23.6815 I-1.5136 J0.4787
G3 X34.9862 Y36.6614 I-110.6993 J33.2308
G3 X34.991 Y36.6895 I-1.5629 J0.2781
G3 X36.5786 Y49.8269 I-172.1635 J27.471
G3 X35.3954 Y51.494 I-1.5821 J0.1305
G3 X33.5356 Y50.6165 I-0.4138 J-1.5326
G2 X18.969 Y31.2071 I-51.0028 J23.1067
G2 X18.5201 Y30.9758 I-0.7222 J0.85
G2 X17.4755 Y30.9845 I-0.5027 J2.3673
G3 X16.2113 Y32.1534 I-182.5849 J-196.2097
G2 X10.3986 Y39.7769 I24.5755 J24.7654
G2 X8.0246 Y44.8723 I34.6386 J19.2399
G2 X6.5734 Y50.229 I30.7181 J11.1964
G3 X6.2181 Y50.9771 I-1.562 J-0.2835
G1 X6.2104 Y50.9861
G3 X3.4193 Y49.855 I-1.2066 J-1.0316
G3 X5.8789 Y32.2916 I115.9562 J7.2842
G3 X5.8837 Y32.27 I1.5508 J0.3395
G3 X9.4651 Y19.4719 I149.2204 J34.8569
G3 X9.4811 Y19.4255 I1.5088 J0.4937
G3 X13.1788 Y10.017 I174.1439 J63.0109
G3 X13.185 Y10.0027 I1.4611 J0.6208
G3 X18.5907 Y-0.7307 I100.2071 J43.74
G3 X19.7692 Y-1.5149 I1.3764 J0.7909
G3 X21.4054 Y-0.7382 I0.2589 J1.5662
G3 X29.0137 Y15.2654 I-100.2501 J57.4706
G3 X29.0215 Y15.286 I-1.4818 J0.5697
G3 X31.7045 Y23.0851 I-177.3654 J65.3775
G0 Z3.0
G0 X37.5036 Y17.152
G1 F300.0 Z-3.0
G1 F2000.0 X36.9049 Y16.5668
G2 X36.1136 Y15.9677 I-2.7627 J2.8266
G1 X31.9715 Y13.5839
G2 X31.6576 Y13.4215 I-1.9715 J3.4257
G3 X30.2055 Y11.8953 I1.1984 J-2.5941
G2 X23.4169 Y-1.9867 I-99.8574 J40.2314
G2 X16.5709 Y-1.9656 I-3.4169 J1.9867
G2 X9.7792 Y11.9164 I102.4699 J58.7355
G3 X8.3376 Y13.4237 I-2.6434 J-1.0852
G2 X8.0285 Y13.5839 I1.6624 J3.5859
G1 X3.8864 Y15.9677
G2 X3.0951 Y16.5668 I1.9715 J3.4257
G1 X-0.0832 Y19.6734
G2 X-0.7804 Y20.5891 I2.7627 J2.8266
G1 X-2.7784 Y24.2069
G2 X-3.2115 Y25.4344 I3.4599 J1.9109
G1 X-3.893 Y29.3166
G2 Y30.6834 I3.893 J0.6834
G1 X-3.2115 Y34.5656
G2 X-2.7784 Y35.7931 I3.893 J-0.6834
G1 X-0.7804 Y39.4109
G2 X-0.0833 Y40.3266 I3.4599 J-1.9109
G1 X0.7762 Y41.1667
G3 X1.6181 Y43.5334 I-1.9974 J2.0435
G2 X1.0564 Y49.7342 I134.3348 J15.2924
G2 X8.8899 Y50.7006 I3.9436 J0.2658
G3 X9.0006 Y50.1192 I29.4081 J5.2965
G3 X12.65 Y47.9525 I2.8017 J0.5621
G1 X13.651 Y48.2634
G2 X14.4352 Y48.4223 I1.1726 J-3.7746
G1 X19.6116 Y48.9334
G2 X20.3884 I0.3884 J-3.9334
G1 X25.5648 Y48.4223
G2 X26.349 Y48.2634 I-0.3884 J-3.9334
G1 X27.0097 Y48.0582
G3 X30.4161 Y49.5149 I0.8477 J2.7289
G3 X31.3748 Y51.5748 I-39.441 J19.6088
G2 X38.945 Y49.7569 I3.6252 J-1.5748
G2 X38.3894 Y43.5365 I-113.1464 J6.9715
G3 X39.2301 Y41.1604 I2.8381 J-0.3325
G1 X40.0833 Y40.3266
G2 X40.7804 Y39.4109 I-2.7627 J-2.8266
G1 X42.7784 Y35.7931
G2 X43.2115 Y34.5656 I-3.4599 J-1.9109
G1 X43.893 Y30.6834
G2 Y29.3166 I-3.893 J-0.6834
G1 X43.2115 Y25.4344
G2 X42.7784 Y24.2069 I-3.893 J0.6834
G1 X40.7804 Y20.5891
G2 X40.0833 Y19.6734 I-3.4599 J1.9109
G1 X37.5036 Y17.152
G1 F300.0 X38.3913 Y16.2438
G1 F2000.0 X37.7926 Y15.6586
G2 X36.7471 Y14.8669 I-3.6505 J3.7348
G1 X32.6049 Y12.4832
G2 X32.1902 Y12.2686 I-2.6049 J4.5265
G3 X31.3835 Y11.4207 I0.6658 J-1.4412
G2 X24.5148 Y-2.6251 I-101.0354 J40.706
G2 X15.4691 Y-2.5971 I-4.5148 J2.6251
G2 X8.6043 Y11.4341 I103.5717 J59.367
G3 X7.8034 Y12.2715 I-1.4686 J-0.6029
G2 X7.3951 Y12.4832 I2.1966 J4.7381
G1 X3.2529 Y14.8669
G2 X2.2074 Y15.6586 I2.6049 J4.5265
G1 X-0.971 Y18.7652
G2 X-1.8921 Y19.9752 I3.6505 J3.7348
G1 X-3.8901 Y23.5929
G2 X-4.4624 Y25.2148 I4.5716 J2.5248
G1 X-5.1439 Y29.0971
G2 Y30.9029 I5.1439 J0.9029
G1 X-4.4624 Y34.7852
G2 X-3.8901 Y36.4071 I5.1439 J-0.9029
G1 X-1.8921 Y40.0248
G2 X-0.971 Y41.2348 I4.5716 J-2.5248
G1 X-0.1115 Y42.0749
G3 X0.3562 Y43.3897 I-1.1096 J1.1353
G2 X-0.2107 Y49.6488 I135.5966 J15.4361
G2 X10.1398 Y50.9257 I5.2107 J0.3512
G3 X10.2458 Y50.369 I28.1582 J5.0714
G3 X12.2732 Y49.1653 I1.5565 J0.3123
G1 X13.2742 Y49.4763
G2 X14.3105 Y49.6861 I1.5494 J-4.9874
G1 X19.4868 Y50.1972
G2 X20.5132 I0.5132 J-5.1972
G1 X25.6895 Y49.6861
G2 X26.7258 Y49.4763 I-0.5132 J-5.1972
G1 X27.3864 Y49.271
G3 X29.2789 Y50.0803 I0.471 J1.516
G3 X30.2099 Y52.0807 I-38.3038 J19.0434
G2 X40.2126 Y49.6788 I4.7901 J-2.0807
G2 X39.6508 Y43.3887 I-114.414 J7.0496
G3 X40.1178 Y42.0687 I1.5767 J-0.1847
G1 X40.971 Y41.2348
G2 X41.8921 Y40.0248 I-3.6505 J-3.7348
G1 X43.8901 Y36.4071
G2 X44.4624 Y34.7852 I-4.5716 J-2.5248
G1 X45.1439 Y30.9029
G2 Y29.0971 I-5.1439 J-0.9029
G1 X44.4624 Y25.2148
G2 X43.8901 Y23.5929 I-5.1439 J0.9029
G1 X41.8921 Y19.9752
G2 X40.971 Y18.7652 I-4.5716 J2.5248
G1 X38.3913 Y16.2438
G0 Z3.0
G0 X32.701 Y22.0656
G1 F300.0 Z-4.0
G1 F2000.0 X32.3664 Y21.7385
G1 X31.0279 Y20.9683
G3 X31.1529 Y21.3584 I-83.6272 J26.9986
G1 X32.0244 Y21.86
G3 X32.3422 Y22.1006 I-0.7918 J1.3759
G1 X34.5846 Y24.2924
G3 X34.8646 Y24.6602 I-1.1096 J1.1353
G1 X36.1365 Y26.9632
G3 X36.3105 Y27.4562 I-1.3897 J0.7675
G1 X36.7088 Y29.7255
G3 Y30.2745 I-1.5636 J0.2745
G1 X36.3105 Y32.5438
G3 X36.1365 Y33.0368 I-1.5636 J-0.2745
G1 X34.8646 Y35.3398
G3 X34.755 Y35.5113 I-1.3897 J-0.7675
G3 X34.8214 Y35.8619 I-107.7631 J20.5924
G1 X34.9735 Y35.7132
G1 X36.5284 Y32.8979
G1 X37.0371 Y30.0
G1 X36.5284 Y27.1021
G1 X34.9735 Y24.2868
G1 X32.701 Y22.0656
G0 Z3.0
G0 X27.5544 Y40.4054
G1 F300.0 Z-4.0
G1 F2000.0 X24.6934 Y41.2942
G3 X24.3784 Y41.358 I-0.471 J-1.516
G1 X20.156 Y41.7749
G3 X19.844 I-0.156 J-1.5798
G1 X15.6216 Y41.358
G3 X15.3066 Y41.2942 I0.156 J-1.5798
G1 X11.4543 Y40.0974
G3 X11.1334 Y39.9573 I0.471 J-1.516
G1 X10.5059 Y39.5962
G2 X10.3967 Y39.7811 I72.4001 J42.8884
G2 X10.3678 Y39.835 I2394.5772 J1288.4377
G1 X11.175 Y40.2995
G1 X15.4059 Y41.6139
G1 X20.0 Y42.0675
G1 X24.5941 Y41.6139
G1 X27.7278 Y40.6404
G2 X27.5544 Y40.4054 I-29.685 J21.722
G0 Z3.0
G0 X10.6393 Y46.7211
G1 F300.0 Z-4.0
G1 F2000.0 X10.1415 Y46.5664
G2 X10.0142 Y46.9612 I31.9481 J10.5198
G3 X10.6393 Y46.7211 I1.7881 J3.7201
G1 F300.0 X11.016 Y45.5082
G1 F2000.0 X9.4557 Y45.0235
G3 X9.3479 Y44.9876 I0.847 J-2.7264
G2 X7.8042 Y50.5358 I32.7417 J12.0986
G3 X2.1535 Y49.7803 I-2.8042 J-0.5358
G3 X3.0912 Y40.8432 I162.7501 J12.5588
G1 X1.2886 Y39.0813
G3 X0.785 Y38.4199 I1.9956 J-2.0417
G1 X-1.0988 Y35.0089
G3 X-1.4116 Y34.1223 I2.4991 J-1.3802
G1 X-2.0486 Y30.4936
G3 Y29.5064 I2.812 J-0.4936
G1 X-1.4116 Y25.8777
G3 X-1.0988 Y24.9911 I2.812 J0.4936
G1 X0.785 Y21.5801
G3 X1.2886 Y20.9187 I2.4991 J1.3802
G1 X4.3198 Y17.9559
G3 X4.8913 Y17.5232 I1.9956 J2.0417
G1 X8.8787 Y15.2285
G3 X9.4557 Y14.9765 I1.424 J2.4745
G1 X9.7848 Y14.8743
G3 X12.3623 Y8.743 I78.753 J29.4989
G3 X17.5297 Y-1.4313 I94.6436 J41.6693
G3 X22.4762 Y-1.4211 I2.4703 J1.4313
G3 X30.2041 Y14.8708 I-100.2306 J57.5223
G1 X30.5443 Y14.9765
G3 X31.1213 Y15.2285 I-0.847 J2.7264
G1 X35.1087 Y17.5232
G3 X35.6802 Y17.9559 I-1.424 J2.4745
G1 X38.7114 Y20.9187
G3 X39.215 Y21.5801 I-1.9956 J2.0417
G1 X41.0988 Y24.9911
G3 X41.4116 Y25.8777 I-2.4991 J1.3802
G1 X42.0486 Y29.5064
G3 Y30.4936 I-2.812 J0.4936
G1 X41.4116 Y34.1223
G3 X41.0988 Y35.0089 I-2.812 J-0.4936
G1 X39.215 Y38.4199
G3 X38.7114 Y39.0813 I-2.4991 J-1.3802
G1 X36.9365 Y40.8161
G3 X37.8511 Y49.8524 I-91.4054 J13.8162
G3 X32.399 Y51.177 I-2.8511 J0.1476
G2 X29.352 Y45.3939 I-49.6917 J22.487
G1 X25.8734 Y46.4746
G3 X25.3069 Y46.5893 I-0.847 J-2.7264
G1 X20.2805 Y47.0856
G3 X19.7195 I-0.2805 J-2.8411
G1 X14.6931 Y46.5893
G3 X14.1266 Y46.4746 I0.2805 J-2.8411
G1 X11.016 Y45.5082
G1 F300.0 X11.392 Y44.2978
G1 F2000.0 X9.8318 Y43.8131
G3 X9.5132 Y43.6743 I0.471 J-1.516
G3 X8.6886 Y43.199 I98.7816 J-172.3229
G2 X6.5593 Y50.2979 I33.401 J13.8872
G3 X3.4172 Y49.8779 I-1.5593 J-0.2979
G3 X4.4324 Y40.3818 I161.4864 J12.4613
G1 X2.1746 Y38.1749
G3 X1.8945 Y37.8071 I1.1096 J-1.1353
G1 X0.0107 Y34.3961
G3 X-0.1632 Y33.9031 I1.3896 J-0.7675
G1 X-0.8002 Y30.2745
G3 Y29.7255 I1.5636 J-0.2745
G1 X-0.1632 Y26.0969
G3 X0.0107 Y25.6039 I1.5636 J0.2745
G1 X1.8945 Y22.1929
G3 X2.1745 Y21.8251 I1.3896 J0.7675
G1 X5.2057 Y18.8623
G3 X5.5235 Y18.6217 I1.1096 J1.1353
G1 X9.5109 Y16.327
G3 X9.8318 Y16.1869 I0.7918 J1.3759
G1 X10.7567 Y15.8995
G3 X13.5165 Y9.267 I77.7811 J28.4736
G3 X18.6264 Y-0.7959 I93.4894 J41.1454
G3 X21.3769 Y-0.7902 I1.3736 J0.7959
G3 X29.2378 Y15.8978 I-99.1313 J56.8914
G1 X30.1682 Y16.1869
G3 X30.4891 Y16.327 I-0.471 J1.516
G1 X34.4765 Y18.6217
G3 X34.7943 Y18.8623 I-0.7918 J1.3759
G1 X37.8255 Y21.8251
G3 X38.1055 Y22.1929 I-1.1096 J1.1353
G1 X39.9893 Y25.6039
G3 X40.1632 Y26.0969 I-1.3896 J0.7675
G1 X40.8002 Y29.7255
G3 Y30.2745 I-1.5636 J0.2745
G1 X40.1632 Y33.9031
G3 X39.9893 Y34.3961 I-1.5636 J-0.2745
G1 X38.1055 Y37.8071
G3 X37.8255 Y38.1749 I-1.3896 J-0.7675
G1 X35.5842 Y40.3655
G3 X36.5854 Y49.9179 I-90.0531 J14.2668
G3 X33.5537 Y50.6545 I-1.5854 J0.0821
G2 X29.9136 Y43.8922 I-50.8464 J23.0095
G1 X25.4973 Y45.2642
G3 X25.1824 Y45.328 I-0.471 J-1.516
G1 X20.156 Y45.8243
G3 X19.844 I-0.156 J-1.5798
G1 X14.8176 Y45.328
G3 X14.5027 Y45.2642 I0.156 J-1.5798
G1 X11.392 Y44.2978
G0 Z3.0
G0 X11.619 Y47.8297
G1 F300.0 Z-4.0
G3 F2000.0 X12.65 Y47.9525 I0.1832 J2.8516
G1 X13.651 Y48.2634
G2 X14.4352 Y48.4223 I1.1726 J-3.7746
G1 X19.6116 Y48.9334
G2 X20.3884 I0.3884 J-3.9334
G1 X25.5648 Y48.4223
G2 X26.349 Y48.2634 I-0.3884 J-3.9334
G1 X27.0097 Y48.0582
G3 X30.4161 Y49.5149 I0.8477 J2.7289
G3 X31.3748 Y51.5748 I-39.441 J19.6088
G2 X38.945 Y49.7569 I3.6252 J-1.5748
G2 X38.3894 Y43.5365 I-113.1464 J6.9715
G3 X39.2301 Y41.1604 I2.8381 J-0.3325
G1 X40.0833 Y40.3266
G2 X40.7804 Y39.4109 I-2.7627 J-2.8266
G1 X42.7784 Y35.7931
G2 X43.2115 Y34.5656 I-3.4599 J-1.9109
G1 X43.893 Y30.6834
G2 Y29.3166 I-3.893 J-0.6834
G1 X43.2115 Y25.4344
G2 X42.7784 Y24.2069 I-3.893 J0.6834
G1 X40.7804 Y20.5891
G2 X40.0833 Y19.6734 I-3.4599 J1.9109
G1 X36.9049 Y16.5668
G2 X36.1136 Y15.9677 I-2.7627 J2.8266
G1 X31.9715 Y13.5839
G2 X31.6576 Y13.4215 I-1.9715 J3.4257
G3 X30.2055 Y11.8953 I1.1984 J-2.5941
G2 X23.4169 Y-1.9867 I-99.8574 J40.2314
G2 X16.5709 Y-1.9656 I-3.4169 J1.9867
G2 X9.7792 Y11.9164 I102.4699 J58.7355
G3 X8.3376 Y13.4237 I-2.6434 J-1.0852
G2 X8.0285 Y13.5839 I1.6624 J3.5859
G1 X3.8864 Y15.9677
G2 X3.0951 Y16.5668 I1.9715 J3.4257
G1 X-0.0832 Y19.6734
G2 X-0.7804 Y20.5891 I2.7627 J2.8266
G1 X-2.7784 Y24.2069
G2 X-3.2115 Y25.4344 I3.4599 J1.9109
G1 X-3.893 Y29.3166
G2 Y30.6834 I3.893 J0.6834
G1 X-3.2115 Y34.5656
G2 X-2.7784 Y35.7931 I3.893 J-0.6834
G1 X-0.7804 Y39.4109
G2 X-0.0833 Y40.3266 I3.4599 J-1.9109
G1 X0.7762 Y41.1667
G3 X1.6181 Y43.5334 I-1.9974 J2.0435
G2 X1.0564 Y49.7342 I134.3348 J15.2924
G2 X8.8899 Y50.7006 I3.9436 J0.2658
G3 X9.0006 Y50.1192 I29.4081 J5.2965
G3 X11.619 Y47.8297 I2.8017 J0.5621
G1 F300.0 X11.7004 Y49.0971
G3 F2000.0 X12.2732 Y49.1653 I0.1018 J1.5842
G1 X13.2742 Y49.4763
G2 X14.3105 Y49.6861 I1.5494 J-4.9874
G1 X19.4868 Y50.1972
G2 X20.5132 I0.5132 J-5.1972
G1 X25.6895 Y49.6861
G2 X26.7258 Y49.4763 I-0.5132 J-5.1972
G1 X27.3864 Y49.271
G3 X29.2789 Y50.0803 I0.471 J1.516
G3 X30.2099 Y52.0807 I-38.3038 J19.0434
G2 X40.2126 Y49.6788 I4.7901 J-2.0807
G2 X39.6508 Y43.3887 I-114.414 J7.0496
G3 X40.1178 Y42.0687 I1.5767 J-0.1847
G1 X40.971 Y41.2348
G2 X41.8921 Y40.0248 I-3.6505 J-3.7348
G1 X43.8901 Y36.4071
G2 X44.4624 Y34.7852 I-4.5716 J-2.5248
G1 X45.1439 Y30.9029
G2 Y29.0971 I-5.1439 J-0.9029
G1 X44.4624 Y25.2148
G2 X43.8901 Y23.5929 I-5.1439 J0.9029
G1 X41.8921 Y19.9752
G2 X40.971 Y18.7652 I-4.5716 J2.5248
G1 X37.7926 Y15.6586
G2 X36.7471 Y14.8669 I-3.6505 J3.7348
G1 X32.6049 Y12.4832
G2 X32.1902 Y12.2686 I-2.6049 J4.5265
G3 X31.3835 Y11.4207 I0.6658 J-1.4412
G2 X24.5148 Y-2.6251 I-101.0354 J40.706
G2 X15.4691 Y-2.5971 I-4.5148 J2.6251
G2 X8.6043 Y11.4341 I103.5717 J59.367
G3 X7.8034 Y12.2715 I-1.4686 J-0.6029
G2 X7.3951 Y12.4832 I2.1966 J4.7381
G1 X3.2529 Y14.8669
G2 X2.2074 Y15.6586 I2.6049 J4.5265
G1 X-0.971 Y18.7652
G2 X-1.8921 Y19.9752 I3.6505 J3.7348
G1 X-3.8901 Y23.5929
G2 X-4.4624 Y25.2148 I4.5716 J2.5248
G1 X-5.1439 Y29.0971
G2 Y30.9029 I5.1439 J0.9029
G1 X-4.4624 Y34.7852
G2 X-3.8901 Y36.4071 I5.1439 J-0.9029
G1 X-1.8921 Y40.0248
G2 X-0.971 Y41.2348 I4.5716 J-2.5248
G1 X-0.1115 Y42.0749
G3 X0.3562 Y43.3897 I-1.1096 J1.1353
G2 X-0.2107 Y49.6488 I135.5966 J15.4361
G2 X10.1398 Y50.9257 I5.2107 J0.3512
G3 X10.2458 Y50.369 I28.1582 J5.0714
G3 X11.7004 Y49.0971 I1.5565 J0.3123
G0 Z3.0
G0 X10.2429 Y46.8597
G1 F300.0 Z-5.0
G1 F2000.0 X10.0479 Y46.7991
G2 X9.9924 Y46.9718 I28.4317 J9.2362
G3 X10.2429 Y46.8597 I1.8098 J3.7095
G1 F300.0 X10.6197 Y45.6469
G1 F2000.0 X9.3551 Y45.254
G3 X9.2522 Y45.2199 I0.847 J-2.7264
G2 X7.8097 Y50.5065 I29.2273 J10.8154
G3 X2.1486 Y49.8566 I-2.8097 J-0.5065
G3 X3.0176 Y41.1208 I89.6913 J4.5101
G1 X1.0876 Y39.2344
G3 X0.584 Y38.573 I1.9956 J-2.0417
G1 X-1.3378 Y35.0932
G3 X-1.6506 Y34.2066 I2.4991 J-1.3802
G1 X-2.3024 Y30.4936
G3 Y29.5064 I2.812 J-0.4936
G1 X-1.6506 Y25.7934
G3 X-1.3378 Y24.9068 I2.812 J0.4936
G1 X0.584 Y21.4271
G3 X1.0876 Y20.7656 I2.4991 J1.3802
G1 X4.1677 Y17.755
G3 X4.7392 Y17.3223 I1.9956 J2.0417
G1 X8.778 Y14.9979
G3 X9.3551 Y14.746 I1.424 J2.4745
G1 X9.9282 Y14.5679
G3 X13.3392 Y6.5866 I148.1753 J58.6069
G3 X13.3735 Y6.5147 I2.5937 J1.1931
G3 X17.5006 Y-1.3798 I175.8789 J86.9206
G3 X22.4681 Y-1.435 I2.4994 J1.3798
G3 X29.5484 Y13.2132 I-92.12 J53.5617
G3 X30.1084 Y14.5793 I-36.1436 J15.6164
G1 X30.6449 Y14.746
G3 X31.222 Y14.9979 I-0.847 J2.7264
G1 X35.2608 Y17.3223
G3 X35.8323 Y17.755 I-1.424 J2.4745
G1 X38.9124 Y20.7656
G3 X39.416 Y21.4271 I-1.9956 J2.0417
G1 X41.3378 Y24.9068
G3 X41.6506 Y25.7934 I-2.4991 J1.3802
G1 X42.3024 Y29.5064
G3 Y30.4936 I-2.812 J0.4936
G1 X41.6506 Y34.2066
G3 X41.3378 Y35.0932 I-2.812 J-0.4936
G1 X39.416 Y38.5729
G3 X38.9124 Y39.2344 I-2.4991 J-1.3802
G1 X36.9705 Y41.1325
G3 X37.8496 Y49.8255 I-109.2122 J15.4358
G3 X32.387 Y51.1501 I-2.8496 J0.1745
G2 X29.5033 Y45.6087 I-43.8872 J19.3168
G1 X25.9232 Y46.7209
G3 X25.3568 Y46.8356 I-0.847 J-2.7264
G1 X20.2805 Y47.3368
G3 X19.7195 I-0.2805 J-2.8411
G1 X14.6432 Y46.8356
G3 X14.0768 Y46.7209 I0.2805 J-2.8411
G1 X10.6197 Y45.6469
G1 F300.0 X10.9957 Y44.4365
G1 F2000.0 X9.7311 Y44.0436
G3 X9.4149 Y43.9062 I0.471 J-1.516
G3 X8.5954 Y43.4357 I98.6865 J-172.8398
G2 X6.5623 Y50.2816 I29.8842 J12.5996
G3 X3.4145 Y49.9203 I-1.5623 J-0.2816
G3 X4.3688 Y40.6692 I88.4255 J4.4464
G1 X1.9735 Y38.328
G3 X1.6935 Y37.9602 I1.1096 J-1.1353
G1 X-0.2283 Y34.4805
G3 X-0.4023 Y33.9875 I1.3896 J-0.7675
G1 X-1.054 Y30.2745
G3 Y29.7255 I1.5636 J-0.2745
G1 X-0.4023 Y26.0125
G3 X-0.2283 Y25.5195 I1.5636 J0.2745
G1 X1.6935 Y22.0398
G3 X1.9735 Y21.672 I1.3896 J0.7675
G1 X5.0536 Y18.6614
G3 X5.3714 Y18.4208 I1.1096 J1.1353
G1 X9.4102 Y16.0965
G3 X9.7311 Y15.9564 I0.7918 J1.3759
G1 X10.885 Y15.5979
G3 X14.4907 Y7.1162 I147.2184 J57.577
G3 X14.5098 Y7.0763 I1.4422 J0.6634
G3 X18.6102 Y-0.7672 I174.7427 J86.3591
G3 X21.3724 Y-0.7979 I1.3898 J0.7672
G3 X28.3763 Y13.6962 I-91.0243 J52.9246
G3 X29.1424 Y15.6064 I-34.9716 J15.1334
G1 X30.2689 Y15.9564
G3 X30.5898 Y16.0965 I-0.471 J1.516
G1 X34.6286 Y18.4208
G3 X34.9464 Y18.6614 I-0.7918 J1.3759
G1 X38.0265 Y21.672
G3 X38.3065 Y22.0398 I-1.1096 J1.1353
G1 X40.2283 Y25.5195
G3 X40.4023 Y26.0125 I-1.3896 J0.7675
G1 X41.054 Y29.7255
G3 Y30.2745 I-1.5636 J0.2745
G1 X40.4023 Y33.9875
G3 X40.2283 Y34.4805 I-1.5636 J-0.2745
G1 X38.3065 Y37.9602
G3 X38.0265 Y38.328 I-1.3896 J-0.7675
G1 X35.624 Y40.6762
G3 X36.5845 Y49.903 I-107.8657 J15.8921
G3 X33.547 Y50.6395 I-1.5845 J0.097
G2 X30.0636 Y44.1074 I-45.0473 J19.8274
G1 X25.5472 Y45.5105
G3 X25.2322 Y45.5743 I-0.471 J-1.516
G1 X20.156 Y46.0755
G3 X19.844 I-0.156 J-1.5798
G1 X14.7678 Y45.5743
G3 X14.4528 Y45.5105 I0.156 J-1.5798
G1 X10.9957 Y44.4365
G0 Z3.0
G0 X11.4362 Y47.8474
G1 F300.0 Z-5.0
G3 F2000.0 X12.65 Y47.9525 I0.366 J2.834
G1 X13.651 Y48.2634
G2 X14.4352 Y48.4223 I1.1726 J-3.7746
G1 X19.6116 Y48.9334
G2 X20.3884 I0.3884 J-3.9334
G1 X25.5648 Y48.4223
G2 X26.349 Y48.2634 I-0.3884 J-3.9334
G1 X27.0097 Y48.0582
G3 X30.4161 Y49.5149 I0.8477 J2.7289
G3 X31.3748 Y51.5748 I-39.441 J19.6088
G2 X38.945 Y49.7569 I3.6252 J-1.5748
G2 X38.3894 Y43.5365 I-113.1464 J6.9715
G3 X39.2301 Y41.1604 I2.8381 J-0.3325
G1 X40.0833 Y40.3266
G2 X40.7804 Y39.4109 I-2.7627 J-2.8266
G1 X42.7784 Y35.7931
G2 X43.2115 Y34.5656 I-3.4599 J-1.9109
G1 X43.893 Y30.6834
G2 Y29.3166 I-3.893 J-0.6834
G1 X43.2115 Y25.4344
G2 X42.7784 Y24.2069 I-3.893 J0.6834
G1 X40.7804 Y20.5891
G2 X40.0833 Y19.6734 I-3.4599 J1.9109
G1 X36.9049 Y16.5668
G2 X36.1136 Y15.9677 I-2.7627 J2.8266
G1 X31.9715 Y13.5839
G2 X31.6576 Y13.4215 I-1.9715 J3.4257
G3 X30.2055 Y11.8953 I1.1984 J-2.5941
G2 X23.4169 Y-1.9867 I-99.8574 J40.2314
G2 X16.5709 Y-1.9656 I-3.4169 J1.9867
G2 X9.7792 Y11.9164 I102.4699 J58.7355
G3 X8.3376 Y13.4237 I-2.6434 J-1.0852
G2 X8.0285 Y13.5839 I1.6624 J3.5859
G1 X3.8864 Y15.9677
G2 X3.0951 Y16.5668 I1.9715 J3.4257
G1 X-0.0832 Y19.6734
G2 X-0.7804 Y20.5891 I2.7627 J2.8266
G1 X-2.7784 Y24.2069
G2 X-3.2115 Y25.4344 I3.4599 J1.9109
G1 X-3.893 Y29.3166
G2 Y30.6834 I3.893 J0.6834
G1 X-3.2115 Y34.5656
G2 X-2.7784 Y35.7931 I3.893 J-0.6834
G1 X-0.7804 Y39.4109
G2 X-0.0833 Y40.3266 I3.4599 J-1.9109
G1 X0.7762 Y41.1667
G3 X1.6181 Y43.5334 I-1.9974 J2.0435
G2 X1.0564 Y49.7342 I134.3348 J15.2924
G2 X8.8899 Y50.7006 I3.9436 J0.2658
G3 X9.0006 Y50.1192 I29.4081 J5.2965
G3 X11.4362 Y47.8474 I2.8017 J0.5621
G1 F300.0 X11.5989 Y49.1069
G3 F2000.0 X12.2732 Y49.1653 I0.2033 J1.5744
G1 X13.2742 Y49.4763
G2 X14.3105 Y49.6861 I1.5494 J-4.9874
G1 X19.4868 Y50.1972
G2 X20.5132 I0.5132 J-5.1972
G1 X25.6895 Y49.6861
G2 X26.7258 Y49.4763 I-0.5132 J-5.1972
G1 X27.3864 Y49.271
G3 X29.2789 Y50.0803 I0.471 J1.516
G3 X30.2099 Y52.0807 I-38.3038 J19.0434
G2 X40.2126 Y49.6788 I4.7901 J-2.0807
G2 X39.6508 Y43.3887 I-114.414 J7.0496
G3 X40.1178 Y42.0687 I1.5767 J-0.1847
G1 X40.971 Y41.2348
G2 X41.8921 Y40.0248 I-3.6505 J-3.7348
G1 X43.8901 Y36.4071
G2 X44.4624 Y34.7852 I-4.5716 J-2.5248
G1 X45.1439 Y30.9029
G2 Y29.0971 I-5.1439 J-0.9029
G1 X44.4624 Y25.2148
G2 X43.8901 Y23.5929 I-5.1439 J0.9029
G1 X41.8921 Y19.9752
G2 X40.971 Y18.7652 I-4.5716 J2.5248
G1 X37.7926 Y15.6586
G2 X36.7471 Y14.8669 I-3.6505 J3.7348
G1 X32.6049 Y12.4832
G2 X32.1902 Y12.2686 I-2.6049 J4.5265
G3 X31.3835 Y11.4207 I0.6658 J-1.4412
G2 X24.5148 Y-2.6251 I-101.0354 J40.706
G2 X15.4691 Y-2.5971 I-4.5148 J2.6251
G2 X8.6043 Y11.4341 I103.5717 J59.367
G3 X7.8034 Y12.2715 I-1.4686 J-0.6029
G2 X7.3951 Y12.4832 I2.1966 J4.7381
G1 X3.2529 Y14.8669
G2 X2.2074 Y15.6586 I2.6049 J4.5265
G1 X-0.971 Y18.7652
G2 X-1.8921 Y19.9752 I3.6505 J3.7348
G1 X-3.8901 Y23.5929
G2 X-4.4624 Y25.2148 I4.5716 J2.5248
G1 X-5.1439 Y29.0971
G2 Y30.9029 I5.1439 J0.9029
G1 X-4.4624 Y34.7852
G2 X-3.8901 Y36.4071 I5.1439 J-0.9029
G1 X-1.8921 Y40.0248
G2 X-0.971 Y41.2348 I4.5716 J-2.5248
G1 X-0.1115 Y42.0749
G3 X0.3562 Y43.3897 I-1.1096 J1.1353
G2 X-0.2107 Y49.6488 I135.5966 J15.4361
G2 X10.1398 Y50.9257 I5.2107 J0.3512
G3 X10.2458 Y50.369 I28.1582 J5.0714
G3 X11.5989 Y49.1069 I1.5565 J0.3123
G1 F300.0 Z-6.0
G3 F2000.0 X12.2732 Y49.1653 I0.2033 J1.5744
G1 X13.2742 Y49.4763
G2 X14.3105 Y49.6861 I1.5494 J-4.9874
G1 X19.4868 Y50.1972
G2 X20.5132 I0.5132 J-5.1972
G1 X25.6895 Y49.6861
G2 X26.7258 Y49.4763 I-0.5132 J-5.1972
G1 X27.3864 Y49.271
G3 X29.2789 Y50.0803 I0.471 J1.516
G3 X30.2099 Y52.0807 I-38.3038 J19.0434
G2 X40.2126 Y49.6788 I4.7901 J-2.0807
G2 X39.6508 Y43.3887 I-114.414 J7.0496
G3 X40.1178 Y42.0687 I1.5767 J-0.1847
G1 X40.971 Y41.2348
G2 X41.8921 Y40.0248 I-3.6505 J-3.7348
G1 X43.8901 Y36.4071
G2 X44.4624 Y34.7852 I-4.5716 J-2.5248
G1 X45.1439 Y30.9029
G2 Y29.0971 I-5.1439 J-0.9029
G1 X44.4624 Y25.2148
G2 X43.8901 Y23.5929 I-5.1439 J0.9029
G1 X41.8921 Y19.9752
G2 X40.971 Y18.7652 I-4.5716 J2.5248
G1 X37.7926 Y15.6586
G2 X36.7471 Y14.8669 I-3.6505 J3.7348
G1 X32.6049 Y12.4832
G2 X32.1902 Y12.2686 I-2.6049 J4.5265
G3 X31.3835 Y11.4207 I0.6658 J-1.4412
G2 X24.5148 Y-2.6251 I-101.0354 J40.706
G2 X15.4691 Y-2.5971 I-4.5148 J2.6251
G2 X8.6043 Y11.4341 I103.5717 J59.367
G3 X7.8034 Y12.2715 I-1.4686 J-0.6029
G2 X7.3951 Y12.4832 I2.1966 J4.7381
G1 X3.2529 Y14.8669
G2 X2.2074 Y15.6586 I2.6049 J4.5265
G1 X-0.971 Y18.7652
G2 X-1.8921 Y19.9752 I3.6505 J3.7348
G1 X-3.8901 Y23.5929
G2 X-4.4624 Y25.2148 I4.5716 J2.5248
G1 X-5.1439 Y29.0971
G2 Y30.9029 I5.1439 J0.9029
G1 X-4.4624 Y34.7852
G2 X-3.8901 Y36.4071 I5.1439 J-0.9029
G1 X-1.8921 Y40.0248
G2 X-0.971 Y41.2348 I4.5716 J-2.5248
G1 X-0.1115 Y42.0749
G3 X0.3562 Y43.3897 I-1.1096 J1.1353
G2 X-0.2107 Y49.6488 I135.5966 J15.4361
G2 X10.1398 Y50.9257 I5.2107 J0.3512
G3 X10.2458 Y50.369 I28.1582 J5.0714
G3 X11.5989 Y49.1069 I1.5565 J0.3123
G0 Z3.0
G0 X12.4188 Y46.4676
G1 F300.0 Z-6.0
G1 F2000.0 X9.2544 Y45.4845
G3 X9.1672 Y45.4559 I0.847 J-2.7264
G2 X7.8097 Y50.5062 I29.1933 J10.5544
G3 X2.1484 Y49.8611 I-2.8097 J-0.5062
G3 X2.9718 Y41.4256 I87.0533 J4.2389
G1 X0.8865 Y39.3875
G3 X0.3829 Y38.726 I1.9956 J-2.0417
G1 X-1.5768 Y35.1776
G3 X-1.8897 Y34.2909 I2.4991 J-1.3802
G1 X-2.5562 Y30.4936
G3 Y29.5064 I2.812 J-0.4936
G1 X-1.8897 Y25.7091
G3 X-1.5768 Y24.8224 I2.812 J0.4936
G1 X0.3829 Y21.274
G3 X0.8865 Y20.6125 I2.4991 J1.3802
G1 X4.0156 Y17.5541
G3 X4.5871 Y17.1214 I1.9956 J2.0417
G1 X8.6774 Y14.7674
G3 X9.2544 Y14.5155 I1.424 J2.4745
G1 X10.0429 Y14.2705
G3 X13.335 Y6.591 I166.0146 J66.6224
G3 X13.3768 Y6.5034 I2.597 J1.1858
G3 X17.4966 Y-1.3726 I203.123 J101.2354
G3 X22.4681 Y-1.435 I2.5034 J1.3726
G3 X29.5524 Y13.2236 I-92.12 J53.5617
G3 X29.9845 Y14.279 I-44.6187 J18.8823
G1 X30.7456 Y14.5155
G3 X31.3226 Y14.7674 I-0.847 J2.7264
G1 X35.4129 Y17.1214
G3 X35.9844 Y17.5541 I-1.424 J2.4745
G1 X39.1135 Y20.6125
G3 X39.6171 Y21.274 I-1.9956 J2.0417
G1 X41.5768 Y24.8224
G3 X41.8897 Y25.7091 I-2.4991 J1.3802
G1 X42.5562 Y29.5064
G3 Y30.4936 I-2.812 J0.4936
G1 X41.8897 Y34.2909
G3 X41.5768 Y35.1776 I-2.812 J-0.4936
G1 X39.6171 Y38.726
G3 X39.1135 Y39.3875 I-2.4991 J-1.3802
G1 X37.0144 Y41.4391
G3 X37.8496 Y49.8251 I-110.029 J15.1923
G3 X32.3843 Y51.144 I-2.8496 J0.1749
G2 X29.6397 Y45.8281 I-42.6515 J18.6539
G1 X25.9731 Y46.9672
G3 X25.4067 Y47.0819 I-0.847 J-2.7264
G1 X20.2805 Y47.588
G3 X19.7195 I-0.2805 J-2.8411
G1 X14.5933 Y47.0819
G3 X14.0269 Y46.9672 I0.2805 J-2.8411
G1 X12.4188 Y46.4676
G1 F300.0 X12.7949 Y45.2572
G1 F2000.0 X9.6305 Y44.2741
G3 X9.3166 Y44.1381 I0.471 J-1.516
G3 X8.4995 Y43.6708 I98.5915 J-173.3567
G2 X6.5623 Y50.2815 I29.861 J12.3395
G3 X3.4144 Y49.9228 I-1.5623 J-0.2815
G3 X4.3218 Y40.9729 I85.7873 J4.1772
G1 X1.7724 Y38.481
G3 X1.4924 Y38.1133 I1.1096 J-1.1353
G1 X-0.4673 Y34.5648
G3 X-0.6413 Y34.0718 I1.3896 J-0.7675
G1 X-1.3078 Y30.2745
G3 Y29.7255 I1.5636 J-0.2745
G1 X-0.6413 Y25.9282
G3 X-0.4673 Y25.4352 I1.5636 J0.2745
G1 X1.4924 Y21.8867
G3 X1.7724 Y21.5189 I1.3896 J0.7675
G1 X4.9015 Y18.4605
G3 X5.2193 Y18.2199 I1.1096 J1.1353
G1 X9.3096 Y15.866
G3 X9.6305 Y15.7259 I0.7918 J1.3759
G1 X10.9959 Y15.3017
G3 X14.4879 Y7.1175 I165.0616 J65.5912
G3 X14.5112 Y7.0687 I1.4441 J0.6594
G3 X18.608 Y-0.7632 I201.9886 J100.67
G3 X21.3724 Y-0.7979 I1.392 J0.7632
G3 X28.3786 Y13.702 I-91.0243 J52.9246
G3 X29.0244 Y15.308 I-43.4449 J18.4038
G1 X30.3695 Y15.7259
G3 X30.6904 Y15.866 I-0.471 J1.516
G1 X34.7807 Y18.2199
G3 X35.0985 Y18.4605 I-0.7918 J1.3759
G1 X38.2276 Y21.519
G3 X38.5076 Y21.8867 I-1.1096 J1.1353
G1 X40.4673 Y25.4352
G3 X40.6413 Y25.9282 I-1.3896 J0.7675
G1 X41.3078 Y29.7255
G3 Y30.2745 I-1.5636 J0.2745
G1 X40.6413 Y34.0718
G3 X40.4673 Y34.5648 I-1.5636 J-0.2745
G1 X38.5076 Y38.1133
G3 X38.2276 Y38.481 I-1.3896 J-0.7675
G1 X35.6698 Y40.981
G3 X36.5845 Y49.9027 I-108.6844 J15.6504
G3 X33.5455 Y50.6361 I-1.5845 J0.0973
G2 X30.2037 Y44.3257 I-43.8128 J19.1617
G1 X25.5971 Y45.7568
G3 X25.2821 Y45.8205 I-0.471 J-1.516
G1 X20.156 Y46.3267
G3 X19.844 I-0.156 J-1.5798
G1 X14.7179 Y45.8205
G3 X14.4029 Y45.7568 I0.156 J-1.5798
G1 X12.7949 Y45.2572
G0 Z3.0
G0 X12.3166 Y47.8705
G1 F300.0 Z-6.0
G2 F2000.0 X9.0006 Y50.1192 I-0.5144 J2.8108
G2 X8.8899 Y50.7006 I29.2974 J5.8779
G3 X1.0564 Y49.7342 I-3.8899 J-0.7006
G3 X1.6181 Y43.5334 I134.8964 J9.0916
G2 X0.7762 Y41.1667 I-2.8392 J-0.3232
G1 X-0.0833 Y40.3266
G3 X-0.7804 Y39.4109 I2.7627 J-2.8266
G1 X-2.7784 Y35.7931
G3 X-3.2115 Y34.5656 I3.4599 J-1.9109
G1 X-3.893 Y30.6834
G3 Y29.3166 I3.893 J-0.6834
G1 X-3.2115 Y25.4344
G3 X-2.7784 Y24.2069 I3.893 J0.6834
G1 X-0.7804 Y20.5891
G3 X-0.0832 Y19.6734 I3.4599 J1.9109
G1 X3.0951 Y16.5668
G3 X3.8864 Y15.9677 I2.7627 J2.8266
G1 X8.0285 Y13.5839
G3 X8.3376 Y13.4237 I1.9715 J3.4257
G2 X9.7792 Y11.9164 I-1.2019 J-2.5925
G3 X16.5709 Y-1.9656 I109.2616 J44.8535
G3 X23.4169 Y-1.9867 I3.4291 J1.9656
G3 X30.2055 Y11.8953 I-93.0688 J54.1134
G2 X31.6576 Y13.4215 I2.6505 J-1.0678
G3 X31.9715 Y13.5839 I-1.6576 J3.5881
G1 X36.1136 Y15.9677
G3 X36.9049 Y16.5668 I-1.9715 J3.4257
G1 X40.0833 Y19.6734
G3 X40.7804 Y20.5891 I-2.7627 J2.8266
G1 X42.7784 Y24.2069
G3 X43.2115 Y25.4344 I-3.4599 J1.9109
G1 X43.893 Y29.3166
G3 Y30.6834 I-3.893 J0.6834
G1 X43.2115 Y34.5656
G3 X42.7784 Y35.7931 I-3.893 J-0.6834
G1 X40.7804 Y39.4109
G3 X40.0833 Y40.3266 I-3.4599 J-1.9109
G1 X39.2301 Y41.1604
G2 X38.3894 Y43.5365 I1.9974 J2.0435
G3 X38.945 Y49.7569 I-112.5907 J13.192
G3 X31.3748 Y51.5748 I-3.945 J0.2431
G2 X30.4161 Y49.5149 I-40.3996 J17.549
G2 X27.0097 Y48.0582 I-2.5587 J1.2721
G1 X26.349 Y48.2634
G3 X25.5648 Y48.4223 I-1.1726 J-3.7746
G1 X20.3884 Y48.9334
G3 X19.6116 I-0.3884 J-3.9334
G1 X14.4352 Y48.4223
G3 X13.651 Y48.2634 I0.3884 J-3.9334
G1 X12.65 Y47.9525
G2 X12.3166 Y47.8705 I-0.8477 J2.7289
G1 F300.0 X12.088 Y49.1197
G1 Z-7.0
G3 F2000.0 X12.2732 Y49.1653 I-0.2858 J1.5616
G1 X13.2742 Y49.4763
G2 X14.3105 Y49.6861 I1.5494 J-4.9874
G1 X19.4868 Y50.1972
G2 X20.5132 I0.5132 J-5.1972
G1 X25.6895 Y49.6861
G2 X26.7258 Y49.4763 I-0.5132 J-5.1972
G1 X27.3864 Y49.271
G3 X29.2789 Y50.0803 I0.471 J1.516
G3 X30.2099 Y52.0807 I-38.3038 J19.0434
G2 X40.2126 Y49.6788 I4.7901 J-2.0807
G2 X39.6508 Y43.3887 I-114.414 J7.0496
G3 X40.1178 Y42.0687 I1.5767 J-0.1847
G1 X40.971 Y41.2348
G2 X41.8921 Y40.0248 I-3.6505 J-3.7348
G1 X43.8901 Y36.4071
G2 X44.4624 Y34.7852 I-4.5716 J-2.5248
G1 X45.1439 Y30.9029
G2 Y29.0971 I-5.1439 J-0.9029
G1 X44.4624 Y25.2148
G2 X43.8901 Y23.5929 I-5.1439 J0.9029
G1 X41.8921 Y19.9752
G2 X40.971 Y18.7652 I-4.5716 J2.5248
G1 X37.7926 Y15.6586
G2 X36.7471 Y14.8669 I-3.6505 J3.7348
G1 X32.6049 Y12.4832
G2 X32.1902 Y12.2686 I-2.6049 J4.5265
G3 X31.3835 Y11.4207 I0.6658 J-1.4412
G2 X24.5148 Y-2.6251 I-101.0354 J40.706
G2 X15.4691 Y-2.5971 I-4.5148 J2.6251
G2 X8.6043 Y11.4341 I103.5717 J59.367
G3 X7.8034 Y12.2715 I-1.4686 J-0.6029
G2 X7.3951 Y12.4832 I2.1966 J4.7381
G1 X3.2529 Y14.8669
G2 X2.2074 Y15.6586 I2.6049 J4.5265
G1 X-0.971 Y18.7652
G2 X-1.8921 Y19.9752 I3.6505 J3.7348
G1 X-3.8901 Y23.5929
G2 X-4.4624 Y25.2148 I4.5716 J2.5248
G1 X-5.1439 Y29.0971
G2 Y30.9029 I5.1439 J0.9029
G1 X-4.4624 Y34.7852
G2 X-3.8901 Y36.4071 I5.1439 J-0.9029
G1 X-1.8921 Y40.0248
G2 X-0.971 Y41.2348 I4.5716 J-2.5248
G1 X-0.1115 Y42.0749
G3 X0.3562 Y43.3897 I-1.1096 J1.1353
G2 X-0.2107 Y49.6488 I135.5966 J15.4361
G2 X10.1398 Y50.9257 I5.2107 J0.3512
G3 X10.2458 Y50.369 I28.1582 J5.0714
G3 X12.088 Y49.1197 I1.5565 J0.3123
G0 Z3.0
G0 X12.7944 Y46.846
G1 F300.0 Z-7.0
G1 F2000.0 X9.1538 Y45.7151
G3 X9.0834 Y45.6922 I0.847 J-2.7264
G2 X7.8098 Y50.5061 I29.2147 J10.305
G3 X2.1482 Y49.8654 I-2.8098 J-0.5061
G3 X2.9263 Y41.7308 I84.7269 J3.9994
G1 X0.6854 Y39.5405
G3 X0.1819 Y38.8791 I1.9956 J-2.0417
G1 X-1.8159 Y35.2619
G3 X-2.1287 Y34.3752 I2.4991 J-1.3802
G1 X-2.81 Y30.4936
G3 Y29.5064 I2.812 J-0.4936
G1 X-2.1287 Y25.6248
G3 X-1.8159 Y24.7381 I2.812 J0.4936
G1 X0.1819 Y21.1209
G3 X0.6854 Y20.4595 I2.4991 J1.3802
G1 X3.8634 Y17.3532
G3 X4.435 Y16.9205 I1.9956 J2.0417
G1 X8.5767 Y14.5369
G3 X9.1538 Y14.2849 I1.424 J2.4745
G1 X10.1572 Y13.9732
G3 X13.3314 Y6.5941 I187.151 J76.1341
G3 X13.3793 Y6.4938 I2.5997 J1.1801
G3 X17.4936 Y-1.3671 I231.118 J115.9575
G3 X22.4681 Y-1.435 I2.5064 J1.3671
G3 X29.5449 Y13.2043 I-92.12 J53.5617
G3 X29.8746 Y13.9831 I-28.4694 J12.5136
G1 X30.8462 Y14.2849
G3 X31.4233 Y14.5369 I-0.847 J2.7264
G1 X35.565 Y16.9205
G3 X36.1366 Y17.3532 I-1.424 J2.4745
G1 X39.3146 Y20.4595
G3 X39.8181 Y21.1209 I-1.9956 J2.0417
G1 X41.8159 Y24.7381
G3 X42.1287 Y25.6248 I-2.4991 J1.3802
G1 X42.81 Y29.5064
G3 Y30.4936 I-2.812 J0.4936
G1 X42.1287 Y34.3752
G3 X41.8159 Y35.2619 I-2.812 J-0.4936
G1 X39.8181 Y38.8791
G3 X39.3146 Y39.5405 I-2.4991 J-1.3802
G1 X37.0578 Y41.7463
G3 X37.8496 Y49.8244 I-111.2481 J14.9813
G3 X32.3814 Y51.1375 I-2.8496 J0.1756
G2 X29.7756 Y46.0477 I-41.4157 J17.9913
G1 X26.023 Y47.2134
G3 X25.4565 Y47.3282 I-0.847 J-2.7264
G1 X20.2805 Y47.8392
G3 X19.7195 I-0.2805 J-2.8411
G1 X14.5435 Y47.3282
G3 X13.977 Y47.2134 I0.2805 J-2.8411
G1 X12.7944 Y46.846
G1 F300.0 X13.1704 Y45.6356
G1 F2000.0 X9.5298 Y44.5047
G3 X9.2183 Y44.3699 I0.471 J-1.516
G3 X8.4043 Y43.9063 I98.4963 J-173.8733
G2 X6.5624 Y50.2814 I29.8937 J12.0909
G3 X3.4143 Y49.9251 I-1.5624 J-0.2814
G3 X4.275 Y41.2767 I83.4608 J3.9397
G1 X1.5714 Y38.6341
G3 X1.2914 Y38.2663 I1.1096 J-1.1353
G1 X-0.7064 Y34.6491
G3 X-0.8803 Y34.1561 I1.3896 J-0.7675
G1 X-1.5617 Y30.2745
G3 Y29.7255 I1.5636 J-0.2745
G1 X-0.8803 Y25.8439
G3 X-0.7064 Y25.3509 I1.5636 J0.2745
G1 X1.2914 Y21.7337
G3 X1.5714 Y21.3659 I1.3896 J0.7675
G1 X4.7494 Y18.2596
G3 X5.0672 Y18.019 I1.1096 J1.1353
G1 X9.2089 Y15.6354
G3 X9.5298 Y15.4953 I0.7918 J1.3759
G1 X11.1065 Y15.0055
G3 X14.4856 Y7.118 I186.2017 J75.1018
G3 X14.5122 Y7.0622 I1.4455 J0.6562
G3 X18.6063 Y-0.7602 I229.9851 J115.3891
G3 X21.3724 Y-0.7979 I1.3937 J0.7602
G3 X28.3744 Y13.6912 I-91.0243 J52.9246
G3 X28.9195 Y15.0136 I-27.2989 J12.0268
G1 X30.4702 Y15.4953
G3 X30.7911 Y15.6354 I-0.471 J1.516
G1 X34.9328 Y18.019
G3 X35.2506 Y18.2596 I-0.7918 J1.3759
G1 X38.4286 Y21.3659
G3 X38.7086 Y21.7337 I-1.1096 J1.1353
G1 X40.7064 Y25.3509
G3 X40.8803 Y25.8439 I-1.3896 J0.7675
G1 X41.5617 Y29.7255
G3 Y30.2745 I-1.5636 J0.2745
G1 X40.8803 Y34.1561
G3 X40.7064 Y34.6491 I-1.5636 J-0.2745
G1 X38.7086 Y38.2663
G3 X38.4286 Y38.6341 I-1.3896 J-0.7675
G1 X35.7151 Y41.2863
G3 X36.5845 Y49.9024 I-109.9054 J15.4412
G3 X33.544 Y50.6325 I-1.5845 J0.0976
G2 X30.3435 Y44.544 I-42.5782 J18.4963
G1 X25.647 Y46.0031
G3 X25.332 Y46.0668 I-0.471 J-1.516
G1 X20.156 Y46.5779
G3 X19.844 I-0.156 J-1.5798
G1 X14.668 Y46.0668
G3 X14.353 Y46.0031 I0.156 J-1.5798
G1 X13.1704 Y45.6356
G0 Z3.0
G0 X12.5501 Y47.9234
G1 F300.0 Z-7.0
G2 F2000.0 X9.0006 Y50.1192 I-0.7478 J2.7579
G2 X8.8899 Y50.7006 I29.2974 J5.8779
G3 X1.0564 Y49.7342 I-3.8899 J-0.7006
G3 X1.6181 Y43.5334 I134.8964 J9.0916
G2 X0.7762 Y41.1667 I-2.8392 J-0.3232
G1 X-0.0833 Y40.3266
G3 X-0.7804 Y39.4109 I2.7627 J-2.8266
G1 X-2.7784 Y35.7931
G3 X-3.2115 Y34.5656 I3.4599 J-1.9109
G1 X-3.893 Y30.6834
G3 Y29.3166 I3.893 J-0.6834
G1 X-3.2115 Y25.4344
G3 X-2.7784 Y24.2069 I3.893 J0.6834
G1 X-0.7804 Y20.5891
G3 X-0.0832 Y19.6734 I3.4599 J1.9109
G1 X3.0951 Y16.5668
G3 X3.8864 Y15.9677 I2.7627 J2.8266
G1 X8.0285 Y13.5839
G3 X8.3376 Y13.4237 I1.9715 J3.4257
G2 X9.7792 Y11.9164 I-1.2019 J-2.5925
G3 X16.5709 Y-1.9656 I109.2616 J44.8535
G3 X23.4169 Y-1.9867 I3.4291 J1.9656
G3 X30.2055 Y11.8953 I-93.0688 J54.1134
G2 X31.6576 Y13.4215 I2.6505 J-1.0678
G3 X31.9715 Y13.5839 I-1.6576 J3.5881
G1 X36.1136 Y15.9677
G3 X36.9049 Y16.5668 I-1.9715 J3.4257
G1 X40.0833 Y19.6734
G3 X40.7804 Y20.5891 I-2.7627 J2.8266
G1 X42.7784 Y24.2069
G3 X43.2115 Y25.4344 I-3.4599 J1.9109
G1 X43.893 Y29.3166
G3 Y30.6834 I-3.893 J0.6834
G1 X43.2115 Y34.5656
G3 X42.7784 Y35.7931 I-3.893 J-0.6834
G1 X40.7804 Y39.4109
G3 X40.0833 Y40.3266 I-3.4599 J-1.9109
G1 X39.2301 Y41.1604
G2 X38.3894 Y43.5365 I1.9974 J2.0435
G3 X38.945 Y49.7569 I-112.5907 J13.192
G3 X31.3748 Y51.5748 I-3.945 J0.2431
G2 X30.4161 Y49.5149 I-40.3996 J17.549
G2 X27.0097 Y48.0582 I-2.5587 J1.2721
G1 X26.349 Y48.2634
G3 X25.5648 Y48.4223 I-1.1726 J-3.7746
G1 X20.3884 Y48.9334
G3 X19.6116 I-0.3884 J-3.9334
G1 X14.4352 Y48.4223
G3 X13.651 Y48.2634 I0.3884 J-3.9334
G1 X12.65 Y47.9525
G2 X12.5501 Y47.9234 I-0.8477 J2.7289
G1 F300.0 X12.2177 Y49.1491
G1 Z-8.0
G3 F2000.0 X12.2732 Y49.1653 I-0.4155 J1.5322
G1 X13.2742 Y49.4763
G2 X14.3105 Y49.6861 I1.5494 J-4.9874
G1 X19.4868 Y50.1972
G2 X20.5132 I0.5132 J-5.1972
G1 X25.6895 Y49.6861
G2 X26.7258 Y49.4763 I-0.5132 J-5.1972
G1 X27.3864 Y49.271
G3 X29.2789 Y50.0803 I0.471 J1.516
G3 X30.2099 Y52.0807 I-38.3038 J19.0434
G2 X40.2126 Y49.6788 I4.7901 J-2.0807
G2 X39.6508 Y43.3887 I-114.414 J7.0496
G3 X40.1178 Y42.0687 I1.5767 J-0.1847
G1 X40.971 Y41.2348
G2 X41.8921 Y40.0248 I-3.6505 J-3.7348
G1 X43.8901 Y36.4071
G2 X44.4624 Y34.7852 I-4.5716 J-2.5248
G1 X45.1439 Y30.9029
G2 Y29.0971 I-5.1439 J-0.9029
G1 X44.4624 Y25.2148
G2 X43.8901 Y23.5929 I-5.1439 J0.9029
G1 X41.8921 Y19.9752
G2 X40.971 Y18.7652 I-4.5716 J2.5248
G1 X37.7926 Y15.6586
G2 X36.7471 Y14.8669 I-3.6505 J3.7348
G1 X32.6049 Y12.4832
G2 X32.1902 Y12.2686 I-2.6049 J4.5265
G3 X31.3835 Y11.4207 I0.6658 J-1.4412
G2 X24.5148 Y-2.6251 I-101.0354 J40.706
G2 X15.4691 Y-2.5971 I-4.5148 J2.6251
G2 X8.6043 Y11.4341 I103.5717 J59.367
G3 X7.8034 Y12.2715 I-1.4686 J-0.6029
G2 X7.3951 Y12.4832 I2.1966 J4.7381
G1 X3.2529 Y14.8669
G2 X2.2074 Y15.6586 I2.6049 J4.5265
G1 X-0.971 Y18.7652
G2 X-1.8921 Y19.9752 I3.6505 J3.7348
G1 X-3.8901 Y23.5929
G2 X-4.4624 Y25.2148 I4.5716 J2.5248
G1 X-5.1439 Y29.0971
G2 Y30.9029 I5.1439 J0.9029
G1 X-4.4624 Y34.7852
G2 X-3.8901 Y36.4071 I5.1439 J-0.9029
G1 X-1.8921 Y40.0248
G2 X-0.971 Y41.2348 I4.5716 J-2.5248
G1 X-0.1115 Y42.0749
G3 X0.3562 Y43.3897 I-1.1096 J1.1353
G2 X-0.2107 Y49.6488 I135.5966 J15.4361
G2 X10.1398 Y50.9257 I5.2107 J0.3512
G3 X10.2458 Y50.369 I28.1582 J5.0714
G3 X12.2177 Y49.1491 I1.5565 J0.3123
G0 Z3.0
G0 X12.9204 Y46.8872
G1 F300.0 Z-8.0
G1 F2000.0 X9.153 Y45.7168
G3 X9.0828 Y45.694 I0.847 J-2.7264
G2 X7.8098 Y50.5061 I29.2152 J10.3032
G3 X2.1515 Y49.808 I-2.8098 J-0.5061
G3 X2.94 Y41.7468 I133.8034 J9.018
G1 X0.6839 Y39.5417
G3 X0.1803 Y38.8802 I1.9956 J-2.0417
G1 X-1.8177 Y35.2625
G3 X-2.1305 Y34.3759 I2.4991 J-1.3802
G1 X-2.812 Y30.4936
G3 Y29.5064 I2.812 J-0.4936
G1 X-2.1305 Y25.6241
G3 X-1.8177 Y24.7375 I2.812 J0.4936
G1 X0.1803 Y21.1198
G3 X0.6839 Y20.4583 I2.4991 J1.3802
G1 X3.8623 Y17.3517
G3 X4.4338 Y16.9189 I1.9956 J2.0417
G1 X8.576 Y14.5352
G3 X9.153 Y14.2832 I1.424 J2.4745
G1 X10.1336 Y13.9786
G3 X17.5231 Y-1.4198 I108.9072 J42.7913
G3 X22.4681 Y-1.435 I2.4769 J1.4198
G3 X29.5448 Y13.2042 I-92.12 J53.5617
G3 X29.8738 Y13.9809 I-28.3596 J12.47
G1 X30.847 Y14.2832
G3 X31.424 Y14.5352 I-0.847 J2.7264
G1 X35.5662 Y16.9189
G3 X36.1377 Y17.3517 I-1.424 J2.4745
G1 X39.3161 Y20.4583
G3 X39.8197 Y21.1198 I-1.9956 J2.0417
G1 X41.8177 Y24.7375
G3 X42.1305 Y25.6241 I-2.4991 J1.3802
G1 X42.812 Y29.5064
G3 Y30.4936 I-2.812 J0.4936
G1 X42.1305 Y34.3759
G3 X41.8177 Y35.2625 I-2.812 J-0.4936
G1 X39.8197 Y38.8802
G3 X39.3161 Y39.5417 I-2.4991 J-1.3802
G1 X37.0581 Y41.7486
G3 X37.8496 Y49.8244 I-111.2595 J14.9798
G3 X32.3814 Y51.1375 I-2.8496 J0.1756
G2 X29.7767 Y46.0493 I-41.4063 J17.9862
G1 X26.0234 Y47.2153
G3 X25.4569 Y47.33 I-0.847 J-2.7264
G1 X20.2805 Y47.8411
G3 X19.7195 I-0.2805 J-2.8411
G1 X14.5431 Y47.33
G3 X13.9766 Y47.2153 I0.2805 J-2.8411
G1 X12.9204 Y46.8872
G1 F300.0 X13.2964 Y45.6768
G1 F2000.0 X9.529 Y44.5064
G3 X9.2082 Y44.3663 I0.471 J-1.516
G1 X8.4052 Y43.9042
G2 X6.5624 Y50.2814 I29.8928 J12.093
G3 X3.4161 Y49.8932 I-1.5624 J-0.2814
G3 X4.2789 Y41.2831 I132.5388 J8.9328
G1 X1.5698 Y38.6353
G3 X1.2898 Y38.2675 I1.1096 J-1.1353
G1 X-0.7082 Y34.6498
G3 X-0.8821 Y34.1568 I1.3896 J-0.7675
G1 X-1.5636 Y30.2745
G3 Y29.7255 I1.5636 J-0.2745
G1 X-0.8821 Y25.8432
G3 X-0.7082 Y25.3502 I1.5636 J0.2745
G1 X1.2898 Y21.7325
G3 X1.5699 Y21.3647 I1.3896 J0.7675
G1 X4.7482 Y18.2581
G3 X5.066 Y18.0175 I1.1096 J1.1353
G1 X9.2082 Y15.6337
G3 X9.529 Y15.4936 I0.7918 J1.3759
G1 X11.0927 Y15.0078
G3 X18.6227 Y-0.7895 I107.9481 J41.7621
G3 X21.3724 Y-0.7979 I1.3773 J0.7895
G3 X28.3743 Y13.6911 I-91.0243 J52.9246
G3 X28.9187 Y15.0114 I-27.1891 J11.983
G1 X30.471 Y15.4936
G3 X30.7918 Y15.6337 I-0.471 J1.516
G1 X34.934 Y18.0175
G3 X35.2518 Y18.2581 I-0.7918 J1.3759
G1 X38.4302 Y21.3647
G3 X38.7102 Y21.7325 I-1.1096 J1.1353
G1 X40.7082 Y25.3502
G3 X40.8821 Y25.8432 I-1.3896 J0.7675
G1 X41.5636 Y29.7255
G3 Y30.2745 I-1.5636 J0.2745
G1 X40.8821 Y34.1568
G3 X40.7082 Y34.6498 I-1.5636 J-0.2745
G1 X38.7102 Y38.2675
G3 X38.4302 Y38.6353 I-1.3896 J-0.7675
G1 X35.7155 Y41.2886
G3 X36.5845 Y49.9024 I-109.9168 J15.4398
G3 X33.5439 Y50.6325 I-1.5845 J0.0976
G2 X30.3445 Y44.5457 I-42.5688 J18.4912
G1 X25.6474 Y46.0049
G3 X25.3324 Y46.0687 I-0.471 J-1.516
G1 X20.156 Y46.5798
G3 X19.844 I-0.156 J-1.5798
G1 X14.6676 Y46.0687
G3 X14.3526 Y46.0049 I0.156 J-1.5798
G1 X13.2964 Y45.6768
G0 Z3.0
G0 X12.6197 Y47.9432
G1 F300.0 Z-8.0
G2 F2000.0 X9.0006 Y50.1192 I-0.8175 J2.7381
G2 X8.8899 Y50.7006 I29.2974 J5.8779
G3 X1.0564 Y49.7342 I-3.8899 J-0.7006
G3 X1.6181 Y43.5334 I134.8964 J9.0916
G2 X0.7762 Y41.1667 I-2.8392 J-0.3232
G1 X-0.0833 Y40.3266
G3 X-0.7804 Y39.4109 I2.7627 J-2.8266
G1 X-2.7784 Y35.7931
G3 X-3.2115 Y34.5656 I3.4599 J-1.9109
G1 X-3.893 Y30.6834
G3 Y29.3166 I3.893 J-0.6834
G1 X-3.2115 Y25.4344
G3 X-2.7784 Y24.2069 I3.893 J0.6834
G1 X-0.7804 Y20.5891
G3 X-0.0832 Y19.6734 I3.4599 J1.9109
G1 X3.0951 Y16.5668
G3 X3.8864 Y15.9677 I2.7627 J2.8266
G1 X8.0285 Y13.5839
G3 X8.3376 Y13.4237 I1.9715 J3.4257
G2 X9.7792 Y11.9164 I-1.2019 J-2.5925
G3 X16.5709 Y-1.9656 I109.2616 J44.8535
G3 X23.4169 Y-1.9867 I3.4291 J1.9656
G3 X30.2055 Y11.8953 I-93.0688 J54.1134
G2 X31.6576 Y13.4215 I2.6505 J-1.0678
G3 X31.9715 Y13.5839 I-1.6576 J3.5881
G1 X36.1136 Y15.9677
G3 X36.9049 Y16.5668 I-1.9715 J3.4257
G1 X40.0833 Y19.6734
G3 X40.7804 Y20.5891 I-2.7627 J2.8266
G1 X42.7784 Y24.2069
G3 X43.2115 Y25.4344 I-3.4599 J1.9109
G1 X43.893 Y29.3166
G3 Y30.6834 I-3.893 J0.6834
G1 X43.2115 Y34.5656
G3 X42.7784 Y35.7931 I-3.893 J-0.6834
G1 X40.7804 Y39.4109
G3 X40.0833 Y40.3266 I-3.4599 J-1.9109
G1 X39.2301 Y41.1604
G2 X38.3894 Y43.5365 I1.9974 J2.0435
G3 X38.945 Y49.7569 I-112.5907 J13.192
G3 X31.3748 Y51.5748 I-3.945 J0.2431
G2 X30.4161 Y49.5149 I-40.3996 J17.549
G2 X27.0097 Y48.0582 I-2.5587 J1.2721
G1 X26.349 Y48.2634
G3 X25.5648 Y48.4223 I-1.1726 J-3.7746
G1 X20.3884 Y48.9334
G3 X19.6116 I-0.3884 J-3.9334
G1 X14.4352 Y48.4223
G3 X13.651 Y48.2634 I0.3884 J-3.9334
G1 X12.65 Y47.9525
G2 X12.6197 Y47.9432 I-0.8477 J2.7289
G1 F300.0 X12.2564 Y49.1602
G1 Z-8.5
G3 F2000.0 X12.2732 Y49.1653 I-0.4542 J1.5211
G1 X13.2742 Y49.4763
G2 X14.3105 Y49.6861 I1.5494 J-4.9874
G1 X19.4868 Y50.1972
G2 X20.5132 I0.5132 J-5.1972
G1 X25.6895 Y49.6861
G2 X26.7258 Y49.4763 I-0.5132 J-5.1972
G1 X27.3864 Y49.271
G3 X29.2789 Y50.0803 I0.471 J1.516
G3 X30.2099 Y52.0807 I-38.3038 J19.0434
G2 X40.2126 Y49.6788 I4.7901 J-2.0807
G2 X39.6508 Y43.3887 I-114.414 J7.0496
G3 X40.1178 Y42.0687 I1.5767 J-0.1847
G1 X40.971 Y41.2348
G2 X41.8921 Y40.0248 I-3.6505 J-3.7348
G1 X43.8901 Y36.4071
G2 X44.4624 Y34.7852 I-4.5716 J-2.5248
G1 X45.1439 Y30.9029
G2 Y29.0971 I-5.1439 J-0.9029
G1 X44.4624 Y25.2148
G2 X43.8901 Y23.5929 I-5.1439 J0.9029
G1 X41.8921 Y19.9752
G2 X40.971 Y18.7652 I-4.5716 J2.5248
G1 X37.7926 Y15.6586
G2 X36.7471 Y14.8669 I-3.6505 J3.7348
G1 X32.6049 Y12.4832
G2 X32.1902 Y12.2686 I-2.6049 J4.5265
G3 X31.3835 Y11.4207 I0.6658 J-1.4412
G2 X24.5148 Y-2.6251 I-101.0354 J40.706
G2 X15.4691 Y-2.5971 I-4.5148 J2.6251
G2 X8.6043 Y11.4341 I103.5717 J59.367
G3 X7.8034 Y12.2715 I-1.4686 J-0.6029
G2 X7.3951 Y12.4832 I2.1966 J4.7381
G1 X3.2529 Y14.8669
G2 X2.2074 Y15.6586 I2.6049 J4.5265
G1 X-0.971 Y18.7652
G2 X-1.8921 Y19.9752 I3.6505 J3.7348
G1 X-3.8901 Y23.5929
G2 X-4.4624 Y25.2148 I4.5716 J2.5248
G1 X-5.1439 Y29.0971
G2 Y30.9029 I5.1439 J0.9029
G1 X-4.4624 Y34.7852
G2 X-3.8901 Y36.4071 I5.1439 J-0.9029
G1 X-1.8921 Y40.0248
G2 X-0.971 Y41.2348 I4.5716 J-2.5248
G1 X-0.1115 Y42.0749
G3 X0.3562 Y43.3897 I-1.1096 J1.1353
G2 X-0.2107 Y49.6488 I135.5966 J15.4361
G2 X10.1398 Y50.9257 I5.2107 J0.3512
G3 X10.2458 Y50.369 I28.1582 J5.0714
G3 X12.2564 Y49.1602 I1.5565 J0.3123
G0 Z3.0
G0 X12.9588 Y46.8991
G1 F300.0 Z-8.5
G1 F2000.0 X9.153 Y45.7168
G3 X9.0828 Y45.694 I0.847 J-2.7264
G2 X7.8098 Y50.5061 I29.2152 J10.3032
G3 X2.1515 Y49.808 I-2.8098 J-0.5061
G3 X2.94 Y41.7468 I133.8013 J9.0178
G1 X0.6839 Y39.5417
G3 X0.1803 Y38.8802 I1.9956 J-2.0417
G1 X-1.8177 Y35.2625
G3 X-2.1305 Y34.3759 I2.4991 J-1.3802
G1 X-2.812 Y30.4936
G3 Y29.5064 I2.812 J-0.4936
G1 X-2.1305 Y25.6241
G3 X-1.8177 Y24.7375 I2.812 J0.4936
G1 X0.1803 Y21.1198
G3 X0.6839 Y20.4583 I2.4991 J1.3802
G1 X3.8623 Y17.3517
G3 X4.4338 Y16.9189 I1.9956 J2.0417
G1 X8.576 Y14.5352
G3 X9.153 Y14.2832 I1.424 J2.4745
G1 X10.1336 Y13.9786
G3 X17.5231 Y-1.4198 I108.9072 J42.7913
G3 X22.4681 Y-1.435 I2.4769 J1.4198
G3 X29.5445 Y13.2033 I-92.12 J53.5617
G3 X29.8738 Y13.9809 I-28.3764 J12.4771
G1 X30.847 Y14.2832
G3 X31.424 Y14.5352 I-0.847 J2.7264
G1 X35.5662 Y16.9189
G3 X36.1377 Y17.3517 I-1.424 J2.4745
G1 X39.3161 Y20.4583
G3 X39.8197 Y21.1198 I-1.9956 J2.0417
G1 X41.8177 Y24.7375
G3 X42.1305 Y25.6241 I-2.4991 J1.3802
G1 X42.812 Y29.5064
G3 Y30.4936 I-2.812 J0.4936
G1 X42.1305 Y34.3759
G3 X41.8177 Y35.2625 I-2.812 J-0.4936
G1 X39.8197 Y38.8802
G3 X39.3161 Y39.5417 I-2.4991 J-1.3802
G1 X37.0581 Y41.7486
G3 X37.8496 Y49.8244 I-111.2595 J14.9798
G3 X32.3814 Y51.1375 I-2.8496 J0.1756
G2 X29.7767 Y46.0493 I-41.4063 J17.9862
G1 X26.0234 Y47.2153
G3 X25.4569 Y47.33 I-0.847 J-2.7264
G1 X20.2805 Y47.8411
G3 X19.7195 I-0.2805 J-2.8411
G1 X14.5431 Y47.33
G3 X13.9766 Y47.2153 I0.2805 J-2.8411
G1 X12.9588 Y46.8991
G1 F300.0 X13.3348 Y45.6887
G1 F2000.0 X9.529 Y44.5064
G3 X9.2082 Y44.3663 I0.471 J-1.516
G1 X8.4052 Y43.9042
G2 X6.5624 Y50.2814 I29.8928 J12.093
G3 X3.4161 Y49.8932 I-1.5624 J-0.2814
G3 X4.2789 Y41.2831 I132.5367 J8.9326
G1 X1.5698 Y38.6353
G3 X1.2898 Y38.2675 I1.1096 J-1.1353
G1 X-0.7082 Y34.6498
G3 X-0.8821 Y34.1568 I1.3896 J-0.7675
G1 X-1.5636 Y30.2745
G3 Y29.7255 I1.5636 J-0.2745
G1 X-0.8821 Y25.8432
G3 X-0.7082 Y25.3502 I1.5636 J0.2745
G1 X1.2898 Y21.7325
G3 X1.5699 Y21.3647 I1.3896 J0.7675
G1 X4.7482 Y18.2581
G3 X5.066 Y18.0175 I1.1096 J1.1353
G1 X9.2082 Y15.6337
G3 X9.529 Y15.4936 I0.7918 J1.3759
G1 X11.0927 Y15.0078
G3 X18.6227 Y-0.7895 I107.9481 J41.7621
G3 X21.3724 Y-0.7979 I1.3773 J0.7895
G3 X28.374 Y13.6902 I-91.0243 J52.9246
G3 X28.9187 Y15.0114 I-27.2059 J11.9902
G1 X30.471 Y15.4936
G3 X30.7918 Y15.6337 I-0.471 J1.516
G1 X34.934 Y18.0175
G3 X35.2518 Y18.2581 I-0.7918 J1.3759
G1 X38.4302 Y21.3647
G3 X38.7102 Y21.7325 I-1.1096 J1.1353
G1 X40.7082 Y25.3502
G3 X40.8821 Y25.8432 I-1.3896 J0.7675
G1 X41.5636 Y29.7255
G3 Y30.2745 I-1.5636 J0.2745
G1 X40.8821 Y34.1568
G3 X40.7082 Y34.6498 I-1.5636 J-0.2745
G1 X38.7102 Y38.2675
G3 X38.4302 Y38.6353 I-1.3896 J-0.7675
G1 X35.7155 Y41.2886
G3 X36.5845 Y49.9024 I-109.9168 J15.4398
G3 X33.5439 Y50.6325 I-1.5845 J0.0976
G2 X30.3445 Y44.5457 I-42.5688 J18.4912
G1 X25.6474 Y46.0049
G3 X25.3324 Y46.0687 I-0.471 J-1.516
G1 X20.156 Y46.5798
G3 X19.844 I-0.156 J-1.5798
G1 X14.6676 Y46.0687
G3 X14.3526 Y46.0049 I0.156 J-1.5798
G1 X13.3348 Y45.6887
G0 Z3.0
G0 X12.6408 Y47.9496
G1 F300.0 Z-8.5
G2 F2000.0 X9.0006 Y50.1192 I-0.8386 J2.7317
G2 X8.8899 Y50.7006 I29.2974 J5.8779
G3 X1.0564 Y49.7342 I-3.8899 J-0.7006
G3 X1.6181 Y43.5334 I134.8964 J9.0916
G2 X0.7762 Y41.1667 I-2.8392 J-0.3232
G1 X-0.0833 Y40.3266
G3 X-0.7804 Y39.4109 I2.7627 J-2.8266
G1 X-2.7784 Y35.7931
G3 X-3.2115 Y34.5656 I3.4599 J-1.9109
G1 X-3.893 Y30.6834
G3 Y29.3166 I3.893 J-0.6834
G1 X-3.2115 Y25.4344
G3 X-2.7784 Y24.2069 I3.893 J0.6834
G1 X-0.7804 Y20.5891
G3 X-0.0832 Y19.6734 I3.4599 J1.9109
G1 X3.0951 Y16.5668
G3 X3.8864 Y15.9677 I2.7627 J2.8266
G1 X8.0285 Y13.5839
G3 X8.3376 Y13.4237 I1.9715 J3.4257
G2 X9.7792 Y11.9164 I-1.2019 J-2.5925
G3 X16.5709 Y-1.9656 I109.2616 J44.8535
G3 X23.4169 Y-1.9867 I3.4291 J1.9656
G3 X30.2055 Y11.8953 I-93.0688 J54.1134
G2 X31.6576 Y13.4215 I2.6505 J-1.0678
G3 X31.9715 Y13.5839 I-1.6576 J3.5881
G1 X36.1136 Y15.9677
G3 X36.9049 Y16.5668 I-1.9715 J3.4257
G1 X40.0833 Y19.6734
G3 X40.7804 Y20.5891 I-2.7627 J2.8266
G1 X42.7784 Y24.2069
G3 X43.2115 Y25.4344 I-3.4599 J1.9109
G1 X43.893 Y29.3166
G3 Y30.6834 I-3.893 J0.6834
G1 X43.2115 Y34.5656
G3 X42.7784 Y35.7931 I-3.893 J-0.6834
G1 X40.7804 Y39.4109
G3 X40.0833 Y40.3266 I-3.4599 J-1.9109
G1 X39.2301 Y41.1604
G2 X38.3894 Y43.5365 I1.9974 J2.0435
G3 X38.945 Y49.7569 I-112.5907 J13.192
G3 X31.3748 Y51.5748 I-3.945 J0.2431
G2 X30.4161 Y49.5149 I-40.3996 J17.549
G2 X27.0097 Y48.0582 I-2.5587 J1.2721
G1 X26.349 Y48.2634
G3 X25.5648 Y48.4223 I-1.1726 J-3.7746
G1 X20.3884 Y48.9334
G3 X19.6116 I-0.3884 J-3.9334
G1 X14.4352 Y48.4223
G3 X13.651 Y48.2634 I0.3884 J-3.9334
G1 X12.65 Y47.9525
G2 X12.6408 Y47.9496 I-0.8477 J2.7289
G0 Z3.0
G0 X5.1745 Y35.8579
G1 F300.0 Z-4.0
G3 F2000.0 X5.2413 Y35.5062 I96.3492 J18.1017
G3 X5.1354 Y35.3398 I1.2837 J-0.9339
G1 X3.8635 Y33.0368
G3 X3.6895 Y32.5438 I1.3897 J-0.7675
G1 X3.2912 Y30.2745
G3 Y29.7255 I1.5636 J-0.2745
G1 X3.6895 Y27.4562
G3 X3.8635 Y26.9632 I1.5636 J0.2745
G1 X5.1354 Y24.6602
G3 X5.4154 Y24.2924 I1.3897 J0.7675
G1 X7.6578 Y22.1006
G3 X7.9756 Y21.86 I1.1096 J1.1353
G1 X8.8519 Y21.3557
G3 X8.9793 Y20.9641 I107.0439 J34.6265
G1 X7.6336 Y21.7385
G1 X5.0265 Y24.2868
G1 X3.4716 Y27.1021
G1 X2.9629 Y30.0
G1 X3.4716 Y32.8979
G1 X5.0265 Y35.7132
G1 X5.1745 Y35.8579
( Finishing )
S1000
G0 Z3.0
G0 X9.8883 Y21.7431
G1 F300.0 Z-0.1
G1 F2000.0 X26.589
G1 X28.3499 Y21.681
G3 X29.666 Y21.6133 I1.0649 J7.8705
G3 X31.5674 Y22.6652 I0.3903 J1.5388
G3 X31.885 Y23.6526 I-982.2129 J316.4718
G3 X31.8902 Y23.6694 I-1.5115 J0.4853
G3 X33.5659 Y29.9703 I-78.4452 J24.2346
G3 X31.4234 Y31.7895 I-1.5492 J0.3468
G2 X31.2404 Y31.8119 I0.2817 J3.0685
G3 X31.131 Y31.8247 I-0.2394 J-1.5693
G3 X21.0072 Y32.4268 I-18.4226 J-224.3437
G3 X19.8961 Y32.0287 I-0.0585 J-1.5864
G1 X18.9612 Y31.2006
G2 X18.5209 Y30.976 I-0.7144 J0.8565
G2 X17.6349 Y30.9467 I-0.5258 J2.4926
G3 X17.2976 Y30.9586 I-0.2245 J-1.5715
G1 X17.1555 Y31.0922
G3 X16.0326 Y31.5226 I-1.0873 J-1.1567
G2 X9.4217 Y31.5692 I-2.5156 J112.2979
G3 X9.3328 Y31.5699 I-0.0579 J-1.5864
G2 X9.0016 Y31.6424 I-0.0142 J0.7277
G3 X7.9708 Y31.764 I-0.6912 J-1.4291
G1 X7.681 Y31.7006
G3 X6.4746 Y29.7892 I0.3396 J-1.5508
G3 X8.3743 Y22.8531 I91.7802 J21.4082
G3 X9.8883 Y21.7431 I1.514 J0.4774
G1 F300.0 X9.586 Y20.9813
G1 Z-0.2
G3 F2000.0 X10.1715 Y20.8694 I0.5855 J1.4756
G1 X22.5242
G1 X26.324 Y20.7355
G1 X26.8528 Y20.6699
G3 X27.0482 Y20.6578 I0.1954 J1.5754
G1 X29.0184
G3 X31.2242 Y21.5983 I0.6948 J1.4274
G3 X31.885 Y23.6526 I-2043.4177 J658.3951
G3 X31.8919 Y23.6748 I-1.5115 J0.4853
G3 X33.8126 Y31.0195 I-90.1567 J27.5
G3 X31.3758 Y32.6762 I-1.5508 J0.3395
G2 X31.0372 Y32.7102 I0.2372 J4.0611
G3 X30.9708 Y32.7183 I-0.2247 J-1.5715
G3 X21.9902 Y33.3247 I-13.8393 J-138.1493
G3 X20.8312 Y32.8794 I-0.0556 J-1.5865
G2 X18.983 Y31.2189 I-23.5929 J24.4016
G3 X18.9703 Y31.2082 I1.017 J-1.2189
G2 X18.4445 Y30.9594 I-0.7235 J0.8489
G2 X17.297 Y30.9662 I-0.3251 J41.7543
G1 X16.5154 Y31.701
G3 X15.4137 Y32.1318 I-1.0873 J-1.1567
G2 X10.6966 Y32.2281 I-0.7232 J80.1608
G3 X10.5865 Y32.2297 I-0.0791 J-1.5855
G2 X9.1153 Y32.5517 I-0.0633 J3.2327
G3 X8.0845 Y32.6734 I-0.6912 J-1.4291
G1 X7.4812 Y32.5412
G3 X6.2735 Y30.6357 I0.3396 J-1.5508
G3 X8.6607 Y21.9693 I101.0089 J23.1626
G3 X9.586 Y20.9813 I1.5108 J0.4876
G1 F300.0 X9.1499 Y20.6791
G1 Z-0.3
G3 F2000.0 X10.4869 Y19.9961 I1.3049 J0.9041
G2 X24.2732 Y19.7918 I3.9841 J-196.4702
G1 X25.1246 Y19.6862
G3 X25.32 Y19.6741 I0.1954 J1.5754
G1 X28.5254
G3 X30.8811 Y20.5314 I0.8446 J1.3441
G3 X31.885 Y23.6526 I-3104.6226 J1000.3184
G3 X31.8932 Y23.6791 I-1.5115 J0.4853
G3 X34.0588 Y32.0666 I-102.2682 J30.8784
G3 X31.4305 Y33.5677 I-1.5519 J0.3342
G2 X30.5292 Y33.6376 I0.0903 J7.0068
G3 X30.4647 Y33.6455 I-0.2247 J-1.5715
G3 X22.9318 Y34.2037 I-14.05 J-138.4982
G3 X21.7429 Y33.7484 I-0.0743 J-1.5858
G2 X18.9712 Y31.209 I-36.0533 J36.57
G3 X18.9703 Y31.2082 I1.0288 J-1.209
G2 X18.4417 Y30.9589 I-0.7235 J0.8489
G2 X17.2825 Y30.9698 I-0.3223 J27.5368
G2 X15.9273 Y32.302 I15.3915 J17.0108
G3 X14.7474 Y32.8044 I-1.1589 J-1.085
G2 X10.3651 Y33.0439 I-0.429 J32.3749
G3 X10.3161 Y33.0491 I-0.1938 J-1.5756
G2 X9.3988 Y33.3657 I0.1855 J2.0249
G3 X8.1982 Y33.5827 I-0.861 J-1.3337
G1 X7.2814 Y33.3819
G3 X6.0726 Y31.481 I0.3396 J-1.5508
G3 X8.9464 Y21.0881 I110.9709 J25.0923
G3 X9.1499 Y20.6791 I1.5083 J0.4951
G1 F300.0 X9.0846 Y20.6578
G1 Z-0.4
G3 F2000.0 X9.2294 Y20.2152 I537.6701 J175.7218
G3 X10.738 Y19.1221 I1.5086 J0.4944
G1 X14.3945
G1 X22.2457 Y18.8453
G1 X23.3964 Y18.7026
G3 X23.5918 Y18.6905 I0.1954 J1.5754
G1 X28.0633
G3 X30.5283 Y19.4366 I0.9636 J1.2616
G3 X33.0892 Y27.9601 I-108.3957 J37.2137
G3 X34.2573 Y33.0181 I-72.0992 J19.3147
G3 X31.6553 Y34.5174 I-1.5583 J0.3032
G1 X30.4126
G3 X23.8084 Y35.0631 I-15.4808 J-147.11
G3 X22.574 Y34.5842 I-0.0953 J-1.5846
G2 X18.9923 Y31.227 I-37.3271 J36.2338
G2 X17.9094 Y30.943 I-0.8729 J1.1217
G3 X17.567 Y30.9568 I-0.2346 J-1.5701
G2 X17.4071 Y30.953 I-0.1215 J1.7844
G3 X17.2797 Y30.9807 I-0.4517 J-1.7732
G2 X15.2766 Y32.9943 I18.7112 J20.6156
G3 X14.1102 Y33.5211 I-1.1811 J-1.0607
G2 X11.0728 Y33.7557 I0.2079 J22.4734
G3 X11.0187 Y33.7626 I-0.2292 J-1.5709
G2 X9.7694 Y34.1032 I0.461 J4.1529
G1 X9.535 Y34.2602
G3 X8.3119 Y34.492 I-0.8835 J-1.3189
G1 X7.1068 Y34.2281
G3 X6.3914 Y33.8636 I0.3396 J-1.5508
G3 X5.8787 Y32.298 I1.0877 J-1.223
G3 X5.8798 Y32.2928 I1.5523 J0.3323
G3 X8.1061 Y23.6813 I112.0416 J24.3726
G3 X8.1148 Y23.6532 I1.5204 J0.4567
G3 X9.0846 Y20.6578 I538.6399 J172.7264
G1 F300.0 X9.0696 Y20.6528
G1 Z-0.5
G3 F2000.0 X9.5364 Y19.2881 I101.5168 J33.9638
G3 X10.979 Y18.2255 I1.4986 J0.5239
G1 X20.2066 Y17.9002
G1 X21.6682 Y17.7189
G3 X21.8636 Y17.7069 I0.1954 J1.5754
G1 X27.7519
G3 X30.1675 Y18.4427 I0.9274 J1.2885
G3 X31.896 Y23.6882 I-69.5422 J25.8227
G3 X34.4332 Y33.9001 I-101.0464 J30.5273
G3 X31.8632 Y35.4286 I-1.5578 J0.3055
G1 X30.0538
G3 X24.6382 Y35.9173 I-10.4381 J-85.4274
G3 X23.3888 Y35.4197 I-0.0926 J-1.5848
G2 X18.97 Y31.208 I-40.4993 J38.0666
G2 X18.4365 Y30.958 I-0.7232 J0.8492
G2 X17.3128 Y30.9747 I-0.3171 J16.4384
G3 X16.2673 Y31.9527 I-108.7772 J-115.2396
G2 X14.6041 Y33.7542 I25.8831 J25.5639
G3 X13.4533 Y34.304 I-1.2021 J-1.0369
G2 X10.4834 Y34.7468 I0.4193 J12.9939
G3 X10.4544 Y34.7543 I-0.4138 J-1.5326
G2 X9.7423 Y35.1018 I0.4628 J1.852
G3 X8.2584 Y35.3551 I-0.9771 J-1.2512
G2 X7.2441 Y35.191 I-1.0011 J2.9723
G3 X5.6783 Y33.3047 I-0.0067 J-1.5875
G3 X6.9109 Y27.9595 I72.2917 J13.8559
G3 X9.0696 Y20.6528 I103.6755 J26.6571
G1 F300.0 X9.0543 Y20.6476
G1 Z-0.6
G3 F2000.0 X9.9217 Y18.2248 I82.3094 J28.1
G3 X11.3523 Y17.1954 I1.4865 J0.5571
G1 X18.1675 Y16.9552
G1 X19.94 Y16.7353
G3 X20.1354 Y16.7232 I0.1954 J1.5754
G1 X27.4428
G3 X29.8173 Y17.4788 I0.8889 J1.3153
G3 X31.895 Y23.6849 I-82.1628 J30.9577
G3 X34.6117 Y34.7955 I-102.8989 J31.0483
G3 X32.0729 Y36.3398 I-1.5599 J0.2945
G1 X29.6824
G3 X25.4072 Y36.7481 I-9.5389 J-77.3052
G3 X24.1117 Y36.217 I-0.1073 J-1.5839
G2 X18.9784 Y31.2151 I-36.6182 J32.4456
G3 X18.9703 Y31.2082 I1.0216 J-1.2151
G2 X18.434 Y30.9576 I-0.7235 J0.8489
G2 X17.3171 Y30.9775 I-0.3146 J13.7046
G3 X16.265 Y31.9608 I-109.2555 J-115.8435
G2 X13.9177 Y34.5729 I26.2869 J25.9822
G3 X12.8018 Y35.1526 I-1.2299 J-1.0038
G2 X10.9223 Y35.5093 I0.5944 J8.2615
G3 X10.833 Y35.5344 I-0.4741 J-1.515
G2 X9.856 Y36.0111 I0.6349 J2.5409
G3 X8.426 Y36.2814 I-0.9771 J-1.2512
G2 X7.1161 Y36.1172 I-1.1496 J3.8619
G3 X5.4918 Y34.2431 I-0.0631 J-1.5862
G3 X6.6348 Y29.1145 I69.9272 J12.8924
G3 X9.0543 Y20.6476 I84.7289 J19.6331
G1 F300.0 X9.0702 Y20.6529
G1 Z-0.7
G3 F2000.0 X10.2943 Y17.1962 I100.9658 J33.81
G3 X11.7255 Y16.1653 I1.4871 J0.5556
G1 X16.1283 Y16.0101
G1 X18.2118 Y15.7517
G3 X18.4072 Y15.7396 I0.1954 J1.5754
G1 X27.1363
G3 X29.4677 Y16.5168 I0.8478 J1.3421
G3 X31.8943 Y23.6827 I-94.7772 J36.0881
G3 X34.7898 Y35.6889 I-105.9728 J31.9093
G3 X32.2846 Y37.251 I-1.5616 J0.2855
G1 X29.3109
G3 X26.1758 Y37.5754 I-9.4106 J-75.6457
G3 X24.8288 Y37.0135 I-0.1307 J-1.5821
G2 X18.9902 Y31.225 I-34.3931 J28.8516
G3 X18.9703 Y31.2082 I1.0098 J-1.225
G2 X18.5234 Y30.9766 I-0.7235 J0.8489
G2 X17.3424 Y30.9681 I-0.6119 J2.9611
G3 X17.3323 Y30.9699 I-0.2988 J-1.5591
G3 X16.2626 Y31.969 I-109.7445 J-116.4371
G2 X13.2035 Y35.4939 I25.4655 J25.1904
G3 X12.154 Y36.1066 I-1.2642 J-0.9602
G2 X10.3875 Y36.6456 I0.7816 J5.7257
G1 X9.876 Y36.9882
G3 X8.653 Y37.22 I-0.8835 J-1.3189
G1 X8.1708 Y37.1144
G1 X6.7876 Y37.0438
G3 X5.3072 Y35.1719 I0.081 J-1.5854
G3 X6.9094 Y27.9656 I97.255 J17.8422
G3 X9.0702 Y20.6529 I103.1266 J26.4972
G1 F300.0 X9.0663 Y20.6516
G1 Z-0.8
G3 F2000.0 X10.6715 Y16.1558 I104.7928 J34.8792
G3 X12.1622 Y15.1342 I1.4832 J0.566
G2 X16.4079 Y14.7793 I0.1154 J-24.1877
G3 X16.679 Y14.7559 I0.2711 J1.5642
G1 X26.8328
G3 X29.1186 Y15.5561 I0.8038 J1.369
G3 X31.8939 Y23.6813 I-107.3852 J41.2149
G3 X34.9675 Y36.5807 I-109.7724 J32.9722
G3 X32.4984 Y38.1622 I-1.563 J0.278
G1 X28.9419
G3 X26.8651 Y38.3858 I-6.5404 J-50.9819
G3 X25.5008 Y37.8124 I-0.1379 J-1.5815
G2 X18.978 Y31.2148 I-39.1341 J32.1672
G3 X18.9703 Y31.2082 I1.022 J-1.2148
G2 X18.5231 Y30.9765 I-0.7235 J0.8489
G2 X17.3431 Y30.9714 I-0.6027 J2.9106
G3 X17.3367 Y30.9727 I-0.3083 J-1.5573
G3 X16.2602 Y31.9772 I-110.2229 J-117.0411
G2 X12.501 Y36.4329 I26.079 J25.8158
G2 X12.4926 Y36.4456 I13.8687 J9.2053
G3 X11.7597 Y37.0425 I-1.3235 J-0.8767
G1 X10.5315 Y37.5346
G1 X9.9897 Y37.8975
G3 X8.7667 Y38.1293 I-0.8835 J-1.3189
G1 X8.4828 Y38.0672
G1 X6.6032 Y37.9712
G3 X5.122 Y36.1033 I0.081 J-1.5854
G3 X6.909 Y27.967 I109.7264 J19.8355
G3 X9.0663 Y20.6516 I106.9501 J27.5637
G1 F300.0 X9.1021 Y20.6636
G1 Z-0.9
G3 F2000.0 X10.9814 Y15.2996 I232.101 J78.3055
G3 X11.0002 Y15.2505 I1.492 J0.5422
G1 X11.074 Y15.0666
G3 X12.3518 Y14.0825 I1.4733 J0.5913
G1 X14.7554 Y13.7844
G3 X14.9508 Y13.7723 I0.1954 J1.5754
G1 X26.6626
G3 X28.7733 Y14.676 I0.6238 J1.4598
G3 X31.8856 Y23.6545 I-183.9597 J68.7952
G3 X31.8973 Y23.6928 I-1.5121 J0.4835
G3 X34.1131 Y32.2923 I-133.0688 J38.8723
G3 X34.121 Y32.3297 I-1.5492 J0.3467
G2 X34.9778 Y36.6301 I3499.335 J-695.0101
G3 X34.9889 Y36.6917 I-1.5567 J0.3112
G2 X35.1008 Y37.3748 I74.5162 J-11.8578
G3 X32.8559 Y39.0734 I-1.5654 J0.2639
G1 X28.5616
G1 X27.5892 Y39.1894
G3 X26.1651 Y38.6092 I-0.1881 J-1.5763
G2 X18.9917 Y31.2265 I-43.2881 J34.8844
G2 X17.9094 Y30.943 I-0.8723 J1.1222
G3 X17.6369 Y30.96 I-0.2346 J-1.5701
G2 X17.3307 Y30.968 I-0.0729 J3.047
G2 X11.6701 Y37.6853 I21.5132 J23.8726
G3 X10.8295 Y38.344 I-1.3424 J-0.8475
G2 X10.2901 Y38.6605 I0.4763 J1.4295
G3 X8.8804 Y39.0387 I-1.0701 J-1.1726
G1 X8.7699 Y39.0145
G2 X6.5341 Y38.9431 I-1.8485 J22.847
G3 X4.9432 Y37.0846 I-0.0268 J-1.5873
G3 X8.1061 Y23.6813 I113.1009 J19.6151
G3 X8.1159 Y23.6498 I1.5204 J0.4566
G3 X9.1021 Y20.6636 I233.0872 J75.3193
G1 F300.0 X9.1017 Y20.6635
G1 Z-1.0
G3 F2000.0 X10.9814 Y15.2992 I229.7513 J77.4951
G3 X11.0 Y15.2504 I1.4919 J0.5425
G1 X11.5799 Y13.8058
G3 X12.8577 Y12.8217 I1.4733 J0.5913
G1 X13.0272 Y12.8007
G3 X13.2226 Y12.7886 I0.1954 J1.5754
G1 X26.7663
G3 X28.4046 Y13.7664 I0.1688 J1.5785
G3 X31.625 Y22.8438 I-94.5927 J38.6689
G3 X34.1134 Y32.2932 I-122.9847 J37.4394
G3 X34.1211 Y32.3296 I-1.5494 J0.3456
G2 X34.9779 Y36.63 I3520.7444 J-699.2409
G3 X34.989 Y36.6917 I-1.5567 J0.3111
G2 X35.2269 Y38.144 I158.4358 J-25.2119
G3 X33.4769 Y39.9846 I-1.5654 J0.2639
G1 X28.1883
G3 X26.765 Y39.3786 I-0.1685 J-1.5785
G2 X18.9918 Y31.2266 I-43.6138 J33.8053
G2 X17.9094 Y30.943 I-0.8724 J1.1222
G3 X17.6505 Y30.9602 I-0.2346 J-1.5701
G2 X17.3338 Y30.9701 I-0.0522 J3.4021
G2 X10.7991 Y39.1194 I21.2006 J23.695
G3 X10.4902 Y39.5105 I-1.3848 J-0.7762
G3 X9.0659 Y39.9754 I-1.2201 J-1.3236
G1 X6.3415
G3 X4.7741 Y38.1362 I0.0 J-1.5875
G1 X5.0073 Y36.6845
G3 X5.0119 Y36.6573 I1.5674 J0.2518
G3 X8.106 Y23.6817 I114.357 J20.4125
G3 X8.1158 Y23.6501 I1.5205 J0.4563
G3 X9.1017 Y20.6635 I230.7371 J74.5085
G1 F300.0 X9.0822 Y20.6572
G1 Z-1.1
G3 F2000.0 X9.4683 Y19.4744 I653.8021 J212.7594
G3 X9.4743 Y19.4563 I1.5087 J0.494
G3 X11.867 Y13.1031 I101.202 J34.4862
G3 X13.3501 Y12.1221 I1.4671 J0.6064
G2 X25.8497 Y12.0987 I5.2703 J-522.82
G3 X25.8594 Y12.0986 I0.0219 J1.5873
G2 X26.1119 Y12.0901 I-0.0377 J-4.9049
G3 X28.0821 Y12.9744 I0.5086 J1.5038
G3 X30.2873 Y18.7723 I-76.1839 J32.2943
G3 X33.0913 Y27.9683 I-103.2487 J36.5077
G3 X33.0984 Y27.9971 I-1.5373 J0.3959
G3 X34.9438 Y36.4583 I-225.4493 J53.602
G3 X34.9509 Y36.4961 I-1.5571 J0.3092
G3 X35.3274 Y38.7728 I-143.9367 J24.9774
G3 X33.9495 Y40.5955 I-1.5682 J0.2467
G3 X32.7055 Y40.6723 I-1.2773 J-10.5814
G3 X28.5669 Y40.7032 I-3.9151 J-247.2212
G3 X27.2993 Y40.0696 I0.0014 J-1.5875
G2 X18.9917 Y31.2266 I-44.3425 J33.3337
G2 X17.9094 Y30.943 I-0.8723 J1.1222
G3 X17.664 Y30.9604 I-0.2346 J-1.5701
G2 X17.3401 Y30.972 I-0.026 J3.8087
G2 X10.7283 Y39.2403 I21.4887 J23.9614
G3 X10.6955 Y39.2963 I-1.386 J-0.774
G3 X10.4384 Y39.7144 I-194.6049 J-119.364
G3 X9.0085 Y40.467 I-1.3514 J-0.8329
G2 X6.7087 Y40.4942 I-0.9283 J18.7555
G3 X6.6433 Y40.5113 I-2.2692 J-8.5557
G3 X4.6786 Y38.7352 I-0.3952 J-1.5375
G3 X5.88 Y32.2902 I96.8813 J14.7257
G3 X8.1061 Y23.6813 I112.2397 J24.4306
G3 X8.1147 Y23.6536 I1.5204 J0.4566
G3 X9.0822 Y20.6572 I654.7696 J209.7629
G1 F300.0 X9.0689 Y20.6527
G1 Z-1.2
G3 F2000.0 X9.5395 Y19.2756 I102.1479 J34.14
G3 X9.545 Y19.2603 I1.4987 J0.5235
G3 X12.1225 Y12.4797 I201.1346 J72.5794
G3 X13.6087 Y11.4815 I1.4741 J0.5892
G2 X24.7238 Y11.4327 I3.519 J-464.9251
G3 X24.7375 Y11.4326 I0.0259 J1.5873
G2 X25.6326 Y11.392 I-0.0918 J-11.9301
G3 X27.7758 Y12.2213 I0.6762 J1.4363
G3 X30.5278 Y19.4338 I-128.2725 J53.0761
G3 X30.5405 Y19.4716 I-1.4984 J0.5245
G3 X31.885 Y23.6527 I-4158.9952 J1339.6694
G3 X31.8933 Y23.6794 I-1.5115 J0.4852
G3 X34.191 Y32.6807 I-103.1527 J31.1252
G3 X35.4242 Y39.3806 I-104.615 J22.7188
G3 X33.7727 Y41.2035 I-1.5696 J0.2375
G3 X33.4919 Y41.2537 I-0.4186 J-1.5313
G3 X28.9833 Y41.3622 I-3.1161 J-35.7536
G3 X27.7456 Y40.6882 I0.0616 J-1.5863
G2 X26.0958 Y38.5198 I-29.1308 J20.4537
G3 X26.0879 Y38.5102 I1.2256 J-1.0089
G2 X18.97 Y31.208 I-43.2658 J35.0535
G2 X18.4207 Y30.9554 I-0.7232 J0.8492
G2 X17.3451 Y30.992 I-0.3012 J6.9675
G3 X16.2508 Y32.0098 I-112.1282 J-119.4665
G2 X10.3998 Y39.7745 I25.4139 J25.2368
G3 X10.3943 Y39.7843 I-1.3858 J-0.7744
G2 X10.2374 Y40.0759 I6.2431 J3.5472
G3 X8.8442 Y40.9435 I-1.4149 J-0.7198
G1 X7.0639 Y40.9679
G3 X6.9951 Y40.9673 I-0.0217 J-1.5874
G2 X6.7051 Y41.0142 I-0.023 J0.7779
G3 X4.5921 Y39.278 I-0.5446 J-1.4912
G3 X5.0762 Y36.3339 I182.8396 J28.5554
G3 X5.0782 Y36.3225 I1.5643 J0.2702
G3 X6.9088 Y27.9678 I112.5528 J20.2832
G3 X9.0689 Y20.6527 I104.308 J26.8249
G1 F300.0 X9.0715 Y20.6536
G1 Z-1.3
G3 F2000.0 X11.589 Y13.7819 I106.6802 J35.1857
G3 X11.5896 Y13.7804 I1.472 J0.5944
G3 X12.3927 Y11.8204 I239.7297 J97.0791
G3 X13.8661 Y10.8408 I1.4665 J0.6079
G2 X23.5967 Y10.7668 I1.7688 J-407.0302
G3 X23.6155 Y10.7666 I0.0311 J1.5872
G2 X25.2039 Y10.6876 I-0.1458 J-18.9553
G3 X27.4628 Y11.4525 I0.7934 J1.375
G3 X30.5267 Y19.4306 I-141.9146 J59.0784
G3 X30.5406 Y19.4716 I-1.4972 J0.5277
G3 X31.885 Y23.6528 I-4158.9703 J1339.615
G3 X31.8933 Y23.6793 I-1.5115 J0.4852
G3 X34.2 Y32.725 I-103.0087 J31.085
G3 X35.5201 Y39.9831 I-112.1911 J24.1549
G3 X33.8643 Y41.802 I-1.5702 J0.2337
G3 X33.3302 Y41.8802 I-0.9396 J-4.5541
G3 X29.487 Y42.0197 I-3.2029 J-35.2375
G3 X28.2108 Y41.3365 I0.0287 J-1.5872
G2 X26.0895 Y38.5122 I-37.9312 J26.2802
G3 X26.0879 Y38.5102 I1.2319 J-1.0013
G2 X18.97 Y31.208 I-43.2658 J35.0535
G2 X18.4187 Y30.9551 I-0.7232 J0.8492
G2 X17.3501 Y30.9941 I-0.2993 J6.4584
G3 X16.2484 Y32.0179 I-112.6074 J-120.0701
G2 X9.9676 Y40.5782 I25.3136 J25.1572
G3 X8.584 Y41.4273 I-1.4054 J-0.7383
G1 X7.4345 Y41.443
G3 X7.3658 Y41.4425 I-0.0217 J-1.5874
G2 X6.6176 Y41.5634 I-0.0594 J2.0069
G3 X4.5037 Y39.8327 I-0.5446 J-1.4912
G3 X5.8777 Y32.3006 I130.656 J19.9421
G3 X5.8857 Y32.265 I1.5528 J0.33
G3 X8.0981 Y23.7089 I208.1262 J49.2525
G3 X8.1149 Y23.6529 I1.5284 J0.4291
G1 X8.3594 Y22.8912
G3 X9.0715 Y20.6536 I107.3924 J32.9481
G1 F300.0 X9.0716
G1 Z-1.4
G3 F2000.0 X11.5786 Y13.8076 I105.9487 J34.9154
G3 X11.5789 Y13.8068 I1.4721 J0.5943
G3 X12.6555 Y11.1791 I284.563 J115.0586
G3 X14.1218 Y10.2002 I1.4662 J0.6087
G2 X22.4679 Y10.1009 I0.0203 J-349.1354
G3 X22.4936 Y10.1005 I0.0379 J1.587
G2 X24.8181 Y9.9784 I-0.1999 J-25.9806
G3 X27.1192 Y10.6618 I0.8547 J1.3378
G1 X27.3246 Y11.1157
G3 X27.3433 Y11.1589 I-1.4464 J0.6543
G3 X30.5264 Y19.4295 I-147.1531 J61.3822
G3 X30.5406 Y19.4717 I-1.4968 J0.5288
G3 X31.885 Y23.6528 I-4158.9453 J1339.5606
G3 X31.8933 Y23.6793 I-1.5115 J0.4852
G3 X34.2089 Y32.769 I-102.8774 J31.0484
G3 X35.616 Y40.5849 I-119.9824 J25.634
G3 X33.8903 Y42.3954 I-1.5707 J0.2306
G3 X33.7592 Y42.4222 I-0.3828 J-1.5407
G3 X29.914 Y42.6635 I-3.1684 J-19.7301
G3 X28.6431 Y41.9518 I0.0538 J-1.5866
G2 X26.1002 Y38.5252 I-32.5628 J21.5081
G3 X26.0879 Y38.5102 I1.2212 J-1.0143
G2 X18.97 Y31.208 I-43.2658 J35.0535
G2 X18.4168 Y30.9548 I-0.7232 J0.8492
G2 X17.3553 Y30.996 I-0.2974 J6.0239
G3 X16.246 Y32.0261 I-113.0868 J-120.6736
G2 X10.4054 Y39.7645 I25.3229 J25.1859
G1 X9.7 Y41.0758
G3 X8.2722 Y41.9109 I-1.3981 J-0.7521
G2 X6.4157 Y42.1496 I-0.1201 J6.4068
G3 X4.4158 Y40.3845 I-0.4302 J-1.5281
G3 X5.8772 Y32.3028 I139.6051 J21.0704
G3 X5.8855 Y32.2654 I1.5533 J0.3278
G3 X8.3695 Y22.8615 I181.1282 J42.8128
G3 X8.3756 Y22.8411 I1.5237 J0.4454
G3 X9.0716 Y20.6536 I106.6447 J32.7279
G1 F300.0 X9.0691 Y20.6528
G1 Z-1.5
G3 F2000.0 X9.5652 Y19.2031 I102.001 J34.0989
G3 X9.5697 Y19.1905 I1.4983 J0.5247
G3 X12.9685 Y10.4878 I162.5473 J58.4672
G3 X14.4121 Y9.5177 I1.4626 J0.6173
G1 X21.3649 Y9.4346
G3 X21.3716 Y9.4345 I0.019 J1.5874
G2 X24.4507 Y9.2668 I-0.2539 J-33.0058
G3 X26.7869 Y9.9272 I0.8898 J1.3147
G1 X27.3246 Y11.1157
G3 X27.3433 Y11.1589 I-1.4464 J0.6543
G3 X30.5265 Y19.4295 I-147.1907 J61.3975
G3 X30.5407 Y19.4717 I-1.4968 J0.5288
G3 X31.885 Y23.6528 I-4158.9204 J1339.5062
G3 X31.8939 Y23.6814 I-1.5115 J0.4852
G3 X34.9848 Y36.6631 I-110.3253 J33.1264
G3 X34.9895 Y36.691 I-1.563 J0.2776
G1 X35.7023 Y41.1592
G3 X34.3521 Y42.9821 I-1.5676 J0.2504
G3 X33.914 Y42.9863 I-0.2342 J-1.5701
G3 X33.7242 Y43.0298 I-0.4482 J-1.5229
G3 X30.3562 Y43.282 I-3.102 J-18.8041
G3 X29.0473 Y42.5598 I0.0222 J-1.5873
G2 X26.0927 Y38.5161 I-38.4033 J24.9586
G3 X26.0879 Y38.5102 I1.2287 J-1.0052
G2 X18.97 Y31.208 I-43.2658 J35.0535
G2 X18.4149 Y30.9545 I-0.7232 J0.8492
G2 X17.3606 Y30.9979 I-0.2955 J5.6489
G3 X16.2437 Y32.0342 I-113.5663 J-121.277
G2 X10.4039 Y39.7672 I25.2777 J25.1607
G3 X10.3726 Y39.8214 I-1.3903 J-0.7663
G2 X9.4824 Y41.4876 I15.3877 J9.2918
G3 X8.0046 Y42.4012 I-1.4376 J-0.6735
G2 X6.449 Y42.6595 I-0.1058 J4.1763
G3 X4.3285 Y40.9325 I-0.5509 J-1.4888
G3 X5.1353 Y36.035 I193.8059 J29.4115
G3 X5.1362 Y36.0302 I1.563 J0.2779
G3 X6.909 Y27.9672 I108.5486 J19.6396
G3 X9.0691 Y20.6528 I104.1611 J26.7845
G1 F300.0 X9.0932 Y20.6609
G1 Z-1.6
G3 F2000.0 X10.983 Y15.2924 I186.4135 J62.6041
G3 X10.9964 Y15.2572 I1.4896 J0.5487
G3 X13.2889 Y9.7802 I139.9071 J55.3418
G3 X14.7219 Y8.8346 I1.452 J0.6417
G1 X20.2429 Y8.7686
G3 X20.2497 Y8.7685 I0.019 J1.5874
G2 X24.0861 Y8.5546 I-0.3079 J-40.0311
G3 X26.4545 Y9.1925 I0.9221 J1.2923
G1 X27.3246 Y11.1157
G3 X27.3433 Y11.1589 I-1.4464 J0.6543
G3 X30.5265 Y19.4296 I-147.2283 J61.4128
G3 X30.5408 Y19.4717 I-1.4968 J0.5288
G3 X31.885 Y23.6528 I-4158.8955 J1339.4519
G3 X31.8939 Y23.6814 I-1.5116 J0.4851
G3 X34.9849 Y36.663 I-110.3501 J33.1334
G3 X34.9896 Y36.6909 I-1.563 J0.2777
G3 X35.7741 Y41.7522 I-597.2728 J95.1764
G3 X34.3862 Y43.5658 I-1.5698 J0.2365
G3 X33.9278 Y43.5776 I-0.2696 J-1.5644
G3 X33.6883 Y43.6375 I-0.5036 J-1.5055
G3 X30.8124 Y43.8998 I-3.1563 J-18.7059
G3 X29.4531 Y43.1702 I-0.0235 J-1.5873
G2 X26.0875 Y38.5098 I-44.2455 J28.4066
G2 X18.97 Y31.208 I-43.2654 J35.054
G2 X18.4132 Y30.9542 I-0.7232 J0.8492
G2 X17.366 Y30.9996 I-0.2937 J5.3224
G3 X16.2413 Y32.0424 I-114.046 J-121.8803
G2 X10.4044 Y39.7664 I25.2319 J25.135
G3 X10.3823 Y39.8052 I-1.3907 J-0.7655
G2 X9.2475 Y41.9917 I20.2095 J11.8761
G3 X7.791 Y42.9229 I-1.4455 J-0.6562
G2 X6.4594 Y43.1954 I-0.0227 J3.2793
G3 X4.2497 Y41.5501 I-0.6336 J-1.4556
G1 X4.3067 Y41.0766
G3 X4.3127 Y41.0323 I1.5761 J0.1897
G3 X5.8766 Y32.3049 I149.4984 J22.2867
G3 X5.8854 Y32.2656 I1.5537 J0.3257
G3 X8.0983 Y23.7083 I204.6775 J48.3633
G3 X8.1137 Y23.6567 I1.5283 J0.4297
G3 X9.0932 Y20.6609 I187.3929 J59.6082
G1 F300.0 X9.0928 Y20.6607
G1 Z-1.7
G3 F2000.0 X10.9829 Y15.2921 I185.0736 J62.1412
G3 X10.9962 Y15.2573 I1.4896 J0.549
G3 X13.6032 Y9.0872 I134.2244 J53.0755
G3 X15.0318 Y8.1514 I1.4476 J0.6516
G1 X19.121 Y8.1026
G3 X19.1277 Y8.1025 I0.019 J1.5874
G2 X23.7236 Y7.842 I-0.362 J-47.0563
G3 X26.1126 Y8.4372 I0.9522 J1.2702
G3 X30.5345 Y19.4526 I-93.5765 J43.9593
G3 X30.5408 Y19.4718 I-1.5047 J0.5058
G3 X31.885 Y23.6528 I-4158.8705 J1339.3975
G3 X31.8939 Y23.6814 I-1.5116 J0.4851
G3 X34.985 Y36.6629 I-110.375 J33.1403
G3 X34.9897 Y36.6908 I-1.563 J0.2777
G3 X35.8455 Y42.3424 I-363.874 J57.9915
G3 X34.4208 Y44.1486 I-1.5714 J0.2255
G3 X33.9326 Y44.1835 I-0.3908 J-2.0376
G3 X31.1689 Y44.5021 I-2.7178 J-11.4299
G3 X29.8196 Y43.7408 I0.0062 J-1.5875
G2 X26.0987 Y38.5234 I-37.9548 J23.1326
G3 X26.0879 Y38.5102 I1.2227 J-1.0125
G2 X18.97 Y31.208 I-43.2658 J35.0535
G2 X18.4114 Y30.954 I-0.7232 J0.8492
G2 X17.3715 Y31.0013 I-0.292 J5.0357
G3 X16.239 Y32.0505 I-114.5257 J-122.4834
G2 X10.4047 Y39.7657 I25.1861 J25.1092
G3 X10.3884 Y39.7947 I-1.3911 J-0.7648
G2 X9.0097 Y42.5019 I25.035 J14.4546
G3 X7.5944 Y43.4439 I-1.4505 J-0.6451
G2 X6.4811 Y43.7258 I0.0569 J2.5641
G3 X4.1807 Y42.1234 I-0.7243 J-1.4126
G1 X4.3067 Y41.0767
G3 X4.3126 Y41.0325 I1.5761 J0.1897
G3 X5.8766 Y32.3048 I148.8768 J22.1742
G3 X5.8853 Y32.2658 I1.5537 J0.3259
G3 X8.0983 Y23.7081 I203.5291 J48.0671
G3 X8.1136 Y23.657 I1.5282 J0.4298
