( Made using CamBam - http://www.cambam.co.uk )
( electric_turtle_7251306 7/13/2012 11:15:02 PM )
( T0 : 0.0 )
G21 G90 G64 G40
( T0 : 0.0 )
T0 M6
( electric_turtle_7251306.nc )
( Made using CamBam - http://www.cambam.co.uk )
( electric_turtle_7251306 7/10/2012 9:07:25 PM )
( T0 : 0.0 )
G21 G90 G64 G40
G0 Z3.0
( T0 : 0.0 )
T0 M6
( electric_turtle_7251306.nc )
( Made using CamBam - http://www.cambam.co.uk )
( electric_turtle_7251306 7/10/2012 8:42:27 PM )
( T0 : 0.0 )
G21 G90 G64 G40
G0 Z3.0
( T0 : 0.0 )
T0 M6
( electric_turtle_7251306.nc )
( Made using CamBam - http://www.cambam.co.uk )
( electric_turtle_7251306 7/6/2012 2:59:12 PM )
( T0 : 3.175 )
G21 G90 G64 G40
( T0 : 3.175 )
T0 M6
( electric_turtle_7251306.nc )
( Made using CamBam - http://www.cambam.co.uk )
( electric_turtle_7251306 7/6/2012 2:46:46 PM )
( T0 : 3.175 )
G21 G90 G64 G40
G0 Z3.0
( T0 : 3.175 )
T0 M6
( electric_turtle_7251306.nc )
( Made using CamBam - http://www.cambam.co.uk )
( electric_turtle_7251306 7/6/2012 2:38:27 PM )
( T0 : 0.0 )
G21 G90 G64 G40
G0 Z3.0
( T0 : 0.0 )
T0 M6
( electric_turtle_7251306.nc )
( Made using CamBam - http://www.cambam.co.uk )
( electric_turtle_7251306 7/6/2012 2:34:35 PM )
( T0 : 0.0 )
G20 G90 G64 G40
G0 Z0.125
( T0 : 0.0 )
T0 M6
( electric_turtle_7251306.nc )
( Made using CamBam - http://www.cambam.co.uk )
( electric_turtle_7251306 7/6/2012 12:22:04 AM )
( T0 : 3.175 )
G21 G90 G64 G40
G0 Z3.0
( T0 : 3.175 )
T0 M6
( TireGuardBottom )
G17
M3 S1000
G0 X32.8174 Y20.996
G1 F300.0 Z-0.2
G1 F800.0 X43.2289
G2 X43.6126 Y20.7468 I-0.0484 J-0.4945
G3 X43.6475 Y20.6884 I1.3805 J0.7838
G2 X43.946 Y19.6183 I-1.662 J-1.0403
G3 X43.9458 Y19.5941 I1.5873 J-0.0241
G1 Y-18.4957
G3 Y-18.5057 I1.5875 J0.0
G2 X43.64 Y-19.602 I-2.0716 J-0.013
G3 X43.6151 Y-19.6441 I1.3531 J-0.8302
G2 X43.2258 Y-19.8976 I-0.4417 J0.2526
G1 X32.8143
G2 X32.4306 Y-19.6484 I0.0484 J0.4945
G3 X32.3957 Y-19.59 I-1.3805 J-0.7838
G2 X32.0972 Y-18.5199 I1.662 J1.0403
G3 X32.0974 Y-18.4957 I-1.5873 J0.0241
G1 Y-9.4664
G3 X30.5099 Y-7.8789 I-1.5875 J0.0
G1 X30.2946
G1 Y-2.4555
G1 Y3.5539
G1 Y8.9773
G1 X30.5099
G3 X32.0974 Y10.5648 I0.0 J1.5875
G1 Y19.5941
G3 Y19.6041 I-1.5875 J0.0
G2 X32.4032 Y20.7004 I2.0716 J0.013
G3 X32.4281 Y20.7425 I-1.3531 J0.8302
G2 X32.8174 Y20.996 I0.4417 J-0.2526
G1 F300.0 Z-0.4
G1 F800.0 X43.2289
G2 X43.6126 Y20.7468 I-0.0484 J-0.4945
G3 X43.6475 Y20.6884 I1.3805 J0.7838
G2 X43.946 Y19.6183 I-1.662 J-1.0403
G3 X43.9458 Y19.5941 I1.5873 J-0.0241
G1 Y-18.4957
G3 Y-18.5057 I1.5875 J0.0
G2 X43.64 Y-19.602 I-2.0716 J-0.013
G3 X43.6151 Y-19.6441 I1.3531 J-0.8302
G2 X43.2258 Y-19.8976 I-0.4417 J0.2526
G1 X32.8143
G2 X32.4306 Y-19.6484 I0.0484 J0.4945
G3 X32.3957 Y-19.59 I-1.3805 J-0.7838
G2 X32.0972 Y-18.5199 I1.662 J1.0403
G3 X32.0974 Y-18.4957 I-1.5873 J0.0241
G1 Y-9.4664
G3 X30.5099 Y-7.8789 I-1.5875 J0.0
G1 X30.2946
G1 Y-2.4555
G1 Y3.5539
G1 Y8.9773
G1 X30.5099
G3 X32.0974 Y10.5648 I0.0 J1.5875
G1 Y19.5941
G3 Y19.6041 I-1.5875 J0.0
G2 X32.4032 Y20.7004 I2.0716 J0.013
G3 X32.4281 Y20.7425 I-1.3531 J0.8302
G2 X32.8174 Y20.996 I0.4417 J-0.2526
G1 F300.0 Z-0.6
G1 F800.0 X43.2289
G2 X43.6126 Y20.7468 I-0.0484 J-0.4945
G3 X43.6475 Y20.6884 I1.3805 J0.7838
G2 X43.946 Y19.6183 I-1.662 J-1.0403
G3 X43.9458 Y19.5941 I1.5873 J-0.0241
G1 Y-18.4957
G3 Y-18.5057 I1.5875 J0.0
G2 X43.64 Y-19.602 I-2.0716 J-0.013
G3 X43.6151 Y-19.6441 I1.3531 J-0.8302
G2 X43.2258 Y-19.8976 I-0.4417 J0.2526
G1 X32.8143
G2 X32.4306 Y-19.6484 I0.0484 J0.4945
G3 X32.3957 Y-19.59 I-1.3805 J-0.7838
G2 X32.0972 Y-18.5199 I1.662 J1.0403
G3 X32.0974 Y-18.4957 I-1.5873 J0.0241
G1 Y-9.4664
G3 X30.5099 Y-7.8789 I-1.5875 J0.0
G1 X30.2946
G1 Y-2.4555
G1 Y3.5539
G1 Y8.9773
G1 X30.5099
G3 X32.0974 Y10.5648 I0.0 J1.5875
G1 Y19.5941
G3 Y19.6041 I-1.5875 J0.0
G2 X32.4032 Y20.7004 I2.0716 J0.013
G3 X32.4281 Y20.7425 I-1.3531 J0.8302
G2 X32.8174 Y20.996 I0.4417 J-0.2526
G1 F300.0 Z-0.8
G1 F800.0 X43.2289
G2 X43.6126 Y20.7468 I-0.0484 J-0.4945
G3 X43.6475 Y20.6884 I1.3805 J0.7838
G2 X43.946 Y19.6183 I-1.662 J-1.0403
G3 X43.9458 Y19.5941 I1.5873 J-0.0241
G1 Y-18.4957
G3 Y-18.5057 I1.5875 J0.0
G2 X43.64 Y-19.602 I-2.0716 J-0.013
G3 X43.6151 Y-19.6441 I1.3531 J-0.8302
G2 X43.2258 Y-19.8976 I-0.4417 J0.2526
G1 X32.8143
G2 X32.4306 Y-19.6484 I0.0484 J0.4945
G3 X32.3957 Y-19.59 I-1.3805 J-0.7838
G2 X32.0972 Y-18.5199 I1.662 J1.0403
G3 X32.0974 Y-18.4957 I-1.5873 J0.0241
G1 Y-9.4664
G3 X30.5099 Y-7.8789 I-1.5875 J0.0
G1 X30.2946
G1 Y-2.4555
G1 Y3.5539
G1 Y8.9773
G1 X30.5099
G3 X32.0974 Y10.5648 I0.0 J1.5875
G1 Y19.5941
G3 Y19.6041 I-1.5875 J0.0
G2 X32.4032 Y20.7004 I2.0716 J0.013
G3 X32.4281 Y20.7425 I-1.3531 J0.8302
G2 X32.8174 Y20.996 I0.4417 J-0.2526
G1 F300.0 Z-1.0
G1 F800.0 X43.2289
G2 X43.6126 Y20.7468 I-0.0484 J-0.4945
G3 X43.6475 Y20.6884 I1.3805 J0.7838
G2 X43.946 Y19.6183 I-1.662 J-1.0403
G3 X43.9458 Y19.5941 I1.5873 J-0.0241
G1 Y-18.4957
G3 Y-18.5057 I1.5875 J0.0
G2 X43.64 Y-19.602 I-2.0716 J-0.013
G3 X43.6151 Y-19.6441 I1.3531 J-0.8302
G2 X43.2258 Y-19.8976 I-0.4417 J0.2526
G1 X32.8143
G2 X32.4306 Y-19.6484 I0.0484 J0.4945
G3 X32.3957 Y-19.59 I-1.3805 J-0.7838
G2 X32.0972 Y-18.5199 I1.662 J1.0403
G3 X32.0974 Y-18.4957 I-1.5873 J0.0241
G1 Y-9.4664
G3 X30.5099 Y-7.8789 I-1.5875 J0.0
G1 X30.2946
G1 Y-2.4555
G1 Y3.5539
G1 Y8.9773
G1 X30.5099
G3 X32.0974 Y10.5648 I0.0 J1.5875
G1 Y19.5941
G3 Y19.6041 I-1.5875 J0.0
G2 X32.4032 Y20.7004 I2.0716 J0.013
G3 X32.4281 Y20.7425 I-1.3531 J0.8302
G2 X32.8174 Y20.996 I0.4417 J-0.2526
G1 F300.0 Z-1.2
G1 F800.0 X43.2289
G2 X43.6126 Y20.7468 I-0.0484 J-0.4945
G3 X43.6475 Y20.6884 I1.3805 J0.7838
G2 X43.946 Y19.6183 I-1.662 J-1.0403
G3 X43.9458 Y19.5941 I1.5873 J-0.0241
G1 Y-18.4957
G3 Y-18.5057 I1.5875 J0.0
G2 X43.64 Y-19.602 I-2.0716 J-0.013
G3 X43.6151 Y-19.6441 I1.3531 J-0.8302
G2 X43.2258 Y-19.8976 I-0.4417 J0.2526
G1 X32.8143
G2 X32.4306 Y-19.6484 I0.0484 J0.4945
G3 X32.3957 Y-19.59 I-1.3805 J-0.7838
G2 X32.0972 Y-18.5199 I1.662 J1.0403
G3 X32.0974 Y-18.4957 I-1.5873 J0.0241
G1 Y-9.4664
G3 X30.5099 Y-7.8789 I-1.5875 J0.0
G1 X30.2946
G1 Y-2.4555
G1 Y3.5539
G1 Y8.9773
G1 X30.5099
G3 X32.0974 Y10.5648 I0.0 J1.5875
G1 Y19.5941
G3 Y19.6041 I-1.5875 J0.0
G2 X32.4032 Y20.7004 I2.0716 J0.013
G3 X32.4281 Y20.7425 I-1.3531 J0.8302
G2 X32.8174 Y20.996 I0.4417 J-0.2526
G1 F300.0 Z-1.4
G1 F800.0 X43.2289
G2 X43.6126 Y20.7468 I-0.0484 J-0.4945
G3 X43.6475 Y20.6884 I1.3805 J0.7838
G2 X43.946 Y19.6183 I-1.662 J-1.0403
G3 X43.9458 Y19.5941 I1.5873 J-0.0241
G1 Y-18.4957
G3 Y-18.5057 I1.5875 J0.0
G2 X43.64 Y-19.602 I-2.0716 J-0.013
G3 X43.6151 Y-19.6441 I1.3531 J-0.8302
G2 X43.2258 Y-19.8976 I-0.4417 J0.2526
G1 X32.8143
G2 X32.4306 Y-19.6484 I0.0484 J0.4945
G3 X32.3957 Y-19.59 I-1.3805 J-0.7838
G2 X32.0972 Y-18.5199 I1.662 J1.0403
G3 X32.0974 Y-18.4957 I-1.5873 J0.0241
G1 Y-9.4664
G3 X30.5099 Y-7.8789 I-1.5875 J0.0
G1 X30.2946
G1 Y-2.4555
G1 Y3.5539
G1 Y8.9773
G1 X30.5099
G3 X32.0974 Y10.5648 I0.0 J1.5875
G1 Y19.5941
G3 Y19.6041 I-1.5875 J0.0
G2 X32.4032 Y20.7004 I2.0716 J0.013
G3 X32.4281 Y20.7425 I-1.3531 J0.8302
G2 X32.8174 Y20.996 I0.4417 J-0.2526
G1 F300.0 Z-1.6
G1 F800.0 X43.2289
G2 X43.6126 Y20.7468 I-0.0484 J-0.4945
G3 X43.6475 Y20.6884 I1.3805 J0.7838
G2 X43.946 Y19.6183 I-1.662 J-1.0403
G3 X43.9458 Y19.5941 I1.5873 J-0.0241
G1 Y-18.4957
G3 Y-18.5057 I1.5875 J0.0
G2 X43.64 Y-19.602 I-2.0716 J-0.013
G3 X43.6151 Y-19.6441 I1.3531 J-0.8302
G2 X43.2258 Y-19.8976 I-0.4417 J0.2526
G1 X32.8143
G2 X32.4306 Y-19.6484 I0.0484 J0.4945
G3 X32.3957 Y-19.59 I-1.3805 J-0.7838
G2 X32.0972 Y-18.5199 I1.662 J1.0403
G3 X32.0974 Y-18.4957 I-1.5873 J0.0241
G1 Y-9.4664
G3 X30.5099 Y-7.8789 I-1.5875 J0.0
G1 X30.2946
G1 Y-2.4555
G1 Y3.5539
G1 Y8.9773
G1 X30.5099
G3 X32.0974 Y10.5648 I0.0 J1.5875
G1 Y19.5941
G3 Y19.6041 I-1.5875 J0.0
G2 X32.4032 Y20.7004 I2.0716 J0.013
G3 X32.4281 Y20.7425 I-1.3531 J0.8302
G2 X32.8174 Y20.996 I0.4417 J-0.2526
G1 F300.0 Z-1.8
G1 F800.0 X43.2289
G2 X43.6126 Y20.7468 I-0.0484 J-0.4945
G3 X43.6475 Y20.6884 I1.3805 J0.7838
G2 X43.946 Y19.6183 I-1.662 J-1.0403
G3 X43.9458 Y19.5941 I1.5873 J-0.0241
G1 Y-18.4957
G3 Y-18.5057 I1.5875 J0.0
G2 X43.64 Y-19.602 I-2.0716 J-0.013
G3 X43.6151 Y-19.6441 I1.3531 J-0.8302
G2 X43.2258 Y-19.8976 I-0.4417 J0.2526
G1 X32.8143
G2 X32.4306 Y-19.6484 I0.0484 J0.4945
G3 X32.3957 Y-19.59 I-1.3805 J-0.7838
G2 X32.0972 Y-18.5199 I1.662 J1.0403
G3 X32.0974 Y-18.4957 I-1.5873 J0.0241
G1 Y-9.4664
G3 X30.5099 Y-7.8789 I-1.5875 J0.0
G1 X30.2946
G1 Y-2.4555
G1 Y3.5539
G1 Y8.9773
G1 X30.5099
G3 X32.0974 Y10.5648 I0.0 J1.5875
G1 Y19.5941
G3 Y19.6041 I-1.5875 J0.0
G2 X32.4032 Y20.7004 I2.0716 J0.013
G3 X32.4281 Y20.7425 I-1.3531 J0.8302
G2 X32.8174 Y20.996 I0.4417 J-0.2526
G1 F300.0 Z-2.0
G1 F800.0 X43.2289
G2 X43.6126 Y20.7468 I-0.0484 J-0.4945
G3 X43.6475 Y20.6884 I1.3805 J0.7838
G2 X43.946 Y19.6183 I-1.662 J-1.0403
G3 X43.9458 Y19.5941 I1.5873 J-0.0241
G1 Y-18.4957
G3 Y-18.5057 I1.5875 J0.0
G2 X43.64 Y-19.602 I-2.0716 J-0.013
G3 X43.6151 Y-19.6441 I1.3531 J-0.8302
G2 X43.2258 Y-19.8976 I-0.4417 J0.2526
G1 X32.8143
G2 X32.4306 Y-19.6484 I0.0484 J0.4945
G3 X32.3957 Y-19.59 I-1.3805 J-0.7838
G2 X32.0972 Y-18.5199 I1.662 J1.0403
G3 X32.0974 Y-18.4957 I-1.5873 J0.0241
G1 Y-9.4664
G3 X30.5099 Y-7.8789 I-1.5875 J0.0
G1 X30.2946
G1 Y-2.4555
G1 Y3.5539
G1 Y8.9773
G1 X30.5099
G3 X32.0974 Y10.5648 I0.0 J1.5875
G1 Y19.5941
G3 Y19.6041 I-1.5875 J0.0
G2 X32.4032 Y20.7004 I2.0716 J0.013
G3 X32.4281 Y20.7425 I-1.3531 J0.8302
G2 X32.8174 Y20.996 I0.4417 J-0.2526
G1 F300.0 Z-2.2
G1 F800.0 X43.2289
G2 X43.6126 Y20.7468 I-0.0484 J-0.4945
G3 X43.6475 Y20.6884 I1.3805 J0.7838
G2 X43.946 Y19.6183 I-1.662 J-1.0403
G3 X43.9458 Y19.5941 I1.5873 J-0.0241
G1 Y-18.4957
G3 Y-18.5057 I1.5875 J0.0
G2 X43.64 Y-19.602 I-2.0716 J-0.013
G3 X43.6151 Y-19.6441 I1.3531 J-0.8302
G2 X43.2258 Y-19.8976 I-0.4417 J0.2526
G1 X32.8143
G2 X32.4306 Y-19.6484 I0.0484 J0.4945
G3 X32.3957 Y-19.59 I-1.3805 J-0.7838
G2 X32.0972 Y-18.5199 I1.662 J1.0403
G3 X32.0974 Y-18.4957 I-1.5873 J0.0241
G1 Y-9.4664
G3 X30.5099 Y-7.8789 I-1.5875 J0.0
G1 X30.2946
G1 Y-2.4555
G1 Y3.5539
G1 Y8.9773
G1 X30.5099
G3 X32.0974 Y10.5648 I0.0 J1.5875
G1 Y19.5941
G3 Y19.6041 I-1.5875 J0.0
G2 X32.4032 Y20.7004 I2.0716 J0.013
G3 X32.4281 Y20.7425 I-1.3531 J0.8302
G2 X32.8174 Y20.996 I0.4417 J-0.2526
G1 F300.0 Z-2.4
G1 F800.0 X43.2289
G2 X43.6126 Y20.7468 I-0.0484 J-0.4945
G3 X43.6475 Y20.6884 I1.3805 J0.7838
G2 X43.946 Y19.6183 I-1.662 J-1.0403
G3 X43.9458 Y19.5941 I1.5873 J-0.0241
G1 Y-18.4957
G3 Y-18.5057 I1.5875 J0.0
G2 X43.64 Y-19.602 I-2.0716 J-0.013
G3 X43.6151 Y-19.6441 I1.3531 J-0.8302
G2 X43.2258 Y-19.8976 I-0.4417 J0.2526
G1 X32.8143
G2 X32.4306 Y-19.6484 I0.0484 J0.4945
G3 X32.3957 Y-19.59 I-1.3805 J-0.7838
G2 X32.0972 Y-18.5199 I1.662 J1.0403
G3 X32.0974 Y-18.4957 I-1.5873 J0.0241
G1 Y-9.4664
G3 X30.5099 Y-7.8789 I-1.5875 J0.0
G1 X30.2946
G1 Y-2.4555
G1 Y3.5539
G1 Y8.9773
G1 X30.5099
G3 X32.0974 Y10.5648 I0.0 J1.5875
G1 Y19.5941
G3 Y19.6041 I-1.5875 J0.0
G2 X32.4032 Y20.7004 I2.0716 J0.013
G3 X32.4281 Y20.7425 I-1.3531 J0.8302
G2 X32.8174 Y20.996 I0.4417 J-0.2526
G1 F300.0 Z-2.6
G1 F800.0 X43.2289
G2 X43.6126 Y20.7468 I-0.0484 J-0.4945
G3 X43.6475 Y20.6884 I1.3805 J0.7838
G2 X43.946 Y19.6183 I-1.662 J-1.0403
G3 X43.9458 Y19.5941 I1.5873 J-0.0241
G1 Y-18.4957
G3 Y-18.5057 I1.5875 J0.0
G2 X43.64 Y-19.602 I-2.0716 J-0.013
G3 X43.6151 Y-19.6441 I1.3531 J-0.8302
G2 X43.2258 Y-19.8976 I-0.4417 J0.2526
G1 X32.8143
G2 X32.4306 Y-19.6484 I0.0484 J0.4945
G3 X32.3957 Y-19.59 I-1.3805 J-0.7838
G2 X32.0972 Y-18.5199 I1.662 J1.0403
G3 X32.0974 Y-18.4957 I-1.5873 J0.0241
G1 Y-9.4664
G3 X30.5099 Y-7.8789 I-1.5875 J0.0
G1 X30.2946
G1 Y-2.4555
G1 Y3.5539
G1 Y8.9773
G1 X30.5099
G3 X32.0974 Y10.5648 I0.0 J1.5875
G1 Y19.5941
G3 Y19.6041 I-1.5875 J0.0
G2 X32.4032 Y20.7004 I2.0716 J0.013
G3 X32.4281 Y20.7425 I-1.3531 J0.8302
G2 X32.8174 Y20.996 I0.4417 J-0.2526
G1 F300.0 Z-2.8
G1 F800.0 X43.2289
G2 X43.6126 Y20.7468 I-0.0484 J-0.4945
G3 X43.6475 Y20.6884 I1.3805 J0.7838
G2 X43.946 Y19.6183 I-1.662 J-1.0403
G3 X43.9458 Y19.5941 I1.5873 J-0.0241
G1 Y-18.4957
G3 Y-18.5057 I1.5875 J0.0
G2 X43.64 Y-19.602 I-2.0716 J-0.013
G3 X43.6151 Y-19.6441 I1.3531 J-0.8302
G2 X43.2258 Y-19.8976 I-0.4417 J0.2526
G1 X32.8143
G2 X32.4306 Y-19.6484 I0.0484 J0.4945
G3 X32.3957 Y-19.59 I-1.3805 J-0.7838
G2 X32.0972 Y-18.5199 I1.662 J1.0403
G3 X32.0974 Y-18.4957 I-1.5873 J0.0241
G1 Y-9.4664
G3 X30.5099 Y-7.8789 I-1.5875 J0.0
G1 X30.2946
G1 Y-2.4555
G1 Y3.5539
G1 Y8.9773
G1 X30.5099
G3 X32.0974 Y10.5648 I0.0 J1.5875
G1 Y19.5941
G3 Y19.6041 I-1.5875 J0.0
G2 X32.4032 Y20.7004 I2.0716 J0.013
G3 X32.4281 Y20.7425 I-1.3531 J0.8302
G2 X32.8174 Y20.996 I0.4417 J-0.2526
G1 F300.0 Z-3.0
G1 F800.0 X43.2289
G2 X43.6126 Y20.7468 I-0.0484 J-0.4945
G3 X43.6475 Y20.6884 I1.3805 J0.7838
G2 X43.946 Y19.6183 I-1.662 J-1.0403
G3 X43.9458 Y19.5941 I1.5873 J-0.0241
G1 Y-18.4957
G3 Y-18.5057 I1.5875 J0.0
G2 X43.64 Y-19.602 I-2.0716 J-0.013
G3 X43.6151 Y-19.6441 I1.3531 J-0.8302
G2 X43.2258 Y-19.8976 I-0.4417 J0.2526
G1 X32.8143
G2 X32.4306 Y-19.6484 I0.0484 J0.4945
G3 X32.3957 Y-19.59 I-1.3805 J-0.7838
G2 X32.0972 Y-18.5199 I1.662 J1.0403
G3 X32.0974 Y-18.4957 I-1.5873 J0.0241
G1 Y-9.4664
G3 X30.5099 Y-7.8789 I-1.5875 J0.0
G1 X30.2946
G1 Y-2.4555
G1 Y3.5539
G1 Y8.9773
G1 X30.5099
G3 X32.0974 Y10.5648 I0.0 J1.5875
G1 Y19.5941
G3 Y19.6041 I-1.5875 J0.0
G2 X32.4032 Y20.7004 I2.0716 J0.013
G3 X32.4281 Y20.7425 I-1.3531 J0.8302
G2 X32.8174 Y20.996 I0.4417 J-0.2526
G1 F300.0 Z-3.2
G1 F800.0 X43.2289
G2 X43.6126 Y20.7468 I-0.0484 J-0.4945
G3 X43.6475 Y20.6884 I1.3805 J0.7838
G2 X43.946 Y19.6183 I-1.662 J-1.0403
G3 X43.9458 Y19.5941 I1.5873 J-0.0241
G1 Y-18.4957
G3 Y-18.5057 I1.5875 J0.0
G2 X43.64 Y-19.602 I-2.0716 J-0.013
G3 X43.6151 Y-19.6441 I1.3531 J-0.8302
G2 X43.2258 Y-19.8976 I-0.4417 J0.2526
G1 X32.8143
G2 X32.4306 Y-19.6484 I0.0484 J0.4945
G3 X32.3957 Y-19.59 I-1.3805 J-0.7838
G2 X32.0972 Y-18.5199 I1.662 J1.0403
G3 X32.0974 Y-18.4957 I-1.5873 J0.0241
G1 Y-9.4664
G3 X30.5099 Y-7.8789 I-1.5875 J0.0
G1 X30.2946
G1 Y-2.4555
G1 Y3.5539
G1 Y8.9773
G1 X30.5099
G3 X32.0974 Y10.5648 I0.0 J1.5875
G1 Y19.5941
G3 Y19.6041 I-1.5875 J0.0
G2 X32.4032 Y20.7004 I2.0716 J0.013
G3 X32.4281 Y20.7425 I-1.3531 J0.8302
G2 X32.8174 Y20.996 I0.4417 J-0.2526
G1 F300.0 Z-3.3
G1 F800.0 X43.2289
G2 X43.6126 Y20.7468 I-0.0484 J-0.4945
G3 X43.6475 Y20.6884 I1.3805 J0.7838
G2 X43.946 Y19.6183 I-1.662 J-1.0403
G3 X43.9458 Y19.5941 I1.5873 J-0.0241
G1 Y-18.4957
G3 Y-18.5057 I1.5875 J0.0
G2 X43.64 Y-19.602 I-2.0716 J-0.013
G3 X43.6151 Y-19.6441 I1.3531 J-0.8302
G2 X43.2258 Y-19.8976 I-0.4417 J0.2526
G1 X32.8143
G2 X32.4306 Y-19.6484 I0.0484 J0.4945
G3 X32.3957 Y-19.59 I-1.3805 J-0.7838
G2 X32.0972 Y-18.5199 I1.662 J1.0403
G3 X32.0974 Y-18.4957 I-1.5873 J0.0241
G1 Y-9.4664
G3 X30.5099 Y-7.8789 I-1.5875 J0.0
G1 X30.2946
G1 Y-2.4555
G1 Y3.5539
G1 Y8.9773
G1 X30.5099
G3 X32.0974 Y10.5648 I0.0 J1.5875
G1 Y19.5941
G3 Y19.6041 I-1.5875 J0.0
G2 X32.4032 Y20.7004 I2.0716 J0.013
G3 X32.4281 Y20.7425 I-1.3531 J0.8302
G2 X32.8174 Y20.996 I0.4417 J-0.2526
G0 Z3.0
G0 X-31.3725 Y8.9773
G1 F300.0 Z-0.2
G1 F800.0 Y3.5539
G1 Y-2.4555
G1 Y-7.8789
G1 X-31.5878
G3 X-33.1753 Y-9.4664 I0.0 J-1.5875
G1 Y-18.4957
G3 Y-18.5057 I1.5875 J0.0
G2 X-33.4811 Y-19.602 I-2.0716 J-0.013
G3 X-33.506 Y-19.6441 I1.3531 J-0.8302
G2 X-33.8953 Y-19.8976 I-0.4417 J0.2526
G1 X-44.3068
G2 X-44.6905 Y-19.6484 I0.0484 J0.4945
G3 X-44.7254 Y-19.59 I-1.3805 J-0.7838
G2 X-45.0239 Y-18.5199 I1.662 J1.0403
G3 X-45.0237 Y-18.4957 I-1.5873 J0.0241
G1 Y19.5941
G3 Y19.6041 I-1.5875 J0.0
G2 X-44.7179 Y20.7004 I2.0716 J0.013
G3 X-44.693 Y20.7425 I-1.3531 J0.8302
G2 X-44.3037 Y20.996 I0.4417 J-0.2526
G1 X-33.8922
G2 X-33.5085 Y20.7468 I-0.0484 J-0.4945
G3 X-33.4736 Y20.6884 I1.3805 J0.7838
G2 X-33.1751 Y19.6183 I-1.662 J-1.0403
G3 X-33.1753 Y19.5941 I1.5873 J-0.0241
G1 Y10.5648
G3 X-31.5878 Y8.9773 I1.5875 J0.0
G1 X-31.3725
G1 F300.0 Z-0.4
G1 F800.0 Y3.5539
G1 Y-2.4555
G1 Y-7.8789
G1 X-31.5878
G3 X-33.1753 Y-9.4664 I0.0 J-1.5875
G1 Y-18.4957
G3 Y-18.5057 I1.5875 J0.0
G2 X-33.4811 Y-19.602 I-2.0716 J-0.013
G3 X-33.506 Y-19.6441 I1.3531 J-0.8302
G2 X-33.8953 Y-19.8976 I-0.4417 J0.2526
G1 X-44.3068
G2 X-44.6905 Y-19.6484 I0.0484 J0.4945
G3 X-44.7254 Y-19.59 I-1.3805 J-0.7838
G2 X-45.0239 Y-18.5199 I1.662 J1.0403
G3 X-45.0237 Y-18.4957 I-1.5873 J0.0241
G1 Y19.5941
G3 Y19.6041 I-1.5875 J0.0
G2 X-44.7179 Y20.7004 I2.0716 J0.013
G3 X-44.693 Y20.7425 I-1.3531 J0.8302
G2 X-44.3037 Y20.996 I0.4417 J-0.2526
G1 X-33.8922
G2 X-33.5085 Y20.7468 I-0.0484 J-0.4945
G3 X-33.4736 Y20.6884 I1.3805 J0.7838
G2 X-33.1751 Y19.6183 I-1.662 J-1.0403
G3 X-33.1753 Y19.5941 I1.5873 J-0.0241
G1 Y10.5648
G3 X-31.5878 Y8.9773 I1.5875 J0.0
G1 X-31.3725
G1 F300.0 Z-0.6
G1 F800.0 Y3.5539
G1 Y-2.4555
G1 Y-7.8789
G1 X-31.5878
G3 X-33.1753 Y-9.4664 I0.0 J-1.5875
G1 Y-18.4957
G3 Y-18.5057 I1.5875 J0.0
G2 X-33.4811 Y-19.602 I-2.0716 J-0.013
G3 X-33.506 Y-19.6441 I1.3531 J-0.8302
G2 X-33.8953 Y-19.8976 I-0.4417 J0.2526
G1 X-44.3068
G2 X-44.6905 Y-19.6484 I0.0484 J0.4945
G3 X-44.7254 Y-19.59 I-1.3805 J-0.7838
G2 X-45.0239 Y-18.5199 I1.662 J1.0403
G3 X-45.0237 Y-18.4957 I-1.5873 J0.0241
G1 Y19.5941
G3 Y19.6041 I-1.5875 J0.0
G2 X-44.7179 Y20.7004 I2.0716 J0.013
G3 X-44.693 Y20.7425 I-1.3531 J0.8302
G2 X-44.3037 Y20.996 I0.4417 J-0.2526
G1 X-33.8922
G2 X-33.5085 Y20.7468 I-0.0484 J-0.4945
G3 X-33.4736 Y20.6884 I1.3805 J0.7838
G2 X-33.1751 Y19.6183 I-1.662 J-1.0403
G3 X-33.1753 Y19.5941 I1.5873 J-0.0241
G1 Y10.5648
G3 X-31.5878 Y8.9773 I1.5875 J0.0
G1 X-31.3725
G1 F300.0 Z-0.8
G1 F800.0 Y3.5539
G1 Y-2.4555
G1 Y-7.8789
G1 X-31.5878
G3 X-33.1753 Y-9.4664 I0.0 J-1.5875
G1 Y-18.4957
G3 Y-18.5057 I1.5875 J0.0
G2 X-33.4811 Y-19.602 I-2.0716 J-0.013
G3 X-33.506 Y-19.6441 I1.3531 J-0.8302
G2 X-33.8953 Y-19.8976 I-0.4417 J0.2526
G1 X-44.3068
G2 X-44.6905 Y-19.6484 I0.0484 J0.4945
G3 X-44.7254 Y-19.59 I-1.3805 J-0.7838
G2 X-45.0239 Y-18.5199 I1.662 J1.0403
G3 X-45.0237 Y-18.4957 I-1.5873 J0.0241
G1 Y19.5941
G3 Y19.6041 I-1.5875 J0.0
G2 X-44.7179 Y20.7004 I2.0716 J0.013
G3 X-44.693 Y20.7425 I-1.3531 J0.8302
G2 X-44.3037 Y20.996 I0.4417 J-0.2526
G1 X-33.8922
G2 X-33.5085 Y20.7468 I-0.0484 J-0.4945
G3 X-33.4736 Y20.6884 I1.3805 J0.7838
G2 X-33.1751 Y19.6183 I-1.662 J-1.0403
G3 X-33.1753 Y19.5941 I1.5873 J-0.0241
G1 Y10.5648
G3 X-31.5878 Y8.9773 I1.5875 J0.0
G1 X-31.3725
G1 F300.0 Z-1.0
G1 F800.0 Y3.5539
G1 Y-2.4555
G1 Y-7.8789
G1 X-31.5878
G3 X-33.1753 Y-9.4664 I0.0 J-1.5875
G1 Y-18.4957
G3 Y-18.5057 I1.5875 J0.0
G2 X-33.4811 Y-19.602 I-2.0716 J-0.013
G3 X-33.506 Y-19.6441 I1.3531 J-0.8302
G2 X-33.8953 Y-19.8976 I-0.4417 J0.2526
G1 X-44.3068
G2 X-44.6905 Y-19.6484 I0.0484 J0.4945
G3 X-44.7254 Y-19.59 I-1.3805 J-0.7838
G2 X-45.0239 Y-18.5199 I1.662 J1.0403
G3 X-45.0237 Y-18.4957 I-1.5873 J0.0241
G1 Y19.5941
G3 Y19.6041 I-1.5875 J0.0
G2 X-44.7179 Y20.7004 I2.0716 J0.013
G3 X-44.693 Y20.7425 I-1.3531 J0.8302
G2 X-44.3037 Y20.996 I0.4417 J-0.2526
G1 X-33.8922
G2 X-33.5085 Y20.7468 I-0.0484 J-0.4945
G3 X-33.4736 Y20.6884 I1.3805 J0.7838
G2 X-33.1751 Y19.6183 I-1.662 J-1.0403
G3 X-33.1753 Y19.5941 I1.5873 J-0.0241
G1 Y10.5648
G3 X-31.5878 Y8.9773 I1.5875 J0.0
G1 X-31.3725
G1 F300.0 Z-1.2
G1 F800.0 Y3.5539
G1 Y-2.4555
G1 Y-7.8789
G1 X-31.5878
G3 X-33.1753 Y-9.4664 I0.0 J-1.5875
G1 Y-18.4957
G3 Y-18.5057 I1.5875 J0.0
G2 X-33.4811 Y-19.602 I-2.0716 J-0.013
G3 X-33.506 Y-19.6441 I1.3531 J-0.8302
G2 X-33.8953 Y-19.8976 I-0.4417 J0.2526
G1 X-44.3068
G2 X-44.6905 Y-19.6484 I0.0484 J0.4945
G3 X-44.7254 Y-19.59 I-1.3805 J-0.7838
G2 X-45.0239 Y-18.5199 I1.662 J1.0403
G3 X-45.0237 Y-18.4957 I-1.5873 J0.0241
G1 Y19.5941
G3 Y19.6041 I-1.5875 J0.0
G2 X-44.7179 Y20.7004 I2.0716 J0.013
G3 X-44.693 Y20.7425 I-1.3531 J0.8302
G2 X-44.3037 Y20.996 I0.4417 J-0.2526
G1 X-33.8922
G2 X-33.5085 Y20.7468 I-0.0484 J-0.4945
G3 X-33.4736 Y20.6884 I1.3805 J0.7838
G2 X-33.1751 Y19.6183 I-1.662 J-1.0403
G3 X-33.1753 Y19.5941 I1.5873 J-0.0241
G1 Y10.5648
G3 X-31.5878 Y8.9773 I1.5875 J0.0
G1 X-31.3725
G1 F300.0 Z-1.4
G1 F800.0 Y3.5539
G1 Y-2.4555
G1 Y-7.8789
G1 X-31.5878
G3 X-33.1753 Y-9.4664 I0.0 J-1.5875
G1 Y-18.4957
G3 Y-18.5057 I1.5875 J0.0
G2 X-33.4811 Y-19.602 I-2.0716 J-0.013
G3 X-33.506 Y-19.6441 I1.3531 J-0.8302
G2 X-33.8953 Y-19.8976 I-0.4417 J0.2526
G1 X-44.3068
G2 X-44.6905 Y-19.6484 I0.0484 J0.4945
G3 X-44.7254 Y-19.59 I-1.3805 J-0.7838
G2 X-45.0239 Y-18.5199 I1.662 J1.0403
G3 X-45.0237 Y-18.4957 I-1.5873 J0.0241
G1 Y19.5941
G3 Y19.6041 I-1.5875 J0.0
G2 X-44.7179 Y20.7004 I2.0716 J0.013
G3 X-44.693 Y20.7425 I-1.3531 J0.8302
G2 X-44.3037 Y20.996 I0.4417 J-0.2526
G1 X-33.8922
G2 X-33.5085 Y20.7468 I-0.0484 J-0.4945
G3 X-33.4736 Y20.6884 I1.3805 J0.7838
G2 X-33.1751 Y19.6183 I-1.662 J-1.0403
G3 X-33.1753 Y19.5941 I1.5873 J-0.0241
G1 Y10.5648
G3 X-31.5878 Y8.9773 I1.5875 J0.0
G1 X-31.3725
G1 F300.0 Z-1.6
G1 F800.0 Y3.5539
G1 Y-2.4555
G1 Y-7.8789
G1 X-31.5878
G3 X-33.1753 Y-9.4664 I0.0 J-1.5875
G1 Y-18.4957
G3 Y-18.5057 I1.5875 J0.0
G2 X-33.4811 Y-19.602 I-2.0716 J-0.013
G3 X-33.506 Y-19.6441 I1.3531 J-0.8302
G2 X-33.8953 Y-19.8976 I-0.4417 J0.2526
G1 X-44.3068
G2 X-44.6905 Y-19.6484 I0.0484 J0.4945
G3 X-44.7254 Y-19.59 I-1.3805 J-0.7838
G2 X-45.0239 Y-18.5199 I1.662 J1.0403
G3 X-45.0237 Y-18.4957 I-1.5873 J0.0241
G1 Y19.5941
G3 Y19.6041 I-1.5875 J0.0
G2 X-44.7179 Y20.7004 I2.0716 J0.013
G3 X-44.693 Y20.7425 I-1.3531 J0.8302
G2 X-44.3037 Y20.996 I0.4417 J-0.2526
G1 X-33.8922
G2 X-33.5085 Y20.7468 I-0.0484 J-0.4945
G3 X-33.4736 Y20.6884 I1.3805 J0.7838
G2 X-33.1751 Y19.6183 I-1.662 J-1.0403
G3 X-33.1753 Y19.5941 I1.5873 J-0.0241
G1 Y10.5648
G3 X-31.5878 Y8.9773 I1.5875 J0.0
G1 X-31.3725
G1 F300.0 Z-1.8
G1 F800.0 Y3.5539
G1 Y-2.4555
G1 Y-7.8789
G1 X-31.5878
G3 X-33.1753 Y-9.4664 I0.0 J-1.5875
G1 Y-18.4957
G3 Y-18.5057 I1.5875 J0.0
G2 X-33.4811 Y-19.602 I-2.0716 J-0.013
G3 X-33.506 Y-19.6441 I1.3531 J-0.8302
G2 X-33.8953 Y-19.8976 I-0.4417 J0.2526
G1 X-44.3068
G2 X-44.6905 Y-19.6484 I0.0484 J0.4945
G3 X-44.7254 Y-19.59 I-1.3805 J-0.7838
G2 X-45.0239 Y-18.5199 I1.662 J1.0403
G3 X-45.0237 Y-18.4957 I-1.5873 J0.0241
G1 Y19.5941
G3 Y19.6041 I-1.5875 J0.0
G2 X-44.7179 Y20.7004 I2.0716 J0.013
G3 X-44.693 Y20.7425 I-1.3531 J0.8302
G2 X-44.3037 Y20.996 I0.4417 J-0.2526
G1 X-33.8922
G2 X-33.5085 Y20.7468 I-0.0484 J-0.4945
G3 X-33.4736 Y20.6884 I1.3805 J0.7838
G2 X-33.1751 Y19.6183 I-1.662 J-1.0403
G3 X-33.1753 Y19.5941 I1.5873 J-0.0241
G1 Y10.5648
G3 X-31.5878 Y8.9773 I1.5875 J0.0
G1 X-31.3725
G1 F300.0 Z-2.0
G1 F800.0 Y3.5539
G1 Y-2.4555
G1 Y-7.8789
G1 X-31.5878
G3 X-33.1753 Y-9.4664 I0.0 J-1.5875
G1 Y-18.4957
G3 Y-18.5057 I1.5875 J0.0
G2 X-33.4811 Y-19.602 I-2.0716 J-0.013
G3 X-33.506 Y-19.6441 I1.3531 J-0.8302
G2 X-33.8953 Y-19.8976 I-0.4417 J0.2526
G1 X-44.3068
G2 X-44.6905 Y-19.6484 I0.0484 J0.4945
G3 X-44.7254 Y-19.59 I-1.3805 J-0.7838
G2 X-45.0239 Y-18.5199 I1.662 J1.0403
G3 X-45.0237 Y-18.4957 I-1.5873 J0.0241
G1 Y19.5941
G3 Y19.6041 I-1.5875 J0.0
G2 X-44.7179 Y20.7004 I2.0716 J0.013
G3 X-44.693 Y20.7425 I-1.3531 J0.8302
G2 X-44.3037 Y20.996 I0.4417 J-0.2526
G1 X-33.8922
G2 X-33.5085 Y20.7468 I-0.0484 J-0.4945
G3 X-33.4736 Y20.6884 I1.3805 J0.7838
G2 X-33.1751 Y19.6183 I-1.662 J-1.0403
G3 X-33.1753 Y19.5941 I1.5873 J-0.0241
G1 Y10.5648
G3 X-31.5878 Y8.9773 I1.5875 J0.0
G1 X-31.3725
G1 F300.0 Z-2.2
G1 F800.0 Y3.5539
G1 Y-2.4555
G1 Y-7.8789
G1 X-31.5878
G3 X-33.1753 Y-9.4664 I0.0 J-1.5875
G1 Y-18.4957
G3 Y-18.5057 I1.5875 J0.0
G2 X-33.4811 Y-19.602 I-2.0716 J-0.013
G3 X-33.506 Y-19.6441 I1.3531 J-0.8302
G2 X-33.8953 Y-19.8976 I-0.4417 J0.2526
G1 X-44.3068
G2 X-44.6905 Y-19.6484 I0.0484 J0.4945
G3 X-44.7254 Y-19.59 I-1.3805 J-0.7838
G2 X-45.0239 Y-18.5199 I1.662 J1.0403
G3 X-45.0237 Y-18.4957 I-1.5873 J0.0241
G1 Y19.5941
G3 Y19.6041 I-1.5875 J0.0
G2 X-44.7179 Y20.7004 I2.0716 J0.013
G3 X-44.693 Y20.7425 I-1.3531 J0.8302
G2 X-44.3037 Y20.996 I0.4417 J-0.2526
G1 X-33.8922
G2 X-33.5085 Y20.7468 I-0.0484 J-0.4945
G3 X-33.4736 Y20.6884 I1.3805 J0.7838
G2 X-33.1751 Y19.6183 I-1.662 J-1.0403
G3 X-33.1753 Y19.5941 I1.5873 J-0.0241
G1 Y10.5648
G3 X-31.5878 Y8.9773 I1.5875 J0.0
G1 X-31.3725
G1 F300.0 Z-2.4
G1 F800.0 Y3.5539
G1 Y-2.4555
G1 Y-7.8789
G1 X-31.5878
G3 X-33.1753 Y-9.4664 I0.0 J-1.5875
G1 Y-18.4957
G3 Y-18.5057 I1.5875 J0.0
G2 X-33.4811 Y-19.602 I-2.0716 J-0.013
G3 X-33.506 Y-19.6441 I1.3531 J-0.8302
G2 X-33.8953 Y-19.8976 I-0.4417 J0.2526
G1 X-44.3068
G2 X-44.6905 Y-19.6484 I0.0484 J0.4945
G3 X-44.7254 Y-19.59 I-1.3805 J-0.7838
G2 X-45.0239 Y-18.5199 I1.662 J1.0403
G3 X-45.0237 Y-18.4957 I-1.5873 J0.0241
G1 Y19.5941
G3 Y19.6041 I-1.5875 J0.0
G2 X-44.7179 Y20.7004 I2.0716 J0.013
G3 X-44.693 Y20.7425 I-1.3531 J0.8302
G2 X-44.3037 Y20.996 I0.4417 J-0.2526
G1 X-33.8922
G2 X-33.5085 Y20.7468 I-0.0484 J-0.4945
G3 X-33.4736 Y20.6884 I1.3805 J0.7838
G2 X-33.1751 Y19.6183 I-1.662 J-1.0403
G3 X-33.1753 Y19.5941 I1.5873 J-0.0241
G1 Y10.5648
G3 X-31.5878 Y8.9773 I1.5875 J0.0
G1 X-31.3725
G1 F300.0 Z-2.6
G1 F800.0 Y3.5539
G1 Y-2.4555
G1 Y-7.8789
G1 X-31.5878
G3 X-33.1753 Y-9.4664 I0.0 J-1.5875
G1 Y-18.4957
G3 Y-18.5057 I1.5875 J0.0
G2 X-33.4811 Y-19.602 I-2.0716 J-0.013
G3 X-33.506 Y-19.6441 I1.3531 J-0.8302
G2 X-33.8953 Y-19.8976 I-0.4417 J0.2526
G1 X-44.3068
G2 X-44.6905 Y-19.6484 I0.0484 J0.4945
G3 X-44.7254 Y-19.59 I-1.3805 J-0.7838
G2 X-45.0239 Y-18.5199 I1.662 J1.0403
G3 X-45.0237 Y-18.4957 I-1.5873 J0.0241
G1 Y19.5941
G3 Y19.6041 I-1.5875 J0.0
G2 X-44.7179 Y20.7004 I2.0716 J0.013
G3 X-44.693 Y20.7425 I-1.3531 J0.8302
G2 X-44.3037 Y20.996 I0.4417 J-0.2526
G1 X-33.8922
G2 X-33.5085 Y20.7468 I-0.0484 J-0.4945
G3 X-33.4736 Y20.6884 I1.3805 J0.7838
G2 X-33.1751 Y19.6183 I-1.662 J-1.0403
G3 X-33.1753 Y19.5941 I1.5873 J-0.0241
G1 Y10.5648
G3 X-31.5878 Y8.9773 I1.5875 J0.0
G1 X-31.3725
G1 F300.0 Z-2.8
G1 F800.0 Y3.5539
G1 Y-2.4555
G1 Y-7.8789
G1 X-31.5878
G3 X-33.1753 Y-9.4664 I0.0 J-1.5875
G1 Y-18.4957
G3 Y-18.5057 I1.5875 J0.0
G2 X-33.4811 Y-19.602 I-2.0716 J-0.013
G3 X-33.506 Y-19.6441 I1.3531 J-0.8302
G2 X-33.8953 Y-19.8976 I-0.4417 J0.2526
G1 X-44.3068
G2 X-44.6905 Y-19.6484 I0.0484 J0.4945
G3 X-44.7254 Y-19.59 I-1.3805 J-0.7838
G2 X-45.0239 Y-18.5199 I1.662 J1.0403
G3 X-45.0237 Y-18.4957 I-1.5873 J0.0241
G1 Y19.5941
G3 Y19.6041 I-1.5875 J0.0
G2 X-44.7179 Y20.7004 I2.0716 J0.013
G3 X-44.693 Y20.7425 I-1.3531 J0.8302
G2 X-44.3037 Y20.996 I0.4417 J-0.2526
G1 X-33.8922
G2 X-33.5085 Y20.7468 I-0.0484 J-0.4945
G3 X-33.4736 Y20.6884 I1.3805 J0.7838
G2 X-33.1751 Y19.6183 I-1.662 J-1.0403
G3 X-33.1753 Y19.5941 I1.5873 J-0.0241
G1 Y10.5648
G3 X-31.5878 Y8.9773 I1.5875 J0.0
G1 X-31.3725
G1 F300.0 Z-3.0
G1 F800.0 Y3.5539
G1 Y-2.4555
G1 Y-7.8789
G1 X-31.5878
G3 X-33.1753 Y-9.4664 I0.0 J-1.5875
G1 Y-18.4957
G3 Y-18.5057 I1.5875 J0.0
G2 X-33.4811 Y-19.602 I-2.0716 J-0.013
G3 X-33.506 Y-19.6441 I1.3531 J-0.8302
G2 X-33.8953 Y-19.8976 I-0.4417 J0.2526
G1 X-44.3068
G2 X-44.6905 Y-19.6484 I0.0484 J0.4945
G3 X-44.7254 Y-19.59 I-1.3805 J-0.7838
G2 X-45.0239 Y-18.5199 I1.662 J1.0403
G3 X-45.0237 Y-18.4957 I-1.5873 J0.0241
G1 Y19.5941
G3 Y19.6041 I-1.5875 J0.0
G2 X-44.7179 Y20.7004 I2.0716 J0.013
G3 X-44.693 Y20.7425 I-1.3531 J0.8302
G2 X-44.3037 Y20.996 I0.4417 J-0.2526
G1 X-33.8922
G2 X-33.5085 Y20.7468 I-0.0484 J-0.4945
G3 X-33.4736 Y20.6884 I1.3805 J0.7838
G2 X-33.1751 Y19.6183 I-1.662 J-1.0403
G3 X-33.1753 Y19.5941 I1.5873 J-0.0241
G1 Y10.5648
G3 X-31.5878 Y8.9773 I1.5875 J0.0
G1 X-31.3725
G1 F300.0 Z-3.2
G1 F800.0 Y3.5539
G1 Y-2.4555
G1 Y-7.8789
G1 X-31.5878
G3 X-33.1753 Y-9.4664 I0.0 J-1.5875
G1 Y-18.4957
G3 Y-18.5057 I1.5875 J0.0
G2 X-33.4811 Y-19.602 I-2.0716 J-0.013
G3 X-33.506 Y-19.6441 I1.3531 J-0.8302
G2 X-33.8953 Y-19.8976 I-0.4417 J0.2526
G1 X-44.3068
G2 X-44.6905 Y-19.6484 I0.0484 J0.4945
G3 X-44.7254 Y-19.59 I-1.3805 J-0.7838
G2 X-45.0239 Y-18.5199 I1.662 J1.0403
G3 X-45.0237 Y-18.4957 I-1.5873 J0.0241
G1 Y19.5941
G3 Y19.6041 I-1.5875 J0.0
G2 X-44.7179 Y20.7004 I2.0716 J0.013
G3 X-44.693 Y20.7425 I-1.3531 J0.8302
G2 X-44.3037 Y20.996 I0.4417 J-0.2526
G1 X-33.8922
G2 X-33.5085 Y20.7468 I-0.0484 J-0.4945
G3 X-33.4736 Y20.6884 I1.3805 J0.7838
G2 X-33.1751 Y19.6183 I-1.662 J-1.0403
G3 X-33.1753 Y19.5941 I1.5873 J-0.0241
G1 Y10.5648
G3 X-31.5878 Y8.9773 I1.5875 J0.0
G1 X-31.3725
G1 F300.0 Z-3.3
G1 F800.0 Y3.5539
G1 Y-2.4555
G1 Y-7.8789
G1 X-31.5878
G3 X-33.1753 Y-9.4664 I0.0 J-1.5875
G1 Y-18.4957
G3 Y-18.5057 I1.5875 J0.0
G2 X-33.4811 Y-19.602 I-2.0716 J-0.013
G3 X-33.506 Y-19.6441 I1.3531 J-0.8302
G2 X-33.8953 Y-19.8976 I-0.4417 J0.2526
G1 X-44.3068
G2 X-44.6905 Y-19.6484 I0.0484 J0.4945
G3 X-44.7254 Y-19.59 I-1.3805 J-0.7838
G2 X-45.0239 Y-18.5199 I1.662 J1.0403
G3 X-45.0237 Y-18.4957 I-1.5873 J0.0241
G1 Y19.5941
G3 Y19.6041 I-1.5875 J0.0
G2 X-44.7179 Y20.7004 I2.0716 J0.013
G3 X-44.693 Y20.7425 I-1.3531 J0.8302
G2 X-44.3037 Y20.996 I0.4417 J-0.2526
G1 X-33.8922
G2 X-33.5085 Y20.7468 I-0.0484 J-0.4945
G3 X-33.4736 Y20.6884 I1.3805 J0.7838
G2 X-33.1751 Y19.6183 I-1.662 J-1.0403
G3 X-33.1753 Y19.5941 I1.5873 J-0.0241
G1 Y10.5648
G3 X-31.5878 Y8.9773 I1.5875 J0.0
G1 X-31.3725
( 4Hole )
S1000
G0 Z3.0
G0 X-14.3167 Y-8.7491
G1 F300.0 Z-0.1
G2 F800.0 X-13.3991 Y-9.6665 I-0.0049 J-0.9224
G2 X-14.3169 Y-10.5841 I-0.9227 J0.0051
G2 X-15.2341 Y-9.6668 I0.0046 J0.9218
G2 X-14.3167 Y-8.7491 I0.9223 J-0.0046
G1 F300.0 Z-0.2
G2 F800.0 X-13.3991 Y-9.6665 I-0.0049 J-0.9224
G2 X-14.3169 Y-10.5841 I-0.9227 J0.0051
G2 X-15.2341 Y-9.6668 I0.0046 J0.9218
G2 X-14.3167 Y-8.7491 I0.9223 J-0.0046
G1 F300.0 Z-0.3
G2 F800.0 X-13.3991 Y-9.6665 I-0.0049 J-0.9224
G2 X-14.3169 Y-10.5841 I-0.9227 J0.0051
G2 X-15.2341 Y-9.6668 I0.0046 J0.9218
G2 X-14.3167 Y-8.7491 I0.9223 J-0.0046
G1 F300.0 Z-0.4
G2 F800.0 X-13.3991 Y-9.6665 I-0.0049 J-0.9224
G2 X-14.3169 Y-10.5841 I-0.9227 J0.0051
G2 X-15.2341 Y-9.6668 I0.0046 J0.9218
G2 X-14.3167 Y-8.7491 I0.9223 J-0.0046
G1 F300.0 Z-0.5
G2 F800.0 X-13.3991 Y-9.6665 I-0.0049 J-0.9224
G2 X-14.3169 Y-10.5841 I-0.9227 J0.0051
G2 X-15.2341 Y-9.6668 I0.0046 J0.9218
G2 X-14.3167 Y-8.7491 I0.9223 J-0.0046
G1 F300.0 Z-0.6
G2 F800.0 X-13.3991 Y-9.6665 I-0.0049 J-0.9224
G2 X-14.3169 Y-10.5841 I-0.9227 J0.0051
G2 X-15.2341 Y-9.6668 I0.0046 J0.9218
G2 X-14.3167 Y-8.7491 I0.9223 J-0.0046
G1 F300.0 Z-0.7
G2 F800.0 X-13.3991 Y-9.6665 I-0.0049 J-0.9224
G2 X-14.3169 Y-10.5841 I-0.9227 J0.0051
G2 X-15.2341 Y-9.6668 I0.0046 J0.9218
G2 X-14.3167 Y-8.7491 I0.9223 J-0.0046
G1 F300.0 Z-0.8
G2 F800.0 X-13.3991 Y-9.6665 I-0.0049 J-0.9224
G2 X-14.3169 Y-10.5841 I-0.9227 J0.0051
G2 X-15.2341 Y-9.6668 I0.0046 J0.9218
G2 X-14.3167 Y-8.7491 I0.9223 J-0.0046
G1 F300.0 Z-0.9
G2 F800.0 X-13.3991 Y-9.6665 I-0.0049 J-0.9224
G2 X-14.3169 Y-10.5841 I-0.9227 J0.0051
G2 X-15.2341 Y-9.6668 I0.0046 J0.9218
G2 X-14.3167 Y-8.7491 I0.9223 J-0.0046
G1 F300.0 Z-1.0
G2 F800.0 X-13.3991 Y-9.6665 I-0.0049 J-0.9224
G2 X-14.3169 Y-10.5841 I-0.9227 J0.0051
G2 X-15.2341 Y-9.6668 I0.0046 J0.9218
G2 X-14.3167 Y-8.7491 I0.9223 J-0.0046
G1 F300.0 Z-1.1
G2 F800.0 X-13.3991 Y-9.6665 I-0.0049 J-0.9224
G2 X-14.3169 Y-10.5841 I-0.9227 J0.0051
G2 X-15.2341 Y-9.6668 I0.0046 J0.9218
G2 X-14.3167 Y-8.7491 I0.9223 J-0.0046
G1 F300.0 Z-1.2
G2 F800.0 X-13.3991 Y-9.6665 I-0.0049 J-0.9224
G2 X-14.3169 Y-10.5841 I-0.9227 J0.0051
G2 X-15.2341 Y-9.6668 I0.0046 J0.9218
G2 X-14.3167 Y-8.7491 I0.9223 J-0.0046
G1 F300.0 Z-1.3
G2 F800.0 X-13.3991 Y-9.6665 I-0.0049 J-0.9224
G2 X-14.3169 Y-10.5841 I-0.9227 J0.0051
G2 X-15.2341 Y-9.6668 I0.0046 J0.9218
G2 X-14.3167 Y-8.7491 I0.9223 J-0.0046
G1 F300.0 Z-1.4
G2 F800.0 X-13.3991 Y-9.6665 I-0.0049 J-0.9224
G2 X-14.3169 Y-10.5841 I-0.9227 J0.0051
G2 X-15.2341 Y-9.6668 I0.0046 J0.9218
G2 X-14.3167 Y-8.7491 I0.9223 J-0.0046
G1 F300.0 Z-1.5
G2 F800.0 X-13.3991 Y-9.6665 I-0.0049 J-0.9224
G2 X-14.3169 Y-10.5841 I-0.9227 J0.0051
G2 X-15.2341 Y-9.6668 I0.0046 J0.9218
G2 X-14.3167 Y-8.7491 I0.9223 J-0.0046
G1 F300.0 Z-1.6
G2 F800.0 X-13.3991 Y-9.6665 I-0.0049 J-0.9224
G2 X-14.3169 Y-10.5841 I-0.9227 J0.0051
G2 X-15.2341 Y-9.6668 I0.0046 J0.9218
G2 X-14.3167 Y-8.7491 I0.9223 J-0.0046
G1 F300.0 Z-1.7
G2 F800.0 X-13.3991 Y-9.6665 I-0.0049 J-0.9224
G2 X-14.3169 Y-10.5841 I-0.9227 J0.0051
G2 X-15.2341 Y-9.6668 I0.0046 J0.9218
G2 X-14.3167 Y-8.7491 I0.9223 J-0.0046
G1 F300.0 Z-1.8
G2 F800.0 X-13.3991 Y-9.6665 I-0.0049 J-0.9224
G2 X-14.3169 Y-10.5841 I-0.9227 J0.0051
G2 X-15.2341 Y-9.6668 I0.0046 J0.9218
G2 X-14.3167 Y-8.7491 I0.9223 J-0.0046
G1 F300.0 Z-1.9
G2 F800.0 X-13.3991 Y-9.6665 I-0.0049 J-0.9224
G2 X-14.3169 Y-10.5841 I-0.9227 J0.0051
G2 X-15.2341 Y-9.6668 I0.0046 J0.9218
G2 X-14.3167 Y-8.7491 I0.9223 J-0.0046
G1 F300.0 Z-2.0
G2 F800.0 X-13.3991 Y-9.6665 I-0.0049 J-0.9224
G2 X-14.3169 Y-10.5841 I-0.9227 J0.0051
G2 X-15.2341 Y-9.6668 I0.0046 J0.9218
G2 X-14.3167 Y-8.7491 I0.9223 J-0.0046
G1 F300.0 Z-2.1
G2 F800.0 X-13.3991 Y-9.6665 I-0.0049 J-0.9224
G2 X-14.3169 Y-10.5841 I-0.9227 J0.0051
G2 X-15.2341 Y-9.6668 I0.0046 J0.9218
G2 X-14.3167 Y-8.7491 I0.9223 J-0.0046
G1 F300.0 Z-2.2
G2 F800.0 X-13.3991 Y-9.6665 I-0.0049 J-0.9224
G2 X-14.3169 Y-10.5841 I-0.9227 J0.0051
G2 X-15.2341 Y-9.6668 I0.0046 J0.9218
G2 X-14.3167 Y-8.7491 I0.9223 J-0.0046
G1 F300.0 Z-2.3
G2 F800.0 X-13.3991 Y-9.6665 I-0.0049 J-0.9224
G2 X-14.3169 Y-10.5841 I-0.9227 J0.0051
G2 X-15.2341 Y-9.6668 I0.0046 J0.9218
G2 X-14.3167 Y-8.7491 I0.9223 J-0.0046
G1 F300.0 Z-2.4
G2 F800.0 X-13.3991 Y-9.6665 I-0.0049 J-0.9224
G2 X-14.3169 Y-10.5841 I-0.9227 J0.0051
G2 X-15.2341 Y-9.6668 I0.0046 J0.9218
G2 X-14.3167 Y-8.7491 I0.9223 J-0.0046
G1 F300.0 Z-2.5
G2 F800.0 X-13.3991 Y-9.6665 I-0.0049 J-0.9224
G2 X-14.3169 Y-10.5841 I-0.9227 J0.0051
G2 X-15.2341 Y-9.6668 I0.0046 J0.9218
G2 X-14.3167 Y-8.7491 I0.9223 J-0.0046
G1 F300.0 Z-2.6
G2 F800.0 X-13.3991 Y-9.6665 I-0.0049 J-0.9224
G2 X-14.3169 Y-10.5841 I-0.9227 J0.0051
G2 X-15.2341 Y-9.6668 I0.0046 J0.9218
G2 X-14.3167 Y-8.7491 I0.9223 J-0.0046
G1 F300.0 Z-2.7
G2 F800.0 X-13.3991 Y-9.6665 I-0.0049 J-0.9224
G2 X-14.3169 Y-10.5841 I-0.9227 J0.0051
G2 X-15.2341 Y-9.6668 I0.0046 J0.9218
G2 X-14.3167 Y-8.7491 I0.9223 J-0.0046
G1 F300.0 Z-2.8
G2 F800.0 X-13.3991 Y-9.6665 I-0.0049 J-0.9224
G2 X-14.3169 Y-10.5841 I-0.9227 J0.0051
G2 X-15.2341 Y-9.6668 I0.0046 J0.9218
G2 X-14.3167 Y-8.7491 I0.9223 J-0.0046
G1 F300.0 Z-2.9
G2 F800.0 X-13.3991 Y-9.6665 I-0.0049 J-0.9224
G2 X-14.3169 Y-10.5841 I-0.9227 J0.0051
G2 X-15.2341 Y-9.6668 I0.0046 J0.9218
G2 X-14.3167 Y-8.7491 I0.9223 J-0.0046
G1 F300.0 Z-3.0
G2 F800.0 X-13.3991 Y-9.6665 I-0.0049 J-0.9224
G2 X-14.3169 Y-10.5841 I-0.9227 J0.0051
G2 X-15.2341 Y-9.6668 I0.0046 J0.9218
G2 X-14.3167 Y-8.7491 I0.9223 J-0.0046
G1 F300.0 Z-3.1
G2 F800.0 X-13.3991 Y-9.6665 I-0.0049 J-0.9224
G2 X-14.3169 Y-10.5841 I-0.9227 J0.0051
G2 X-15.2341 Y-9.6668 I0.0046 J0.9218
G2 X-14.3167 Y-8.7491 I0.9223 J-0.0046
G1 F300.0 Z-3.2
G2 F800.0 X-13.3991 Y-9.6665 I-0.0049 J-0.9224
G2 X-14.3169 Y-10.5841 I-0.9227 J0.0051
G2 X-15.2341 Y-9.6668 I0.0046 J0.9218
G2 X-14.3167 Y-8.7491 I0.9223 J-0.0046
G1 F300.0 Z-3.3
G2 F800.0 X-13.3991 Y-9.6665 I-0.0049 J-0.9224
G2 X-14.3169 Y-10.5841 I-0.9227 J0.0051
G2 X-15.2341 Y-9.6668 I0.0046 J0.9218
G2 X-14.3167 Y-8.7491 I0.9223 J-0.0046
G0 Z3.0
G0 X-14.3169 Y-0.3682
G1 F300.0 Z-0.1
G2 F800.0 X-15.2341 Y0.5491 I0.0046 J0.9218
G2 X-14.3167 Y1.4668 I0.9223 J-0.0046
G2 X-13.3991 Y0.5494 I-0.0049 J-0.9224
G2 X-14.3169 Y-0.3682 I-0.9227 J0.0051
G1 F300.0 Z-0.2
G2 F800.0 X-15.2341 Y0.5491 I0.0046 J0.9218
G2 X-14.3167 Y1.4668 I0.9223 J-0.0046
G2 X-13.3991 Y0.5494 I-0.0049 J-0.9224
G2 X-14.3169 Y-0.3682 I-0.9227 J0.0051
G1 F300.0 Z-0.3
G2 F800.0 X-15.2341 Y0.5491 I0.0046 J0.9218
G2 X-14.3167 Y1.4668 I0.9223 J-0.0046
G2 X-13.3991 Y0.5494 I-0.0049 J-0.9224
G2 X-14.3169 Y-0.3682 I-0.9227 J0.0051
G1 F300.0 Z-0.4
G2 F800.0 X-15.2341 Y0.5491 I0.0046 J0.9218
G2 X-14.3167 Y1.4668 I0.9223 J-0.0046
G2 X-13.3991 Y0.5494 I-0.0049 J-0.9224
G2 X-14.3169 Y-0.3682 I-0.9227 J0.0051
G1 F300.0 Z-0.5
G2 F800.0 X-15.2341 Y0.5491 I0.0046 J0.9218
G2 X-14.3167 Y1.4668 I0.9223 J-0.0046
G2 X-13.3991 Y0.5494 I-0.0049 J-0.9224
G2 X-14.3169 Y-0.3682 I-0.9227 J0.0051
G1 F300.0 Z-0.6
G2 F800.0 X-15.2341 Y0.5491 I0.0046 J0.9218
G2 X-14.3167 Y1.4668 I0.9223 J-0.0046
G2 X-13.3991 Y0.5494 I-0.0049 J-0.9224
G2 X-14.3169 Y-0.3682 I-0.9227 J0.0051
G1 F300.0 Z-0.7
G2 F800.0 X-15.2341 Y0.5491 I0.0046 J0.9218
G2 X-14.3167 Y1.4668 I0.9223 J-0.0046
G2 X-13.3991 Y0.5494 I-0.0049 J-0.9224
G2 X-14.3169 Y-0.3682 I-0.9227 J0.0051
G1 F300.0 Z-0.8
G2 F800.0 X-15.2341 Y0.5491 I0.0046 J0.9218
G2 X-14.3167 Y1.4668 I0.9223 J-0.0046
G2 X-13.3991 Y0.5494 I-0.0049 J-0.9224
G2 X-14.3169 Y-0.3682 I-0.9227 J0.0051
G1 F300.0 Z-0.9
G2 F800.0 X-15.2341 Y0.5491 I0.0046 J0.9218
G2 X-14.3167 Y1.4668 I0.9223 J-0.0046
G2 X-13.3991 Y0.5494 I-0.0049 J-0.9224
G2 X-14.3169 Y-0.3682 I-0.9227 J0.0051
G1 F300.0 Z-1.0
G2 F800.0 X-15.2341 Y0.5491 I0.0046 J0.9218
G2 X-14.3167 Y1.4668 I0.9223 J-0.0046
G2 X-13.3991 Y0.5494 I-0.0049 J-0.9224
G2 X-14.3169 Y-0.3682 I-0.9227 J0.0051
G1 F300.0 Z-1.1
G2 F800.0 X-15.2341 Y0.5491 I0.0046 J0.9218
G2 X-14.3167 Y1.4668 I0.9223 J-0.0046
G2 X-13.3991 Y0.5494 I-0.0049 J-0.9224
G2 X-14.3169 Y-0.3682 I-0.9227 J0.0051
G1 F300.0 Z-1.2
G2 F800.0 X-15.2341 Y0.5491 I0.0046 J0.9218
G2 X-14.3167 Y1.4668 I0.9223 J-0.0046
G2 X-13.3991 Y0.5494 I-0.0049 J-0.9224
G2 X-14.3169 Y-0.3682 I-0.9227 J0.0051
G1 F300.0 Z-1.3
G2 F800.0 X-15.2341 Y0.5491 I0.0046 J0.9218
G2 X-14.3167 Y1.4668 I0.9223 J-0.0046
G2 X-13.3991 Y0.5494 I-0.0049 J-0.9224
G2 X-14.3169 Y-0.3682 I-0.9227 J0.0051
G1 F300.0 Z-1.4
G2 F800.0 X-15.2341 Y0.5491 I0.0046 J0.9218
G2 X-14.3167 Y1.4668 I0.9223 J-0.0046
G2 X-13.3991 Y0.5494 I-0.0049 J-0.9224
G2 X-14.3169 Y-0.3682 I-0.9227 J0.0051
G1 F300.0 Z-1.5
G2 F800.0 X-15.2341 Y0.5491 I0.0046 J0.9218
G2 X-14.3167 Y1.4668 I0.9223 J-0.0046
G2 X-13.3991 Y0.5494 I-0.0049 J-0.9224
G2 X-14.3169 Y-0.3682 I-0.9227 J0.0051
G1 F300.0 Z-1.6
G2 F800.0 X-15.2341 Y0.5491 I0.0046 J0.9218
G2 X-14.3167 Y1.4668 I0.9223 J-0.0046
G2 X-13.3991 Y0.5494 I-0.0049 J-0.9224
G2 X-14.3169 Y-0.3682 I-0.9227 J0.0051
G1 F300.0 Z-1.7
G2 F800.0 X-15.2341 Y0.5491 I0.0046 J0.9218
G2 X-14.3167 Y1.4668 I0.9223 J-0.0046
G2 X-13.3991 Y0.5494 I-0.0049 J-0.9224
G2 X-14.3169 Y-0.3682 I-0.9227 J0.0051
G1 F300.0 Z-1.8
G2 F800.0 X-15.2341 Y0.5491 I0.0046 J0.9218
G2 X-14.3167 Y1.4668 I0.9223 J-0.0046
G2 X-13.3991 Y0.5494 I-0.0049 J-0.9224
G2 X-14.3169 Y-0.3682 I-0.9227 J0.0051
G1 F300.0 Z-1.9
G2 F800.0 X-15.2341 Y0.5491 I0.0046 J0.9218
G2 X-14.3167 Y1.4668 I0.9223 J-0.0046
G2 X-13.3991 Y0.5494 I-0.0049 J-0.9224
G2 X-14.3169 Y-0.3682 I-0.9227 J0.0051
G1 F300.0 Z-2.0
G2 F800.0 X-15.2341 Y0.5491 I0.0046 J0.9218
G2 X-14.3167 Y1.4668 I0.9223 J-0.0046
G2 X-13.3991 Y0.5494 I-0.0049 J-0.9224
G2 X-14.3169 Y-0.3682 I-0.9227 J0.0051
G1 F300.0 Z-2.1
G2 F800.0 X-15.2341 Y0.5491 I0.0046 J0.9218
G2 X-14.3167 Y1.4668 I0.9223 J-0.0046
G2 X-13.3991 Y0.5494 I-0.0049 J-0.9224
G2 X-14.3169 Y-0.3682 I-0.9227 J0.0051
G1 F300.0 Z-2.2
G2 F800.0 X-15.2341 Y0.5491 I0.0046 J0.9218
G2 X-14.3167 Y1.4668 I0.9223 J-0.0046
G2 X-13.3991 Y0.5494 I-0.0049 J-0.9224
G2 X-14.3169 Y-0.3682 I-0.9227 J0.0051
G1 F300.0 Z-2.3
G2 F800.0 X-15.2341 Y0.5491 I0.0046 J0.9218
G2 X-14.3167 Y1.4668 I0.9223 J-0.0046
G2 X-13.3991 Y0.5494 I-0.0049 J-0.9224
G2 X-14.3169 Y-0.3682 I-0.9227 J0.0051
G1 F300.0 Z-2.4
G2 F800.0 X-15.2341 Y0.5491 I0.0046 J0.9218
G2 X-14.3167 Y1.4668 I0.9223 J-0.0046
G2 X-13.3991 Y0.5494 I-0.0049 J-0.9224
G2 X-14.3169 Y-0.3682 I-0.9227 J0.0051
G1 F300.0 Z-2.5
G2 F800.0 X-15.2341 Y0.5491 I0.0046 J0.9218
G2 X-14.3167 Y1.4668 I0.9223 J-0.0046
G2 X-13.3991 Y0.5494 I-0.0049 J-0.9224
G2 X-14.3169 Y-0.3682 I-0.9227 J0.0051
G1 F300.0 Z-2.6
G2 F800.0 X-15.2341 Y0.5491 I0.0046 J0.9218
G2 X-14.3167 Y1.4668 I0.9223 J-0.0046
G2 X-13.3991 Y0.5494 I-0.0049 J-0.9224
G2 X-14.3169 Y-0.3682 I-0.9227 J0.0051
G1 F300.0 Z-2.7
G2 F800.0 X-15.2341 Y0.5491 I0.0046 J0.9218
G2 X-14.3167 Y1.4668 I0.9223 J-0.0046
G2 X-13.3991 Y0.5494 I-0.0049 J-0.9224
G2 X-14.3169 Y-0.3682 I-0.9227 J0.0051
G1 F300.0 Z-2.8
G2 F800.0 X-15.2341 Y0.5491 I0.0046 J0.9218
G2 X-14.3167 Y1.4668 I0.9223 J-0.0046
G2 X-13.3991 Y0.5494 I-0.0049 J-0.9224
G2 X-14.3169 Y-0.3682 I-0.9227 J0.0051
G1 F300.0 Z-2.9
G2 F800.0 X-15.2341 Y0.5491 I0.0046 J0.9218
G2 X-14.3167 Y1.4668 I0.9223 J-0.0046
G2 X-13.3991 Y0.5494 I-0.0049 J-0.9224
G2 X-14.3169 Y-0.3682 I-0.9227 J0.0051
G1 F300.0 Z-3.0
G2 F800.0 X-15.2341 Y0.5491 I0.0046 J0.9218
G2 X-14.3167 Y1.4668 I0.9223 J-0.0046
G2 X-13.3991 Y0.5494 I-0.0049 J-0.9224
G2 X-14.3169 Y-0.3682 I-0.9227 J0.0051
G1 F300.0 Z-3.1
G2 F800.0 X-15.2341 Y0.5491 I0.0046 J0.9218
G2 X-14.3167 Y1.4668 I0.9223 J-0.0046
G2 X-13.3991 Y0.5494 I-0.0049 J-0.9224
G2 X-14.3169 Y-0.3682 I-0.9227 J0.0051
G1 F300.0 Z-3.2
G2 F800.0 X-15.2341 Y0.5491 I0.0046 J0.9218
G2 X-14.3167 Y1.4668 I0.9223 J-0.0046
G2 X-13.3991 Y0.5494 I-0.0049 J-0.9224
G2 X-14.3169 Y-0.3682 I-0.9227 J0.0051
G1 F300.0 Z-3.3
G2 F800.0 X-15.2341 Y0.5491 I0.0046 J0.9218
G2 X-14.3167 Y1.4668 I0.9223 J-0.0046
G2 X-13.3991 Y0.5494 I-0.0049 J-0.9224
G2 X-14.3169 Y-0.3682 I-0.9227 J0.0051
G0 Z3.0
G0 X12.3215 Y0.5227
G1 F300.0 Z-0.1
G2 F800.0 X12.321 Y0.5491 I0.9212 J0.0308
G2 X13.2385 Y1.4668 I0.9224 J-0.0047
G2 X14.156 Y0.5494 I-0.0049 J-0.9224
G2 X13.2382 Y-0.3682 I-0.9227 J0.0051
G2 X12.3215 Y0.5227 I0.0046 J0.9217
G1 F300.0 Z-0.2
G2 F800.0 X12.321 Y0.5491 I0.9212 J0.0308
G2 X13.2385 Y1.4668 I0.9224 J-0.0047
G2 X14.156 Y0.5494 I-0.0049 J-0.9224
G2 X13.2382 Y-0.3682 I-0.9227 J0.0051
G2 X12.3215 Y0.5227 I0.0046 J0.9217
G1 F300.0 Z-0.3
G2 F800.0 X12.321 Y0.5491 I0.9212 J0.0308
G2 X13.2385 Y1.4668 I0.9224 J-0.0047
G2 X14.156 Y0.5494 I-0.0049 J-0.9224
G2 X13.2382 Y-0.3682 I-0.9227 J0.0051
G2 X12.3215 Y0.5227 I0.0046 J0.9217
G1 F300.0 Z-0.4
G2 F800.0 X12.321 Y0.5491 I0.9212 J0.0308
G2 X13.2385 Y1.4668 I0.9224 J-0.0047
G2 X14.156 Y0.5494 I-0.0049 J-0.9224
G2 X13.2382 Y-0.3682 I-0.9227 J0.0051
G2 X12.3215 Y0.5227 I0.0046 J0.9217
G1 F300.0 Z-0.5
G2 F800.0 X12.321 Y0.5491 I0.9212 J0.0308
G2 X13.2385 Y1.4668 I0.9224 J-0.0047
G2 X14.156 Y0.5494 I-0.0049 J-0.9224
G2 X13.2382 Y-0.3682 I-0.9227 J0.0051
G2 X12.3215 Y0.5227 I0.0046 J0.9217
G1 F300.0 Z-0.6
G2 F800.0 X12.321 Y0.5491 I0.9212 J0.0308
G2 X13.2385 Y1.4668 I0.9224 J-0.0047
G2 X14.156 Y0.5494 I-0.0049 J-0.9224
G2 X13.2382 Y-0.3682 I-0.9227 J0.0051
G2 X12.3215 Y0.5227 I0.0046 J0.9217
G1 F300.0 Z-0.7
G2 F800.0 X12.321 Y0.5491 I0.9212 J0.0308
G2 X13.2385 Y1.4668 I0.9224 J-0.0047
G2 X14.156 Y0.5494 I-0.0049 J-0.9224
G2 X13.2382 Y-0.3682 I-0.9227 J0.0051
G2 X12.3215 Y0.5227 I0.0046 J0.9217
G1 F300.0 Z-0.8
G2 F800.0 X12.321 Y0.5491 I0.9212 J0.0308
G2 X13.2385 Y1.4668 I0.9224 J-0.0047
G2 X14.156 Y0.5494 I-0.0049 J-0.9224
G2 X13.2382 Y-0.3682 I-0.9227 J0.0051
G2 X12.3215 Y0.5227 I0.0046 J0.9217
G1 F300.0 Z-0.9
G2 F800.0 X12.321 Y0.5491 I0.9212 J0.0308
G2 X13.2385 Y1.4668 I0.9224 J-0.0047
G2 X14.156 Y0.5494 I-0.0049 J-0.9224
G2 X13.2382 Y-0.3682 I-0.9227 J0.0051
G2 X12.3215 Y0.5227 I0.0046 J0.9217
G1 F300.0 Z-1.0
G2 F800.0 X12.321 Y0.5491 I0.9212 J0.0308
G2 X13.2385 Y1.4668 I0.9224 J-0.0047
G2 X14.156 Y0.5494 I-0.0049 J-0.9224
G2 X13.2382 Y-0.3682 I-0.9227 J0.0051
G2 X12.3215 Y0.5227 I0.0046 J0.9217
G1 F300.0 Z-1.1
G2 F800.0 X12.321 Y0.5491 I0.9212 J0.0308
G2 X13.2385 Y1.4668 I0.9224 J-0.0047
G2 X14.156 Y0.5494 I-0.0049 J-0.9224
G2 X13.2382 Y-0.3682 I-0.9227 J0.0051
G2 X12.3215 Y0.5227 I0.0046 J0.9217
G1 F300.0 Z-1.2
G2 F800.0 X12.321 Y0.5491 I0.9212 J0.0308
G2 X13.2385 Y1.4668 I0.9224 J-0.0047
G2 X14.156 Y0.5494 I-0.0049 J-0.9224
G2 X13.2382 Y-0.3682 I-0.9227 J0.0051
G2 X12.3215 Y0.5227 I0.0046 J0.9217
G1 F300.0 Z-1.3
G2 F800.0 X12.321 Y0.5491 I0.9212 J0.0308
G2 X13.2385 Y1.4668 I0.9224 J-0.0047
G2 X14.156 Y0.5494 I-0.0049 J-0.9224
G2 X13.2382 Y-0.3682 I-0.9227 J0.0051
G2 X12.3215 Y0.5227 I0.0046 J0.9217
G1 F300.0 Z-1.4
G2 F800.0 X12.321 Y0.5491 I0.9212 J0.0308
G2 X13.2385 Y1.4668 I0.9224 J-0.0047
G2 X14.156 Y0.5494 I-0.0049 J-0.9224
G2 X13.2382 Y-0.3682 I-0.9227 J0.0051
G2 X12.3215 Y0.5227 I0.0046 J0.9217
G1 F300.0 Z-1.5
G2 F800.0 X12.321 Y0.5491 I0.9212 J0.0308
G2 X13.2385 Y1.4668 I0.9224 J-0.0047
G2 X14.156 Y0.5494 I-0.0049 J-0.9224
G2 X13.2382 Y-0.3682 I-0.9227 J0.0051
G2 X12.3215 Y0.5227 I0.0046 J0.9217
G1 F300.0 Z-1.6
G2 F800.0 X12.321 Y0.5491 I0.9212 J0.0308
G2 X13.2385 Y1.4668 I0.9224 J-0.0047
G2 X14.156 Y0.5494 I-0.0049 J-0.9224
G2 X13.2382 Y-0.3682 I-0.9227 J0.0051
G2 X12.3215 Y0.5227 I0.0046 J0.9217
G1 F300.0 Z-1.7
G2 F800.0 X12.321 Y0.5491 I0.9212 J0.0308
G2 X13.2385 Y1.4668 I0.9224 J-0.0047
G2 X14.156 Y0.5494 I-0.0049 J-0.9224
G2 X13.2382 Y-0.3682 I-0.9227 J0.0051
G2 X12.3215 Y0.5227 I0.0046 J0.9217
G1 F300.0 Z-1.8
G2 F800.0 X12.321 Y0.5491 I0.9212 J0.0308
G2 X13.2385 Y1.4668 I0.9224 J-0.0047
G2 X14.156 Y0.5494 I-0.0049 J-0.9224
G2 X13.2382 Y-0.3682 I-0.9227 J0.0051
G2 X12.3215 Y0.5227 I0.0046 J0.9217
G1 F300.0 Z-1.9
G2 F800.0 X12.321 Y0.5491 I0.9212 J0.0308
G2 X13.2385 Y1.4668 I0.9224 J-0.0047
G2 X14.156 Y0.5494 I-0.0049 J-0.9224
G2 X13.2382 Y-0.3682 I-0.9227 J0.0051
G2 X12.3215 Y0.5227 I0.0046 J0.9217
G1 F300.0 Z-2.0
G2 F800.0 X12.321 Y0.5491 I0.9212 J0.0308
G2 X13.2385 Y1.4668 I0.9224 J-0.0047
G2 X14.156 Y0.5494 I-0.0049 J-0.9224
G2 X13.2382 Y-0.3682 I-0.9227 J0.0051
G2 X12.3215 Y0.5227 I0.0046 J0.9217
G1 F300.0 Z-2.1
G2 F800.0 X12.321 Y0.5491 I0.9212 J0.0308
G2 X13.2385 Y1.4668 I0.9224 J-0.0047
G2 X14.156 Y0.5494 I-0.0049 J-0.9224
G2 X13.2382 Y-0.3682 I-0.9227 J0.0051
G2 X12.3215 Y0.5227 I0.0046 J0.9217
G1 F300.0 Z-2.2
G2 F800.0 X12.321 Y0.5491 I0.9212 J0.0308
G2 X13.2385 Y1.4668 I0.9224 J-0.0047
G2 X14.156 Y0.5494 I-0.0049 J-0.9224
G2 X13.2382 Y-0.3682 I-0.9227 J0.0051
G2 X12.3215 Y0.5227 I0.0046 J0.9217
G1 F300.0 Z-2.3
G2 F800.0 X12.321 Y0.5491 I0.9212 J0.0308
G2 X13.2385 Y1.4668 I0.9224 J-0.0047
G2 X14.156 Y0.5494 I-0.0049 J-0.9224
G2 X13.2382 Y-0.3682 I-0.9227 J0.0051
G2 X12.3215 Y0.5227 I0.0046 J0.9217
G1 F300.0 Z-2.4
G2 F800.0 X12.321 Y0.5491 I0.9212 J0.0308
G2 X13.2385 Y1.4668 I0.9224 J-0.0047
G2 X14.156 Y0.5494 I-0.0049 J-0.9224
G2 X13.2382 Y-0.3682 I-0.9227 J0.0051
G2 X12.3215 Y0.5227 I0.0046 J0.9217
G1 F300.0 Z-2.5
G2 F800.0 X12.321 Y0.5491 I0.9212 J0.0308
G2 X13.2385 Y1.4668 I0.9224 J-0.0047
G2 X14.156 Y0.5494 I-0.0049 J-0.9224
G2 X13.2382 Y-0.3682 I-0.9227 J0.0051
G2 X12.3215 Y0.5227 I0.0046 J0.9217
G1 F300.0 Z-2.6
G2 F800.0 X12.321 Y0.5491 I0.9212 J0.0308
G2 X13.2385 Y1.4668 I0.9224 J-0.0047
G2 X14.156 Y0.5494 I-0.0049 J-0.9224
G2 X13.2382 Y-0.3682 I-0.9227 J0.0051
G2 X12.3215 Y0.5227 I0.0046 J0.9217
G1 F300.0 Z-2.7
G2 F800.0 X12.321 Y0.5491 I0.9212 J0.0308
G2 X13.2385 Y1.4668 I0.9224 J-0.0047
G2 X14.156 Y0.5494 I-0.0049 J-0.9224
G2 X13.2382 Y-0.3682 I-0.9227 J0.0051
G2 X12.3215 Y0.5227 I0.0046 J0.9217
G1 F300.0 Z-2.8
G2 F800.0 X12.321 Y0.5491 I0.9212 J0.0308
G2 X13.2385 Y1.4668 I0.9224 J-0.0047
G2 X14.156 Y0.5494 I-0.0049 J-0.9224
G2 X13.2382 Y-0.3682 I-0.9227 J0.0051
G2 X12.3215 Y0.5227 I0.0046 J0.9217
G1 F300.0 Z-2.9
G2 F800.0 X12.321 Y0.5491 I0.9212 J0.0308
G2 X13.2385 Y1.4668 I0.9224 J-0.0047
G2 X14.156 Y0.5494 I-0.0049 J-0.9224
G2 X13.2382 Y-0.3682 I-0.9227 J0.0051
G2 X12.3215 Y0.5227 I0.0046 J0.9217
G1 F300.0 Z-3.0
G2 F800.0 X12.321 Y0.5491 I0.9212 J0.0308
G2 X13.2385 Y1.4668 I0.9224 J-0.0047
G2 X14.156 Y0.5494 I-0.0049 J-0.9224
G2 X13.2382 Y-0.3682 I-0.9227 J0.0051
G2 X12.3215 Y0.5227 I0.0046 J0.9217
G1 F300.0 Z-3.1
G2 F800.0 X12.321 Y0.5491 I0.9212 J0.0308
G2 X13.2385 Y1.4668 I0.9224 J-0.0047
G2 X14.156 Y0.5494 I-0.0049 J-0.9224
G2 X13.2382 Y-0.3682 I-0.9227 J0.0051
G2 X12.3215 Y0.5227 I0.0046 J0.9217
G1 F300.0 Z-3.2
G2 F800.0 X12.321 Y0.5491 I0.9212 J0.0308
G2 X13.2385 Y1.4668 I0.9224 J-0.0047
G2 X14.156 Y0.5494 I-0.0049 J-0.9224
G2 X13.2382 Y-0.3682 I-0.9227 J0.0051
G2 X12.3215 Y0.5227 I0.0046 J0.9217
G1 F300.0 Z-3.3
G2 F800.0 X12.321 Y0.5491 I0.9212 J0.0308
G2 X13.2385 Y1.4668 I0.9224 J-0.0047
G2 X14.156 Y0.5494 I-0.0049 J-0.9224
G2 X13.2382 Y-0.3682 I-0.9227 J0.0051
G2 X12.3215 Y0.5227 I0.0046 J0.9217
G0 Z3.0
G0 X13.1602 Y-8.7529
G1 F300.0 Z-0.1
G2 F800.0 X13.2384 Y-8.7491 I0.0831 J-0.9185
G2 X14.156 Y-9.6665 I-0.0049 J-0.9224
G2 X13.2382 Y-10.5841 I-0.9227 J0.0051
G2 X12.321 Y-9.6668 I0.0046 J0.9218
G2 X13.1602 Y-8.7529 I0.9223 J-0.0046
G1 F300.0 Z-0.2
G2 F800.0 X13.2384 Y-8.7491 I0.0831 J-0.9185
G2 X14.156 Y-9.6665 I-0.0049 J-0.9224
G2 X13.2382 Y-10.5841 I-0.9227 J0.0051
G2 X12.321 Y-9.6668 I0.0046 J0.9218
G2 X13.1602 Y-8.7529 I0.9223 J-0.0046
G1 F300.0 Z-0.3
G2 F800.0 X13.2384 Y-8.7491 I0.0831 J-0.9185
G2 X14.156 Y-9.6665 I-0.0049 J-0.9224
G2 X13.2382 Y-10.5841 I-0.9227 J0.0051
G2 X12.321 Y-9.6668 I0.0046 J0.9218
G2 X13.1602 Y-8.7529 I0.9223 J-0.0046
G1 F300.0 Z-0.4
G2 F800.0 X13.2384 Y-8.7491 I0.0831 J-0.9185
G2 X14.156 Y-9.6665 I-0.0049 J-0.9224
G2 X13.2382 Y-10.5841 I-0.9227 J0.0051
G2 X12.321 Y-9.6668 I0.0046 J0.9218
G2 X13.1602 Y-8.7529 I0.9223 J-0.0046
G1 F300.0 Z-0.5
G2 F800.0 X13.2384 Y-8.7491 I0.0831 J-0.9185
G2 X14.156 Y-9.6665 I-0.0049 J-0.9224
G2 X13.2382 Y-10.5841 I-0.9227 J0.0051
G2 X12.321 Y-9.6668 I0.0046 J0.9218
G2 X13.1602 Y-8.7529 I0.9223 J-0.0046
G1 F300.0 Z-0.6
G2 F800.0 X13.2384 Y-8.7491 I0.0831 J-0.9185
G2 X14.156 Y-9.6665 I-0.0049 J-0.9224
G2 X13.2382 Y-10.5841 I-0.9227 J0.0051
G2 X12.321 Y-9.6668 I0.0046 J0.9218
G2 X13.1602 Y-8.7529 I0.9223 J-0.0046
G1 F300.0 Z-0.7
G2 F800.0 X13.2384 Y-8.7491 I0.0831 J-0.9185
G2 X14.156 Y-9.6665 I-0.0049 J-0.9224
G2 X13.2382 Y-10.5841 I-0.9227 J0.0051
G2 X12.321 Y-9.6668 I0.0046 J0.9218
G2 X13.1602 Y-8.7529 I0.9223 J-0.0046
G1 F300.0 Z-0.8
G2 F800.0 X13.2384 Y-8.7491 I0.0831 J-0.9185
G2 X14.156 Y-9.6665 I-0.0049 J-0.9224
G2 X13.2382 Y-10.5841 I-0.9227 J0.0051
G2 X12.321 Y-9.6668 I0.0046 J0.9218
G2 X13.1602 Y-8.7529 I0.9223 J-0.0046
G1 F300.0 Z-0.9
G2 F800.0 X13.2384 Y-8.7491 I0.0831 J-0.9185
G2 X14.156 Y-9.6665 I-0.0049 J-0.9224
G2 X13.2382 Y-10.5841 I-0.9227 J0.0051
G2 X12.321 Y-9.6668 I0.0046 J0.9218
G2 X13.1602 Y-8.7529 I0.9223 J-0.0046
G1 F300.0 Z-1.0
G2 F800.0 X13.2384 Y-8.7491 I0.0831 J-0.9185
G2 X14.156 Y-9.6665 I-0.0049 J-0.9224
G2 X13.2382 Y-10.5841 I-0.9227 J0.0051
G2 X12.321 Y-9.6668 I0.0046 J0.9218
G2 X13.1602 Y-8.7529 I0.9223 J-0.0046
G1 F300.0 Z-1.1
G2 F800.0 X13.2384 Y-8.7491 I0.0831 J-0.9185
G2 X14.156 Y-9.6665 I-0.0049 J-0.9224
G2 X13.2382 Y-10.5841 I-0.9227 J0.0051
G2 X12.321 Y-9.6668 I0.0046 J0.9218
G2 X13.1602 Y-8.7529 I0.9223 J-0.0046
G1 F300.0 Z-1.2
G2 F800.0 X13.2384 Y-8.7491 I0.0831 J-0.9185
G2 X14.156 Y-9.6665 I-0.0049 J-0.9224
G2 X13.2382 Y-10.5841 I-0.9227 J0.0051
G2 X12.321 Y-9.6668 I0.0046 J0.9218
G2 X13.1602 Y-8.7529 I0.9223 J-0.0046
G1 F300.0 Z-1.3
G2 F800.0 X13.2384 Y-8.7491 I0.0831 J-0.9185
G2 X14.156 Y-9.6665 I-0.0049 J-0.9224
G2 X13.2382 Y-10.5841 I-0.9227 J0.0051
G2 X12.321 Y-9.6668 I0.0046 J0.9218
G2 X13.1602 Y-8.7529 I0.9223 J-0.0046
G1 F300.0 Z-1.4
G2 F800.0 X13.2384 Y-8.7491 I0.0831 J-0.9185
G2 X14.156 Y-9.6665 I-0.0049 J-0.9224
G2 X13.2382 Y-10.5841 I-0.9227 J0.0051
G2 X12.321 Y-9.6668 I0.0046 J0.9218
G2 X13.1602 Y-8.7529 I0.9223 J-0.0046
G1 F300.0 Z-1.5
G2 F800.0 X13.2384 Y-8.7491 I0.0831 J-0.9185
G2 X14.156 Y-9.6665 I-0.0049 J-0.9224
G2 X13.2382 Y-10.5841 I-0.9227 J0.0051
G2 X12.321 Y-9.6668 I0.0046 J0.9218
G2 X13.1602 Y-8.7529 I0.9223 J-0.0046
G1 F300.0 Z-1.6
G2 F800.0 X13.2384 Y-8.7491 I0.0831 J-0.9185
G2 X14.156 Y-9.6665 I-0.0049 J-0.9224
G2 X13.2382 Y-10.5841 I-0.9227 J0.0051
G2 X12.321 Y-9.6668 I0.0046 J0.9218
G2 X13.1602 Y-8.7529 I0.9223 J-0.0046
G1 F300.0 Z-1.7
G2 F800.0 X13.2384 Y-8.7491 I0.0831 J-0.9185
G2 X14.156 Y-9.6665 I-0.0049 J-0.9224
G2 X13.2382 Y-10.5841 I-0.9227 J0.0051
G2 X12.321 Y-9.6668 I0.0046 J0.9218
G2 X13.1602 Y-8.7529 I0.9223 J-0.0046
G1 F300.0 Z-1.8
G2 F800.0 X13.2384 Y-8.7491 I0.0831 J-0.9185
G2 X14.156 Y-9.6665 I-0.0049 J-0.9224
G2 X13.2382 Y-10.5841 I-0.9227 J0.0051
G2 X12.321 Y-9.6668 I0.0046 J0.9218
G2 X13.1602 Y-8.7529 I0.9223 J-0.0046
G1 F300.0 Z-1.9
G2 F800.0 X13.2384 Y-8.7491 I0.0831 J-0.9185
G2 X14.156 Y-9.6665 I-0.0049 J-0.9224
G2 X13.2382 Y-10.5841 I-0.9227 J0.0051
G2 X12.321 Y-9.6668 I0.0046 J0.9218
G2 X13.1602 Y-8.7529 I0.9223 J-0.0046
G1 F300.0 Z-2.0
G2 F800.0 X13.2384 Y-8.7491 I0.0831 J-0.9185
G2 X14.156 Y-9.6665 I-0.0049 J-0.9224
G2 X13.2382 Y-10.5841 I-0.9227 J0.0051
G2 X12.321 Y-9.6668 I0.0046 J0.9218
G2 X13.1602 Y-8.7529 I0.9223 J-0.0046
G1 F300.0 Z-2.1
G2 F800.0 X13.2384 Y-8.7491 I0.0831 J-0.9185
G2 X14.156 Y-9.6665 I-0.0049 J-0.9224
G2 X13.2382 Y-10.5841 I-0.9227 J0.0051
G2 X12.321 Y-9.6668 I0.0046 J0.9218
G2 X13.1602 Y-8.7529 I0.9223 J-0.0046
G1 F300.0 Z-2.2
G2 F800.0 X13.2384 Y-8.7491 I0.0831 J-0.9185
G2 X14.156 Y-9.6665 I-0.0049 J-0.9224
G2 X13.2382 Y-10.5841 I-0.9227 J0.0051
G2 X12.321 Y-9.6668 I0.0046 J0.9218
G2 X13.1602 Y-8.7529 I0.9223 J-0.0046
G1 F300.0 Z-2.3
G2 F800.0 X13.2384 Y-8.7491 I0.0831 J-0.9185
G2 X14.156 Y-9.6665 I-0.0049 J-0.9224
G2 X13.2382 Y-10.5841 I-0.9227 J0.0051
G2 X12.321 Y-9.6668 I0.0046 J0.9218
G2 X13.1602 Y-8.7529 I0.9223 J-0.0046
G1 F300.0 Z-2.4
G2 F800.0 X13.2384 Y-8.7491 I0.0831 J-0.9185
G2 X14.156 Y-9.6665 I-0.0049 J-0.9224
G2 X13.2382 Y-10.5841 I-0.9227 J0.0051
G2 X12.321 Y-9.6668 I0.0046 J0.9218
G2 X13.1602 Y-8.7529 I0.9223 J-0.0046
G1 F300.0 Z-2.5
G2 F800.0 X13.2384 Y-8.7491 I0.0831 J-0.9185
G2 X14.156 Y-9.6665 I-0.0049 J-0.9224
G2 X13.2382 Y-10.5841 I-0.9227 J0.0051
G2 X12.321 Y-9.6668 I0.0046 J0.9218
G2 X13.1602 Y-8.7529 I0.9223 J-0.0046
G1 F300.0 Z-2.6
G2 F800.0 X13.2384 Y-8.7491 I0.0831 J-0.9185
G2 X14.156 Y-9.6665 I-0.0049 J-0.9224
G2 X13.2382 Y-10.5841 I-0.9227 J0.0051
G2 X12.321 Y-9.6668 I0.0046 J0.9218
G2 X13.1602 Y-8.7529 I0.9223 J-0.0046
G1 F300.0 Z-2.7
G2 F800.0 X13.2384 Y-8.7491 I0.0831 J-0.9185
G2 X14.156 Y-9.6665 I-0.0049 J-0.9224
G2 X13.2382 Y-10.5841 I-0.9227 J0.0051
G2 X12.321 Y-9.6668 I0.0046 J0.9218
G2 X13.1602 Y-8.7529 I0.9223 J-0.0046
G1 F300.0 Z-2.8
G2 F800.0 X13.2384 Y-8.7491 I0.0831 J-0.9185
G2 X14.156 Y-9.6665 I-0.0049 J-0.9224
G2 X13.2382 Y-10.5841 I-0.9227 J0.0051
G2 X12.321 Y-9.6668 I0.0046 J0.9218
G2 X13.1602 Y-8.7529 I0.9223 J-0.0046
G1 F300.0 Z-2.9
G2 F800.0 X13.2384 Y-8.7491 I0.0831 J-0.9185
G2 X14.156 Y-9.6665 I-0.0049 J-0.9224
G2 X13.2382 Y-10.5841 I-0.9227 J0.0051
G2 X12.321 Y-9.6668 I0.0046 J0.9218
G2 X13.1602 Y-8.7529 I0.9223 J-0.0046
G1 F300.0 Z-3.0
G2 F800.0 X13.2384 Y-8.7491 I0.0831 J-0.9185
G2 X14.156 Y-9.6665 I-0.0049 J-0.9224
G2 X13.2382 Y-10.5841 I-0.9227 J0.0051
G2 X12.321 Y-9.6668 I0.0046 J0.9218
G2 X13.1602 Y-8.7529 I0.9223 J-0.0046
G1 F300.0 Z-3.1
G2 F800.0 X13.2384 Y-8.7491 I0.0831 J-0.9185
G2 X14.156 Y-9.6665 I-0.0049 J-0.9224
G2 X13.2382 Y-10.5841 I-0.9227 J0.0051
G2 X12.321 Y-9.6668 I0.0046 J0.9218
G2 X13.1602 Y-8.7529 I0.9223 J-0.0046
G1 F300.0 Z-3.2
G2 F800.0 X13.2384 Y-8.7491 I0.0831 J-0.9185
G2 X14.156 Y-9.6665 I-0.0049 J-0.9224
G2 X13.2382 Y-10.5841 I-0.9227 J0.0051
G2 X12.321 Y-9.6668 I0.0046 J0.9218
G2 X13.1602 Y-8.7529 I0.9223 J-0.0046
G1 F300.0 Z-3.3
G2 F800.0 X13.2384 Y-8.7491 I0.0831 J-0.9185
G2 X14.156 Y-9.6665 I-0.0049 J-0.9224
G2 X13.2382 Y-10.5841 I-0.9227 J0.0051
G2 X12.321 Y-9.6668 I0.0046 J0.9218
G2 X13.1602 Y-8.7529 I0.9223 J-0.0046
( 4Regtangle )
S1000
G0 Z3.0
G0 X25.8871 Y22.273
G1 F300.0 Z-0.2
G1 F800.0 Y13.4293
G1 X25.5166
G1 Y22.273
G1 X25.8871
G1 F300.0 Z-0.4
G1 F800.0 Y13.4293
G1 X25.5166
G1 Y22.273
G1 X25.8871
G1 F300.0 Z-0.6
G1 F800.0 Y13.4293
G1 X25.5166
G1 Y22.273
G1 X25.8871
G1 F300.0 Z-0.8
G1 F800.0 Y13.4293
G1 X25.5166
G1 Y22.273
G1 X25.8871
G1 F300.0 Z-1.0
G1 F800.0 Y13.4293
G1 X25.5166
G1 Y22.273
G1 X25.8871
G1 F300.0 Z-1.2
G1 F800.0 Y13.4293
G1 X25.5166
G1 Y22.273
G1 X25.8871
G1 F300.0 Z-1.4
G1 F800.0 Y13.4293
G1 X25.5166
G1 Y22.273
G1 X25.8871
G1 F300.0 Z-1.6
G1 F800.0 Y13.4293
G1 X25.5166
G1 Y22.273
G1 X25.8871
G1 F300.0 Z-1.8
G1 F800.0 Y13.4293
G1 X25.5166
G1 Y22.273
G1 X25.8871
G1 F300.0 Z-2.0
G1 F800.0 Y13.4293
G1 X25.5166
G1 Y22.273
G1 X25.8871
G1 F300.0 Z-2.2
G1 F800.0 Y13.4293
G1 X25.5166
G1 Y22.273
G1 X25.8871
G1 F300.0 Z-2.4
G1 F800.0 Y13.4293
G1 X25.5166
G1 Y22.273
G1 X25.8871
G1 F300.0 Z-2.6
G1 F800.0 Y13.4293
G1 X25.5166
G1 Y22.273
G1 X25.8871
G1 F300.0 Z-2.8
G1 F800.0 Y13.4293
G1 X25.5166
G1 Y22.273
G1 X25.8871
G1 F300.0 Z-3.0
G1 F800.0 Y13.4293
G1 X25.5166
G1 Y22.273
G1 X25.8871
G1 F300.0 Z-3.2
G1 F800.0 Y13.4293
G1 X25.5166
G1 Y22.273
G1 X25.8871
G1 F300.0 Z-3.3
G1 F800.0 Y13.4293
G1 X25.5166
G1 Y22.273
G1 X25.8871
G0 Z3.0
G0 Y-17.8394
G1 F300.0 Z-0.2
G1 F800.0 Y-28.3858
G1 X25.5166
G1 Y-17.8394
G1 X25.8871
G1 F300.0 Z-0.4
G1 F800.0 Y-28.3858
G1 X25.5166
G1 Y-17.8394
G1 X25.8871
G1 F300.0 Z-0.6
G1 F800.0 Y-28.3858
G1 X25.5166
G1 Y-17.8394
G1 X25.8871
G1 F300.0 Z-0.8
G1 F800.0 Y-28.3858
G1 X25.5166
G1 Y-17.8394
G1 X25.8871
G1 F300.0 Z-1.0
G1 F800.0 Y-28.3858
G1 X25.5166
G1 Y-17.8394
G1 X25.8871
G1 F300.0 Z-1.2
G1 F800.0 Y-28.3858
G1 X25.5166
G1 Y-17.8394
G1 X25.8871
G1 F300.0 Z-1.4
G1 F800.0 Y-28.3858
G1 X25.5166
G1 Y-17.8394
G1 X25.8871
G1 F300.0 Z-1.6
G1 F800.0 Y-28.3858
G1 X25.5166
G1 Y-17.8394
G1 X25.8871
G1 F300.0 Z-1.8
G1 F800.0 Y-28.3858
G1 X25.5166
G1 Y-17.8394
G1 X25.8871
G1 F300.0 Z-2.0
G1 F800.0 Y-28.3858
G1 X25.5166
G1 Y-17.8394
G1 X25.8871
G1 F300.0 Z-2.2
G1 F800.0 Y-28.3858
G1 X25.5166
G1 Y-17.8394
G1 X25.8871
G1 F300.0 Z-2.4
G1 F800.0 Y-28.3858
G1 X25.5166
G1 Y-17.8394
G1 X25.8871
G1 F300.0 Z-2.6
G1 F800.0 Y-28.3858
G1 X25.5166
G1 Y-17.8394
G1 X25.8871
G1 F300.0 Z-2.8
G1 F800.0 Y-28.3858
G1 X25.5166
G1 Y-17.8394
G1 X25.8871
G1 F300.0 Z-3.0
G1 F800.0 Y-28.3858
G1 X25.5166
G1 Y-17.8394
G1 X25.8871
G1 F300.0 Z-3.2
G1 F800.0 Y-28.3858
G1 X25.5166
G1 Y-17.8394
G1 X25.8871
G1 F300.0 Z-3.3
G1 F800.0 Y-28.3858
G1 X25.5166
G1 Y-17.8394
G1 X25.8871
G0 Z3.0
G0 X-26.5945
G1 F300.0 Z-0.2
G1 F800.0 Y-28.3858
G1 X-26.965
G1 Y-17.8394
G1 X-26.5945
G1 F300.0 Z-0.4
G1 F800.0 Y-28.3858
G1 X-26.965
G1 Y-17.8394
G1 X-26.5945
G1 F300.0 Z-0.6
G1 F800.0 Y-28.3858
G1 X-26.965
G1 Y-17.8394
G1 X-26.5945
G1 F300.0 Z-0.8
G1 F800.0 Y-28.3858
G1 X-26.965
G1 Y-17.8394
G1 X-26.5945
G1 F300.0 Z-1.0
G1 F800.0 Y-28.3858
G1 X-26.965
G1 Y-17.8394
G1 X-26.5945
G1 F300.0 Z-1.2
G1 F800.0 Y-28.3858
G1 X-26.965
G1 Y-17.8394
G1 X-26.5945
G1 F300.0 Z-1.4
G1 F800.0 Y-28.3858
G1 X-26.965
G1 Y-17.8394
G1 X-26.5945
G1 F300.0 Z-1.6
G1 F800.0 Y-28.3858
G1 X-26.965
G1 Y-17.8394
G1 X-26.5945
G1 F300.0 Z-1.8
G1 F800.0 Y-28.3858
G1 X-26.965
G1 Y-17.8394
G1 X-26.5945
G1 F300.0 Z-2.0
G1 F800.0 Y-28.3858
G1 X-26.965
G1 Y-17.8394
G1 X-26.5945
G1 F300.0 Z-2.2
G1 F800.0 Y-28.3858
G1 X-26.965
G1 Y-17.8394
G1 X-26.5945
G1 F300.0 Z-2.4
G1 F800.0 Y-28.3858
G1 X-26.965
G1 Y-17.8394
G1 X-26.5945
G1 F300.0 Z-2.6
G1 F800.0 Y-28.3858
G1 X-26.965
G1 Y-17.8394
G1 X-26.5945
G1 F300.0 Z-2.8
G1 F800.0 Y-28.3858
G1 X-26.965
G1 Y-17.8394
G1 X-26.5945
G1 F300.0 Z-3.0
G1 F800.0 Y-28.3858
G1 X-26.965
G1 Y-17.8394
G1 X-26.5945
G1 F300.0 Z-3.2
G1 F800.0 Y-28.3858
G1 X-26.965
G1 Y-17.8394
G1 X-26.5945
G1 F300.0 Z-3.3
G1 F800.0 Y-28.3858
G1 X-26.965
G1 Y-17.8394
G1 X-26.5945
G0 Z3.0
G0 Y13.4293
G1 F300.0 Z-0.2
G1 F800.0 X-26.965
G1 Y22.273
G1 X-26.5945
G1 Y13.4293
G1 F300.0 Z-0.4
G1 F800.0 X-26.965
G1 Y22.273
G1 X-26.5945
G1 Y13.4293
G1 F300.0 Z-0.6
G1 F800.0 X-26.965
G1 Y22.273
G1 X-26.5945
G1 Y13.4293
G1 F300.0 Z-0.8
G1 F800.0 X-26.965
G1 Y22.273
G1 X-26.5945
G1 Y13.4293
G1 F300.0 Z-1.0
G1 F800.0 X-26.965
G1 Y22.273
G1 X-26.5945
G1 Y13.4293
G1 F300.0 Z-1.2
G1 F800.0 X-26.965
G1 Y22.273
G1 X-26.5945
G1 Y13.4293
G1 F300.0 Z-1.4
G1 F800.0 X-26.965
G1 Y22.273
G1 X-26.5945
G1 Y13.4293
G1 F300.0 Z-1.6
G1 F800.0 X-26.965
G1 Y22.273
G1 X-26.5945
G1 Y13.4293
G1 F300.0 Z-1.8
G1 F800.0 X-26.965
G1 Y22.273
G1 X-26.5945
G1 Y13.4293
G1 F300.0 Z-2.0
G1 F800.0 X-26.965
G1 Y22.273
G1 X-26.5945
G1 Y13.4293
G1 F300.0 Z-2.2
G1 F800.0 X-26.965
G1 Y22.273
G1 X-26.5945
G1 Y13.4293
G1 F300.0 Z-2.4
G1 F800.0 X-26.965
G1 Y22.273
G1 X-26.5945
G1 Y13.4293
G1 F300.0 Z-2.6
G1 F800.0 X-26.965
G1 Y22.273
G1 X-26.5945
G1 Y13.4293
G1 F300.0 Z-2.8
G1 F800.0 X-26.965
G1 Y22.273
G1 X-26.5945
G1 Y13.4293
G1 F300.0 Z-3.0
G1 F800.0 X-26.965
G1 Y22.273
G1 X-26.5945
G1 Y13.4293
G1 F300.0 Z-3.2
G1 F800.0 X-26.965
G1 Y22.273
G1 X-26.5945
G1 Y13.4293
G1 F300.0 Z-3.3
G1 F800.0 X-26.965
G1 Y22.273
G1 X-26.5945
G1 Y13.4293
( FrameBottom )
S1000
G0 Z3.0
G0 X55.4518 Y0.5361
G1 F300.0 Z-0.2
G3 F800.0 X-27.8691 Y48.6415 I-55.5473 J0.0
G3 Y-47.5692 I27.7736 J-48.1054
G3 X55.4518 Y0.5361 I27.7736 J48.1054
G1 F300.0 Z-0.4
G3 F800.0 X-27.8691 Y48.6415 I-55.5473 J0.0
G3 Y-47.5692 I27.7736 J-48.1054
G3 X55.4518 Y0.5361 I27.7736 J48.1054
G1 F300.0 Z-0.6
G3 F800.0 X-27.8691 Y48.6415 I-55.5473 J0.0
G3 Y-47.5692 I27.7736 J-48.1054
G3 X55.4518 Y0.5361 I27.7736 J48.1054
G1 F300.0 Z-0.8
G3 F800.0 X-27.8691 Y48.6415 I-55.5473 J0.0
G3 Y-47.5692 I27.7736 J-48.1054
G3 X55.4518 Y0.5361 I27.7736 J48.1054
G1 F300.0 Z-1.0
G3 F800.0 X-27.8691 Y48.6415 I-55.5473 J0.0
G3 Y-47.5692 I27.7736 J-48.1054
G3 X55.4518 Y0.5361 I27.7736 J48.1054
G1 F300.0 Z-1.2
G3 F800.0 X-27.8691 Y48.6415 I-55.5473 J0.0
G3 Y-47.5692 I27.7736 J-48.1054
G3 X55.4518 Y0.5361 I27.7736 J48.1054
G1 F300.0 Z-1.4
G3 F800.0 X-27.8691 Y48.6415 I-55.5473 J0.0
G3 Y-47.5692 I27.7736 J-48.1054
G3 X55.4518 Y0.5361 I27.7736 J48.1054
G1 F300.0 Z-1.6
G3 F800.0 X-27.8691 Y48.6415 I-55.5473 J0.0
G3 Y-47.5692 I27.7736 J-48.1054
G3 X55.4518 Y0.5361 I27.7736 J48.1054
G1 F300.0 Z-1.8
G3 F800.0 X-27.8691 Y48.6415 I-55.5473 J0.0
G3 Y-47.5692 I27.7736 J-48.1054
G3 X55.4518 Y0.5361 I27.7736 J48.1054
G1 F300.0 Z-2.0
G3 F800.0 X-27.8691 Y48.6415 I-55.5473 J0.0
G3 Y-47.5692 I27.7736 J-48.1054
G3 X55.4518 Y0.5361 I27.7736 J48.1054
G1 F300.0 Z-2.2
G3 F800.0 X-27.8691 Y48.6415 I-55.5473 J0.0
G3 Y-47.5692 I27.7736 J-48.1054
G3 X55.4518 Y0.5361 I27.7736 J48.1054
G1 F300.0 Z-2.4
G3 F800.0 X-27.8691 Y48.6415 I-55.5473 J0.0
G3 Y-47.5692 I27.7736 J-48.1054
G3 X55.4518 Y0.5361 I27.7736 J48.1054
G1 F300.0 Z-2.6
G3 F800.0 X-27.8691 Y48.6415 I-55.5473 J0.0
G3 Y-47.5692 I27.7736 J-48.1054
G3 X55.4518 Y0.5361 I27.7736 J48.1054
G1 F300.0 Z-2.8
G3 F800.0 X-27.8691 Y48.6415 I-55.5473 J0.0
G3 Y-47.5692 I27.7736 J-48.1054
G3 X55.4518 Y0.5361 I27.7736 J48.1054
G1 F300.0 Z-3.0
G3 F800.0 X-27.8691 Y48.6415 I-55.5473 J0.0
G3 Y-47.5692 I27.7736 J-48.1054
G3 X55.4518 Y0.5361 I27.7736 J48.1054
G1 F300.0 Z-3.2
G3 F800.0 X-27.8691 Y48.6415 I-55.5473 J0.0
G3 Y-47.5692 I27.7736 J-48.1054
G3 X55.4518 Y0.5361 I27.7736 J48.1054
G1 F300.0 Z-3.3
G3 F800.0 X-27.8691 Y48.6415 I-55.5473 J0.0
G3 Y-47.5692 I27.7736 J-48.1054
G3 X55.4518 Y0.5361 I27.7736 J48.1054
G0 Z3.0
M5
M30
( Profile1 )
M3 S1000
G0 Z0.125
M5
M30
( Profile1 )
M3 S1000
G0 Z3.0
M5
M30
( Profile1 )
M3 S1000
M5
M30
M30
( Profile1 )
M3 S1000
G0 X1.058 Y45.27
G1 F300.0 Z0.0
G2 F800.0 X-0.3108 Y44.4797 Z-0.0667 I-0.9125 J0.0
G2 Y46.0602 Z-0.1333 I0.4563 J0.7902
G2 X1.058 Y45.27 Z-0.2 I0.4562 J-0.7902
G2 X-0.3108 Y44.4797 Z-0.2667 I-0.9125 J0.0
G2 Y46.0602 Z-0.3333 I0.4563 J0.7902
G2 X1.058 Y45.27 Z-0.4 I0.4562 J-0.7902
G2 X-0.3108 Y44.4797 Z-0.4667 I-0.9125 J0.0
G2 Y46.0602 Z-0.5333 I0.4563 J0.7902
G2 X1.058 Y45.27 Z-0.6 I0.4562 J-0.7902
G2 X-0.3108 Y44.4797 Z-0.6667 I-0.9125 J0.0
G2 Y46.0602 Z-0.7333 I0.4563 J0.7902
G2 X1.058 Y45.27 Z-0.8 I0.4562 J-0.7902
G2 X-0.3108 Y44.4797 Z-0.8667 I-0.9125 J0.0
G2 Y46.0602 Z-0.9333 I0.4563 J0.7902
G2 X1.058 Y45.27 Z-1.0 I0.4562 J-0.7902
G2 X-0.3108 Y44.4797 Z-1.0667 I-0.9125 J0.0
G2 Y46.0602 Z-1.1333 I0.4563 J0.7902
G2 X1.058 Y45.27 Z-1.2 I0.4562 J-0.7902
G2 X-0.3108 Y44.4797 Z-1.2667 I-0.9125 J0.0
G2 Y46.0602 Z-1.3333 I0.4563 J0.7902
G2 X1.058 Y45.27 Z-1.4 I0.4562 J-0.7902
G2 X-0.3108 Y44.4797 Z-1.4667 I-0.9125 J0.0
G2 Y46.0602 Z-1.5333 I0.4563 J0.7902
G2 X1.058 Y45.27 Z-1.6 I0.4562 J-0.7902
G2 X-0.3108 Y44.4797 Z-1.6667 I-0.9125 J0.0
G2 Y46.0602 Z-1.7333 I0.4563 J0.7902
G2 X1.058 Y45.27 Z-1.8 I0.4562 J-0.7902
G2 X-0.3108 Y44.4797 Z-1.8667 I-0.9125 J0.0
G2 Y46.0602 Z-1.9333 I0.4563 J0.7902
G2 X1.058 Y45.27 Z-2.0 I0.4562 J-0.7902
G2 X-0.3108 Y44.4797 Z-2.0667 I-0.9125 J0.0
G2 Y46.0602 Z-2.1333 I0.4563 J0.7902
G2 X1.058 Y45.27 Z-2.2 I0.4562 J-0.7902
G2 X-0.3108 Y44.4797 Z-2.2667 I-0.9125 J0.0
G2 Y46.0602 Z-2.3333 I0.4563 J0.7902
G2 X1.058 Y45.27 Z-2.4 I0.4562 J-0.7902
G2 X-0.3108 Y44.4797 Z-2.4667 I-0.9125 J0.0
G2 Y46.0602 Z-2.5333 I0.4563 J0.7902
G2 X1.058 Y45.27 Z-2.6 I0.4562 J-0.7902
G2 X-0.3108 Y44.4797 Z-2.6667 I-0.9125 J0.0
G2 Y46.0602 Z-2.7333 I0.4563 J0.7902
G2 X1.058 Y45.27 Z-2.8 I0.4562 J-0.7902
G2 X-0.3108 Y44.4797 Z-2.8667 I-0.9125 J0.0
G2 Y46.0602 Z-2.9333 I0.4563 J0.7902
G2 X1.058 Y45.27 Z-3.0 I0.4562 J-0.7902
G2 X-0.3108 Y44.4797 Z-3.0667 I-0.9125 J0.0
G2 Y46.0602 Z-3.1333 I0.4563 J0.7902
G2 X1.058 Y45.27 Z-3.2 I0.4562 J-0.7902
G2 X-0.3108 Y44.4797 Z-3.2667 I-0.9125 J0.0
G2 Y46.0602 Z-3.3333 I0.4563 J0.7902
G2 X1.058 Y45.27 Z-3.4 I0.4562 J-0.7902
G2 X-0.3108 Y44.4797 I-0.9125 J0.0
G2 Y46.0602 I0.4563 J0.7902
G2 X1.058 Y45.27 I0.4562 J-0.7902
( Profile2 )
S1000
G0 Z3.0
G0 Y-44.2049
G1 F300.0 Z-0.2
G2 F800.0 X-0.3108 Y-44.9952 I-0.9125 J0.0
G2 Y-43.4147 I0.4563 J0.7902
G2 X1.058 Y-44.2049 I0.4562 J-0.7902
G1 F300.0 Z-0.4
G2 F800.0 X-0.3108 Y-44.9952 I-0.9125 J0.0
G2 Y-43.4147 I0.4563 J0.7902
G2 X1.058 Y-44.2049 I0.4562 J-0.7902
G1 F300.0 Z-0.6
G2 F800.0 X-0.3108 Y-44.9952 I-0.9125 J0.0
G2 Y-43.4147 I0.4563 J0.7902
G2 X1.058 Y-44.2049 I0.4562 J-0.7902
G1 F300.0 Z-0.8
G2 F800.0 X-0.3108 Y-44.9952 I-0.9125 J0.0
G2 Y-43.4147 I0.4563 J0.7902
G2 X1.058 Y-44.2049 I0.4562 J-0.7902
G1 F300.0 Z-1.0
G2 F800.0 X-0.3108 Y-44.9952 I-0.9125 J0.0
G2 Y-43.4147 I0.4563 J0.7902
G2 X1.058 Y-44.2049 I0.4562 J-0.7902
G1 F300.0 Z-1.2
G2 F800.0 X-0.3108 Y-44.9952 I-0.9125 J0.0
G2 Y-43.4147 I0.4563 J0.7902
G2 X1.058 Y-44.2049 I0.4562 J-0.7902
G1 F300.0 Z-1.4
G2 F800.0 X-0.3108 Y-44.9952 I-0.9125 J0.0
G2 Y-43.4147 I0.4563 J0.7902
G2 X1.058 Y-44.2049 I0.4562 J-0.7902
G1 F300.0 Z-1.6
G2 F800.0 X-0.3108 Y-44.9952 I-0.9125 J0.0
G2 Y-43.4147 I0.4563 J0.7902
G2 X1.058 Y-44.2049 I0.4562 J-0.7902
G1 F300.0 Z-1.8
G2 F800.0 X-0.3108 Y-44.9952 I-0.9125 J0.0
G2 Y-43.4147 I0.4563 J0.7902
G2 X1.058 Y-44.2049 I0.4562 J-0.7902
G1 F300.0 Z-2.0
G2 F800.0 X-0.3108 Y-44.9952 I-0.9125 J0.0
G2 Y-43.4147 I0.4563 J0.7902
G2 X1.058 Y-44.2049 I0.4562 J-0.7902
G1 F300.0 Z-2.2
G2 F800.0 X-0.3108 Y-44.9952 I-0.9125 J0.0
G2 Y-43.4147 I0.4563 J0.7902
G2 X1.058 Y-44.2049 I0.4562 J-0.7902
G1 F300.0 Z-2.4
G2 F800.0 X-0.3108 Y-44.9952 I-0.9125 J0.0
G2 Y-43.4147 I0.4563 J0.7902
G2 X1.058 Y-44.2049 I0.4562 J-0.7902
G1 F300.0 Z-2.6
G2 F800.0 X-0.3108 Y-44.9952 I-0.9125 J0.0
G2 Y-43.4147 I0.4563 J0.7902
G2 X1.058 Y-44.2049 I0.4562 J-0.7902
G1 F300.0 Z-2.8
G2 F800.0 X-0.3108 Y-44.9952 I-0.9125 J0.0
G2 Y-43.4147 I0.4563 J0.7902
G2 X1.058 Y-44.2049 I0.4562 J-0.7902
G1 F300.0 Z-3.0
G2 F800.0 X-0.3108 Y-44.9952 I-0.9125 J0.0
G2 Y-43.4147 I0.4563 J0.7902
G2 X1.058 Y-44.2049 I0.4562 J-0.7902
G1 F300.0 Z-3.2
G2 F800.0 X-0.3108 Y-44.9952 I-0.9125 J0.0
G2 Y-43.4147 I0.4563 J0.7902
G2 X1.058 Y-44.2049 I0.4562 J-0.7902
G1 F300.0 Z-3.4
G2 F800.0 X-0.3108 Y-44.9952 I-0.9125 J0.0
G2 Y-43.4147 I0.4563 J0.7902
G2 X1.058 Y-44.2049 I0.4562 J-0.7902
G0 Z3.0
M5
M30
( Profile1 )
M3 S1000
G0 Y45.27
G1 F300.0 Z0.0
G2 F800.0 X-0.3108 Y44.4797 Z-0.0333 I-0.9125 J0.0
G2 Y46.0602 Z-0.0667 I0.4563 J0.7902
G2 X1.058 Y45.27 Z-0.1 I0.4562 J-0.7902
G2 X-0.3108 Y44.4797 Z-0.1333 I-0.9125 J0.0
G2 Y46.0602 Z-0.1667 I0.4563 J0.7902
G2 X1.058 Y45.27 Z-0.2 I0.4562 J-0.7902
G2 X-0.3108 Y44.4797 Z-0.2333 I-0.9125 J0.0
G2 Y46.0602 Z-0.2667 I0.4563 J0.7902
G2 X1.058 Y45.27 Z-0.3 I0.4562 J-0.7902
G2 X-0.3108 Y44.4797 Z-0.3333 I-0.9125 J0.0
G2 Y46.0602 Z-0.3667 I0.4563 J0.7902
G2 X1.058 Y45.27 Z-0.4 I0.4562 J-0.7902
G2 X-0.3108 Y44.4797 Z-0.4333 I-0.9125 J0.0
G2 Y46.0602 Z-0.4667 I0.4563 J0.7902
G2 X1.058 Y45.27 Z-0.5 I0.4562 J-0.7902
G2 X-0.3108 Y44.4797 Z-0.5333 I-0.9125 J0.0
G2 Y46.0602 Z-0.5667 I0.4563 J0.7902
G2 X1.058 Y45.27 Z-0.6 I0.4562 J-0.7902
G2 X-0.3108 Y44.4797 Z-0.6333 I-0.9125 J0.0
G2 Y46.0602 Z-0.6667 I0.4563 J0.7902
G2 X1.058 Y45.27 Z-0.7 I0.4562 J-0.7902
G2 X-0.3108 Y44.4797 Z-0.7333 I-0.9125 J0.0
G2 Y46.0602 Z-0.7667 I0.4563 J0.7902
G2 X1.058 Y45.27 Z-0.8 I0.4562 J-0.7902
G2 X-0.3108 Y44.4797 Z-0.8333 I-0.9125 J0.0
G2 Y46.0602 Z-0.8667 I0.4563 J0.7902
G2 X1.058 Y45.27 Z-0.9 I0.4562 J-0.7902
G2 X-0.3108 Y44.4797 Z-0.9333 I-0.9125 J0.0
G2 Y46.0602 Z-0.9667 I0.4563 J0.7902
G2 X1.058 Y45.27 Z-1.0 I0.4562 J-0.7902
G2 X-0.3108 Y44.4797 Z-1.0333 I-0.9125 J0.0
G2 Y46.0602 Z-1.0667 I0.4563 J0.7902
G2 X1.058 Y45.27 Z-1.1 I0.4562 J-0.7902
G2 X-0.3108 Y44.4797 Z-1.1333 I-0.9125 J0.0
G2 Y46.0602 Z-1.1667 I0.4563 J0.7902
G2 X1.058 Y45.27 Z-1.2 I0.4562 J-0.7902
G2 X-0.3108 Y44.4797 Z-1.2333 I-0.9125 J0.0
G2 Y46.0602 Z-1.2667 I0.4563 J0.7902
G2 X1.058 Y45.27 Z-1.3 I0.4562 J-0.7902
G2 X-0.3108 Y44.4797 Z-1.3333 I-0.9125 J0.0
G2 Y46.0602 Z-1.3667 I0.4563 J0.7902
G2 X1.058 Y45.27 Z-1.4 I0.4562 J-0.7902
G2 X-0.3108 Y44.4797 Z-1.4333 I-0.9125 J0.0
G2 Y46.0602 Z-1.4667 I0.4563 J0.7902
G2 X1.058 Y45.27 Z-1.5 I0.4562 J-0.7902
G2 X-0.3108 Y44.4797 Z-1.5333 I-0.9125 J0.0
G2 Y46.0602 Z-1.5667 I0.4563 J0.7902
G2 X1.058 Y45.27 Z-1.6 I0.4562 J-0.7902
G2 X-0.3108 Y44.4797 Z-1.6333 I-0.9125 J0.0
G2 Y46.0602 Z-1.6667 I0.4563 J0.7902
G2 X1.058 Y45.27 Z-1.7 I0.4562 J-0.7902
G2 X-0.3108 Y44.4797 Z-1.7333 I-0.9125 J0.0
G2 Y46.0602 Z-1.7667 I0.4563 J0.7902
G2 X1.058 Y45.27 Z-1.8 I0.4562 J-0.7902
G2 X-0.3108 Y44.4797 Z-1.8333 I-0.9125 J0.0
G2 Y46.0602 Z-1.8667 I0.4563 J0.7902
G2 X1.058 Y45.27 Z-1.9 I0.4562 J-0.7902
G2 X-0.3108 Y44.4797 Z-1.9333 I-0.9125 J0.0
G2 Y46.0602 Z-1.9667 I0.4563 J0.7902
G2 X1.058 Y45.27 Z-2.0 I0.4562 J-0.7902
G2 X-0.3108 Y44.4797 Z-2.0333 I-0.9125 J0.0
G2 Y46.0602 Z-2.0667 I0.4563 J0.7902
G2 X1.058 Y45.27 Z-2.1 I0.4562 J-0.7902
G2 X-0.3108 Y44.4797 Z-2.1333 I-0.9125 J0.0
G2 Y46.0602 Z-2.1667 I0.4563 J0.7902
G2 X1.058 Y45.27 Z-2.2 I0.4562 J-0.7902
G2 X-0.3108 Y44.4797 Z-2.2333 I-0.9125 J0.0
G2 Y46.0602 Z-2.2667 I0.4563 J0.7902
G2 X1.058 Y45.27 Z-2.3 I0.4562 J-0.7902
G2 X-0.3108 Y44.4797 Z-2.3333 I-0.9125 J0.0
G2 Y46.0602 Z-2.3667 I0.4563 J0.7902
G2 X1.058 Y45.27 Z-2.4 I0.4562 J-0.7902
G2 X-0.3108 Y44.4797 Z-2.4333 I-0.9125 J0.0
G2 Y46.0602 Z-2.4667 I0.4563 J0.7902
G2 X1.058 Y45.27 Z-2.5 I0.4562 J-0.7902
G2 X-0.3108 Y44.4797 Z-2.5333 I-0.9125 J0.0
G2 Y46.0602 Z-2.5667 I0.4563 J0.7902
G2 X1.058 Y45.27 Z-2.6 I0.4562 J-0.7902
G2 X-0.3108 Y44.4797 Z-2.6333 I-0.9125 J0.0
G2 Y46.0602 Z-2.6667 I0.4563 J0.7902
G2 X1.058 Y45.27 Z-2.7 I0.4562 J-0.7902
G2 X-0.3108 Y44.4797 Z-2.7333 I-0.9125 J0.0
G2 Y46.0602 Z-2.7667 I0.4563 J0.7902
G2 X1.058 Y45.27 Z-2.8 I0.4562 J-0.7902
G2 X-0.3108 Y44.4797 Z-2.8333 I-0.9125 J0.0
G2 Y46.0602 Z-2.8667 I0.4563 J0.7902
G2 X1.058 Y45.27 Z-2.9 I0.4562 J-0.7902
G2 X-0.3108 Y44.4797 Z-2.9333 I-0.9125 J0.0
G2 Y46.0602 Z-2.9667 I0.4563 J0.7902
G2 X1.058 Y45.27 Z-3.0 I0.4562 J-0.7902
G2 X-0.3108 Y44.4797 Z-3.0333 I-0.9125 J0.0
G2 Y46.0602 Z-3.0667 I0.4563 J0.7902
G2 X1.058 Y45.27 Z-3.1 I0.4562 J-0.7902
G2 X-0.3108 Y44.4797 Z-3.1333 I-0.9125 J0.0
G2 Y46.0602 Z-3.1667 I0.4563 J0.7902
G2 X1.058 Y45.27 Z-3.2 I0.4562 J-0.7902
G2 X-0.3108 Y44.4797 Z-3.2333 I-0.9125 J0.0
G2 Y46.0602 Z-3.2667 I0.4563 J0.7902
G2 X1.058 Y45.27 Z-3.3 I0.4562 J-0.7902
G2 X-0.3108 Y44.4797 Z-3.3333 I-0.9125 J0.0
G2 Y46.0602 Z-3.3667 I0.4563 J0.7902
G2 X1.058 Y45.27 Z-3.4 I0.4562 J-0.7902
G2 X-0.3108 Y44.4797 I-0.9125 J0.0
G2 Y46.0602 I0.4563 J0.7902
G2 X1.058 Y45.27 I0.4562 J-0.7902
( Profile2 )
S1000
G0 Z3.0
G0 Y-44.2049
G1 F300.0 Z-0.1
G2 F800.0 X-0.3108 Y-44.9952 I-0.9125 J0.0
G2 Y-43.4147 I0.4563 J0.7902
G2 X1.058 Y-44.2049 I0.4562 J-0.7902
G1 F300.0 Z-0.2
G2 F800.0 X-0.3108 Y-44.9952 I-0.9125 J0.0
G2 Y-43.4147 I0.4563 J0.7902
G2 X1.058 Y-44.2049 I0.4562 J-0.7902
G1 F300.0 Z-0.3
G2 F800.0 X-0.3108 Y-44.9952 I-0.9125 J0.0
G2 Y-43.4147 I0.4563 J0.7902
G2 X1.058 Y-44.2049 I0.4562 J-0.7902
G1 F300.0 Z-0.4
G2 F800.0 X-0.3108 Y-44.9952 I-0.9125 J0.0
G2 Y-43.4147 I0.4563 J0.7902
G2 X1.058 Y-44.2049 I0.4562 J-0.7902
G1 F300.0 Z-0.5
G2 F800.0 X-0.3108 Y-44.9952 I-0.9125 J0.0
G2 Y-43.4147 I0.4563 J0.7902
G2 X1.058 Y-44.2049 I0.4562 J-0.7902
G1 F300.0 Z-0.6
G2 F800.0 X-0.3108 Y-44.9952 I-0.9125 J0.0
G2 Y-43.4147 I0.4563 J0.7902
G2 X1.058 Y-44.2049 I0.4562 J-0.7902
G1 F300.0 Z-0.7
G2 F800.0 X-0.3108 Y-44.9952 I-0.9125 J0.0
G2 Y-43.4147 I0.4563 J0.7902
G2 X1.058 Y-44.2049 I0.4562 J-0.7902
G1 F300.0 Z-0.8
G2 F800.0 X-0.3108 Y-44.9952 I-0.9125 J0.0
G2 Y-43.4147 I0.4563 J0.7902
G2 X1.058 Y-44.2049 I0.4562 J-0.7902
G1 F300.0 Z-0.9
G2 F800.0 X-0.3108 Y-44.9952 I-0.9125 J0.0
G2 Y-43.4147 I0.4563 J0.7902
G2 X1.058 Y-44.2049 I0.4562 J-0.7902
G1 F300.0 Z-1.0
G2 F800.0 X-0.3108 Y-44.9952 I-0.9125 J0.0
G2 Y-43.4147 I0.4563 J0.7902
G2 X1.058 Y-44.2049 I0.4562 J-0.7902
G1 F300.0 Z-1.1
G2 F800.0 X-0.3108 Y-44.9952 I-0.9125 J0.0
G2 Y-43.4147 I0.4563 J0.7902
G2 X1.058 Y-44.2049 I0.4562 J-0.7902
G1 F300.0 Z-1.2
G2 F800.0 X-0.3108 Y-44.9952 I-0.9125 J0.0
G2 Y-43.4147 I0.4563 J0.7902
G2 X1.058 Y-44.2049 I0.4562 J-0.7902
G1 F300.0 Z-1.3
G2 F800.0 X-0.3108 Y-44.9952 I-0.9125 J0.0
G2 Y-43.4147 I0.4563 J0.7902
G2 X1.058 Y-44.2049 I0.4562 J-0.7902
G1 F300.0 Z-1.4
G2 F800.0 X-0.3108 Y-44.9952 I-0.9125 J0.0
G2 Y-43.4147 I0.4563 J0.7902
G2 X1.058 Y-44.2049 I0.4562 J-0.7902
G1 F300.0 Z-1.5
G2 F800.0 X-0.3108 Y-44.9952 I-0.9125 J0.0
G2 Y-43.4147 I0.4563 J0.7902
G2 X1.058 Y-44.2049 I0.4562 J-0.7902
G1 F300.0 Z-1.6
G2 F800.0 X-0.3108 Y-44.9952 I-0.9125 J0.0
G2 Y-43.4147 I0.4563 J0.7902
G2 X1.058 Y-44.2049 I0.4562 J-0.7902
G1 F300.0 Z-1.7
G2 F800.0 X-0.3108 Y-44.9952 I-0.9125 J0.0
G2 Y-43.4147 I0.4563 J0.7902
G2 X1.058 Y-44.2049 I0.4562 J-0.7902
G1 F300.0 Z-1.8
G2 F800.0 X-0.3108 Y-44.9952 I-0.9125 J0.0
G2 Y-43.4147 I0.4563 J0.7902
G2 X1.058 Y-44.2049 I0.4562 J-0.7902
G1 F300.0 Z-1.9
G2 F800.0 X-0.3108 Y-44.9952 I-0.9125 J0.0
G2 Y-43.4147 I0.4563 J0.7902
G2 X1.058 Y-44.2049 I0.4562 J-0.7902
G1 F300.0 Z-2.0
G2 F800.0 X-0.3108 Y-44.9952 I-0.9125 J0.0
G2 Y-43.4147 I0.4563 J0.7902
G2 X1.058 Y-44.2049 I0.4562 J-0.7902
G1 F300.0 Z-2.1
G2 F800.0 X-0.3108 Y-44.9952 I-0.9125 J0.0
G2 Y-43.4147 I0.4563 J0.7902
G2 X1.058 Y-44.2049 I0.4562 J-0.7902
G1 F300.0 Z-2.2
G2 F800.0 X-0.3108 Y-44.9952 I-0.9125 J0.0
G2 Y-43.4147 I0.4563 J0.7902
G2 X1.058 Y-44.2049 I0.4562 J-0.7902
G1 F300.0 Z-2.3
G2 F800.0 X-0.3108 Y-44.9952 I-0.9125 J0.0
G2 Y-43.4147 I0.4563 J0.7902
G2 X1.058 Y-44.2049 I0.4562 J-0.7902
G1 F300.0 Z-2.4
G2 F800.0 X-0.3108 Y-44.9952 I-0.9125 J0.0
G2 Y-43.4147 I0.4563 J0.7902
G2 X1.058 Y-44.2049 I0.4562 J-0.7902
G1 F300.0 Z-2.5
G2 F800.0 X-0.3108 Y-44.9952 I-0.9125 J0.0
G2 Y-43.4147 I0.4563 J0.7902
G2 X1.058 Y-44.2049 I0.4562 J-0.7902
G1 F300.0 Z-2.6
G2 F800.0 X-0.3108 Y-44.9952 I-0.9125 J0.0
G2 Y-43.4147 I0.4563 J0.7902
G2 X1.058 Y-44.2049 I0.4562 J-0.7902
G1 F300.0 Z-2.7
G2 F800.0 X-0.3108 Y-44.9952 I-0.9125 J0.0
G2 Y-43.4147 I0.4563 J0.7902
G2 X1.058 Y-44.2049 I0.4562 J-0.7902
G1 F300.0 Z-2.8
G2 F800.0 X-0.3108 Y-44.9952 I-0.9125 J0.0
G2 Y-43.4147 I0.4563 J0.7902
G2 X1.058 Y-44.2049 I0.4562 J-0.7902
G1 F300.0 Z-2.9
G2 F800.0 X-0.3108 Y-44.9952 I-0.9125 J0.0
G2 Y-43.4147 I0.4563 J0.7902
G2 X1.058 Y-44.2049 I0.4562 J-0.7902
G1 F300.0 Z-3.0
G2 F800.0 X-0.3108 Y-44.9952 I-0.9125 J0.0
G2 Y-43.4147 I0.4563 J0.7902
G2 X1.058 Y-44.2049 I0.4562 J-0.7902
G1 F300.0 Z-3.1
G2 F800.0 X-0.3108 Y-44.9952 I-0.9125 J0.0
G2 Y-43.4147 I0.4563 J0.7902
G2 X1.058 Y-44.2049 I0.4562 J-0.7902
G1 F300.0 Z-3.2
G2 F800.0 X-0.3108 Y-44.9952 I-0.9125 J0.0
G2 Y-43.4147 I0.4563 J0.7902
G2 X1.058 Y-44.2049 I0.4562 J-0.7902
G1 F300.0 Z-3.3
G2 F800.0 X-0.3108 Y-44.9952 I-0.9125 J0.0
G2 Y-43.4147 I0.4563 J0.7902
G2 X1.058 Y-44.2049 I0.4562 J-0.7902
G1 F300.0 Z-3.4
G2 F800.0 X-0.3108 Y-44.9952 I-0.9125 J0.0
G2 Y-43.4147 I0.4563 J0.7902
G2 X1.058 Y-44.2049 I0.4562 J-0.7902
G0 Z3.0
M5
M30
M30
