( Made using CamBam - http://www.cambam.co.uk )
( enclosure 9/3/2012 3:24:01 PM )
( T0 : 1.0 )
G21 G90 G64 G40
G0 Z3.0
( T0 : 1.0 )
T0 M6
( labels )
G17
M3 S1000
G0 X14.9966 Y37.5277
G1 F300.0 Z-0.3
G2 F500.0 X15.0018 Y37.5194 I-0.0785 J-0.0551
G2 X14.9894 Y37.4838 I-0.2612 J0.071
G3 X14.9796 Y37.4599 I0.8274 J-0.3542
G2 X14.9668 Y37.4323 I-0.2398 J0.0946
G3 X14.9607 Y37.4207 I0.7923 J-0.4269
G2 X14.8361 Y37.2154 I-1.6271 J0.8464
G1 X14.7877 Y37.147
G1 X14.7376 Y37.0794
G3 X14.0244 Y35.9115 I5.076 J-3.9011
G3 X14.0228 Y35.9079 I0.8139 J-0.3842
G3 X13.5945 Y34.5599 I4.9775 J-2.3233
G3 X13.501 Y33.6311 I5.7365 J-1.0467
G3 X13.5009 Y33.6224 I0.8998 J-0.0182
G1 X13.4986 Y33.4115
G3 Y33.3985 I0.8999 J-0.0095
G3 X13.551 Y32.5807 I6.8205 J0.0268
G3 X13.5513 Y32.5787 I0.8931 J0.1114
G3 X13.7226 Y31.7468 I5.4942 J0.6976
G3 X13.7236 Y31.7432 I0.865 J0.2486
G3 X14.4814 Y30.1937 I4.8679 J1.4207
G3 X15.1913 Y29.3633 I5.3551 J3.8593
G3 X15.8043 Y28.8156 I4.8044 J4.7603
G3 X16.5215 Y28.334 I3.298 J4.1362
G3 X16.522 Y28.3337 I0.4391 J0.7856
G3 X18.1716 Y27.7598 I2.4554 J4.3997
G1 X18.1718 Y27.7597
G3 X19.2724 Y27.674 I1.0675 J6.5966
G3 X20.0923 Y27.7201 I0.0174 J7.0033
G3 X20.0929 Y27.7202 I-0.1031 J0.8941
G3 X20.9361 Y27.8853 I-0.6355 J5.48
G3 X20.9393 Y27.8862 I-0.2412 J0.8671
G3 X22.5119 Y28.6458 I-1.3633 J4.8304
G3 X23.3521 Y29.3641 I-3.7633 J5.2521
G3 X24.0956 Y30.2425 I-4.5829 J4.6332
G3 X24.3179 Y30.5875 I-3.6788 J2.6141
G3 X24.9076 Y32.0921 I-4.3406 J2.5691
G3 X24.908 Y32.094 I-0.8797 J0.1899
G3 X25.0374 Y33.1262 I-5.9348 J1.2684
G3 X25.044 Y33.3957 I-6.0187 J0.2813
G3 X24.8853 Y34.8602 I-6.1552 J0.0738
G3 X24.8839 Y34.8662 I-0.8767 J-0.2033
G3 X24.335 Y36.2704 I-5.3355 J-1.2762
G3 X23.8056 Y37.0787 I-5.7445 J-3.1852
G2 X23.6778 Y37.2578 I4.9339 J3.6527
G3 X23.667 Y37.2732 I-0.7421 J-0.5092
G3 X23.6465 Y37.3069 I-0.7784 J-0.4518
G2 X23.5541 Y37.4814 I1.0019 J0.6418
G3 X23.554 Y37.4817 I-0.8277 J-0.3535
G2 X23.5408 Y37.5196 I0.2735 J0.1169
G2 X23.545 Y37.5263 I0.0652 J-0.0362
G3 X23.5571 Y37.5439 I-0.7355 J0.5188
G2 X23.662 Y37.6495 I0.325 J-0.2179
G3 X23.6687 Y37.6541 I-0.5062 J0.7442
G2 X23.7557 Y37.6949 I0.1637 J-0.236
G2 X23.8391 Y37.6321 I-0.4733 J-0.7154
G2 X24.1223 Y37.3457 I-1.5511 J-1.817
G3 X24.1233 Y37.3445 I0.691 J0.5766
G2 X24.6543 Y36.5773 I-3.8982 J-3.2653
G3 X24.6576 Y36.5715 I0.7839 J0.4421
G2 X25.2642 Y35.1569 I-5.7789 J-3.3156
G3 X25.2644 Y35.1563 I0.8626 J0.2568
G2 X25.5146 Y33.6545 I-5.8539 J-1.7472
G2 X24.8628 Y30.7158 I-5.9015 J-0.2327
G3 X24.8626 Y30.7154 I0.8 J-0.4124
G2 X23.6538 Y29.0663 I-5.8111 J2.9921
G3 X23.6502 Y29.0627 I0.6337 J-0.6391
G2 X23.2712 Y28.7088 I-5.1393 J5.1245
G2 X22.8685 Y28.3845 I-4.6402 J5.348
G3 X22.8677 Y28.3839 I0.5386 J-0.721
G2 X22.0096 Y27.8489 I-3.5582 J4.752
G2 X20.0809 Y27.252 I-2.708 J5.3358
G3 X20.0754 Y27.2513 I0.1172 J-0.8923
G2 X18.5523 Y27.2368 I-0.8184 J5.9478
G2 X17.0734 Y27.6118 I0.7432 J6.0351
G3 X17.0703 Y27.613 I-0.3289 J-0.8377
G2 X16.1327 Y28.0588 I2.5615 J6.5962
G3 X16.115 Y28.0686 I-0.445 J-0.7823
G3 X16.0865 Y28.0851 I-0.4656 J-0.7702
G3 X16.0809 Y28.0885 I-0.4752 J-0.7643
G1 X16.0173 Y28.1275
G1 X15.8851 Y28.2139
G2 X15.6592 Y28.3782 I2.0579 J3.0663
G3 X15.6536 Y28.3826 I-0.5566 J-0.7073
G2 X15.1723 Y28.7888 I4.5806 J5.9164
G3 X15.172 Y28.789 I-0.6089 J-0.6628
G2 X14.2961 Y29.717 I6.0262 J6.5659
G2 X14.086 Y29.994 I5.0628 J4.0586
G2 X13.8863 Y30.3055 I3.3078 J2.3406
G2 X13.3455 Y31.5247 I6.1583 J3.4608
G2 X13.0646 Y32.8124 I5.8852 J1.9583
G2 X13.3574 Y35.4057 I5.9247 J0.6442
G2 X14.1655 Y37.0095 I6.4301 J-2.2341
G2 X14.5127 Y37.4498 I3.6875 J-2.5508
G2 X14.699 Y37.6308 I1.6408 J-1.502
G1 X14.7564 Y37.6765
G2 X14.784 Y37.6957 I0.3041 J-0.4082
G2 X14.8369 Y37.6755 I-0.0695 J-0.2612
G2 X14.986 Y37.5431 I-0.1815 J-0.3544
G3 X14.9966 Y37.5277 I0.747 J0.502
G1 F300.0 X15.3239 Y37.7577
G2 F500.0 X15.3976 Y37.5989 I-0.4058 J-0.2851
G2 X15.3988 Y37.4615 I-0.3146 J-0.0714
G3 X15.3981 Y37.4579 I0.4894 J-0.1023
G2 X15.3572 Y37.3264 I-0.6575 J0.1325
G3 X15.3517 Y37.3131 I0.4596 J-0.1968
G2 X15.3189 Y37.2425 I-0.6119 J0.2414
G3 X15.3155 Y37.2361 I0.4402 J-0.2372
G2 X15.1632 Y36.9851 I-1.9819 J1.031
G1 X15.1116 Y36.9122
G1 X15.0568 Y36.8383
G3 X14.3861 Y35.7407 I4.7568 J-3.6601
G3 X14.3852 Y35.7387 I0.4521 J-0.2135
G3 X13.9881 Y34.4885 I4.615 J-2.1541
G3 X13.9009 Y33.623 I5.3429 J-0.9753
G3 X13.9008 Y33.6182 I0.4999 J-0.0101
G1 X13.8986 Y33.4073
G3 Y33.4 I0.5 J-0.0053
G3 X13.9479 Y32.6302 I6.4205 J0.0252
G3 X13.9481 Y32.6291 I0.4962 J0.0619
G3 X14.107 Y31.8572 I5.0974 J0.6472
G3 X14.1076 Y31.8552 I0.4806 J0.1381
G3 X14.8058 Y30.4278 I4.4839 J1.3086
G3 X15.4741 Y29.6462 I5.0307 J3.6252
G3 X16.053 Y29.1289 I4.5216 J4.4774
G3 X16.7166 Y28.6831 I3.0494 J3.8228
G3 X16.7169 Y28.683 I0.2439 J0.4365
G3 X18.2356 Y28.1546 I2.2605 J4.0504
G1 X18.2357
G3 X19.2719 Y28.074 I1.0036 J6.2017
G3 X20.0465 Y28.1175 I0.0179 J6.6033
G3 X20.0468 I-0.0573 J0.4967
G3 X20.8288 Y28.2707 I-0.5894 J5.0827
G3 X20.8306 Y28.2712 I-0.134 J0.4817
G3 X22.2784 Y28.9705 I-1.2546 J4.4454
G3 X23.0689 Y29.6466 I-3.5298 J4.9273
G3 X23.7691 Y30.4736 I-4.2998 J4.3507
G3 X23.9729 Y30.79 I-3.3523 J2.3831
G3 X24.5166 Y32.1765 I-3.9956 J2.3666
G3 X24.5168 Y32.1776 I-0.4887 J0.1055
G3 X24.6378 Y33.1433 I-5.5436 J1.1848
G3 X24.644 Y33.3985 I-5.6191 J0.2642
G3 X24.4956 Y34.7698 I-5.7552 J0.071
G3 X24.4948 Y34.7732 I-0.4871 J-0.113
G3 X23.9856 Y36.0757 I-4.9464 J-1.1832
G3 X23.4861 Y36.838 I-5.3951 J-2.9905
G2 X23.348 Y37.0315 I5.2534 J3.8934
G3 X23.3401 Y37.0427 I-0.4123 J-0.2829
G2 X23.3227 Y37.0696 I0.236 J0.1717
G3 X23.3097 Y37.0911 I-0.4341 J-0.2481
G2 X23.1863 Y37.3243 I1.3387 J0.8576
G3 X23.1862 Y37.3245 I-0.4598 J-0.1964
G2 X23.1454 Y37.4531 I0.6413 J0.2741
G2 X23.1406 Y37.5766 I0.3546 J0.0756
G2 X23.2182 Y37.7569 I0.4653 J-0.0932
G3 X23.2249 Y37.7666 I-0.4086 J0.2882
G2 X23.437 Y37.9802 I0.6572 J-0.4407
G3 X23.4408 Y37.9828 I-0.2812 J0.4134
G2 X23.703 Y38.093 I0.3916 J-0.5647
G3 X23.704 Y38.0932 I-0.0941 J0.4911
G2 X23.8419 Y38.0957 I0.0759 J-0.3916
G2 X23.9284 Y38.0589 I-0.0673 J-0.278
G3 X23.937 Y38.0535 I0.2688 J0.4216
G2 X24.0988 Y37.9363 I-0.6545 J-1.074
G2 X24.4294 Y37.602 I-1.8108 J-2.1213
G3 X24.43 Y37.6013 I0.3839 J0.3204
G2 X25.0027 Y36.7738 I-4.2048 J-3.5221
G3 X25.0045 Y36.7706 I0.4355 J0.2456
G2 X25.6476 Y35.271 I-6.1259 J-3.5146
G3 X25.6477 Y35.2707 I0.4792 J0.1427
G2 X25.9143 Y33.6704 I-6.2372 J-1.8615
G2 X25.2184 Y30.5325 I-6.3012 J-0.2486
G3 X25.2183 Y30.5323 I0.4444 J-0.2291
G2 X23.9354 Y28.7823 I-6.1667 J3.1752
G3 X23.9334 Y28.7803 I0.3521 J-0.355
G2 X23.5334 Y28.4068 I-5.4225 J5.4069
G2 X23.1079 Y28.064 I-4.9024 J5.6501
G3 X23.1074 Y28.0637 I0.2992 J-0.4006
G2 X22.1911 Y27.4925 I-3.798 J5.0721
G2 X20.1329 Y26.8555 I-2.8895 J5.6923
G3 X20.1299 Y26.855 I0.0651 J-0.4957
G2 X18.5044 Y26.8397 I-0.8729 J6.3441
G2 X16.9272 Y27.2394 I0.7912 J6.4322
G3 X16.9255 Y27.2401 I-0.1827 J-0.4654
G2 X15.9349 Y27.7111 I2.7063 J6.9691
G3 X15.9163 Y27.7211 I-0.2472 J-0.4346
G3 X15.8836 Y27.7401 I-0.267 J-0.4227
G3 X15.8722 Y27.7473 I-0.2723 J-0.4193
G1 X15.8034 Y27.7894
G1 X15.6642 Y27.8805
G2 X15.4119 Y28.0639 I2.2788 J3.3998
G3 X15.4087 Y28.0663 I-0.3092 J-0.3929
G2 X14.9017 Y28.4942 I4.8255 J6.2327
G3 X14.9016 Y28.4943 I-0.3383 J-0.3682
G2 X13.9851 Y29.4654 I6.2967 J6.8606
G2 X13.7602 Y29.7619 I5.3737 J4.3103
G2 X13.5388 Y30.1074 I3.6336 J2.5727
G2 X12.9661 Y31.3981 I6.5058 J3.6589
G2 X12.667 Y32.7691 I6.2646 J2.0849
G1 Y32.7692
G1 Y32.7691
G2 X12.9795 Y35.5367 I6.3224 J0.6874
G2 X13.8358 Y37.236 I6.808 J-2.3652
G2 X14.2161 Y37.7182 I4.0172 J-2.7774
G2 X14.4439 Y37.939 I1.9373 J-1.7704
G1 X14.5116 Y37.9929
G2 X14.625 Y38.0662 I0.5489 J-0.7246
G3 X14.6311 Y38.0696 I-0.2396 J0.4389
G2 X14.6962 Y38.0948 I0.12 J-0.2127
G2 X14.8413 Y38.0927 I0.0662 J-0.4341
G2 X15.0187 Y38.0318 I-0.1268 J-0.6582
G2 X15.318 Y37.7662 I-0.3632 J-0.7108
G3 X15.3239 Y37.7577 I0.415 J0.2789
G1 F300.0 X14.9966 Y37.5277
G1 Z-0.4
G2 F500.0 X15.0018 Y37.5194 I-0.0785 J-0.0551
G2 X14.9894 Y37.4838 I-0.2612 J0.071
G3 X14.9796 Y37.4599 I0.8274 J-0.3542
G2 X14.9668 Y37.4323 I-0.2398 J0.0946
G3 X14.9607 Y37.4207 I0.7923 J-0.4269
G2 X14.8361 Y37.2154 I-1.6271 J0.8464
G1 X14.7877 Y37.147
G1 X14.7376 Y37.0794
G3 X14.0244 Y35.9115 I5.076 J-3.9011
G3 X14.0228 Y35.9079 I0.8139 J-0.3842
G3 X13.5945 Y34.5599 I4.9775 J-2.3233
G3 X13.501 Y33.6311 I5.7365 J-1.0467
G3 X13.5009 Y33.6224 I0.8998 J-0.0182
G1 X13.4986 Y33.4115
G3 Y33.3985 I0.8999 J-0.0095
G3 X13.551 Y32.5807 I6.8205 J0.0268
G3 X13.5513 Y32.5787 I0.8931 J0.1114
G3 X13.7226 Y31.7468 I5.4942 J0.6976
G3 X13.7236 Y31.7432 I0.865 J0.2486
G3 X14.4814 Y30.1937 I4.8679 J1.4207
G3 X15.1913 Y29.3633 I5.3551 J3.8593
G3 X15.8043 Y28.8156 I4.8044 J4.7603
G3 X16.5215 Y28.334 I3.298 J4.1362
G3 X16.522 Y28.3337 I0.4391 J0.7856
G3 X18.1716 Y27.7598 I2.4554 J4.3997
G1 X18.1718 Y27.7597
G3 X19.2724 Y27.674 I1.0675 J6.5966
G3 X20.0923 Y27.7201 I0.0174 J7.0033
G3 X20.0929 Y27.7202 I-0.1031 J0.8941
G3 X20.9361 Y27.8853 I-0.6355 J5.48
G3 X20.9393 Y27.8862 I-0.2412 J0.8671
G3 X22.5119 Y28.6458 I-1.3633 J4.8304
G3 X23.3521 Y29.3641 I-3.7633 J5.2521
G3 X24.0956 Y30.2425 I-4.5829 J4.6332
G3 X24.3179 Y30.5875 I-3.6788 J2.6141
G3 X24.9076 Y32.0921 I-4.3406 J2.5691
G3 X24.908 Y32.094 I-0.8797 J0.1899
G3 X25.0374 Y33.1262 I-5.9348 J1.2684
G3 X25.044 Y33.3957 I-6.0187 J0.2813
G3 X24.8853 Y34.8602 I-6.1552 J0.0738
G3 X24.8839 Y34.8662 I-0.8767 J-0.2033
G3 X24.335 Y36.2704 I-5.3355 J-1.2762
G3 X23.8056 Y37.0787 I-5.7445 J-3.1852
G2 X23.6778 Y37.2578 I4.9339 J3.6527
G3 X23.667 Y37.2732 I-0.7421 J-0.5092
G3 X23.6465 Y37.3069 I-0.7784 J-0.4518
G2 X23.5541 Y37.4814 I1.0019 J0.6418
G3 X23.554 Y37.4817 I-0.8277 J-0.3535
G2 X23.5408 Y37.5196 I0.2735 J0.1169
G2 X23.545 Y37.5263 I0.0652 J-0.0362
G3 X23.5571 Y37.5439 I-0.7355 J0.5188
G2 X23.662 Y37.6495 I0.325 J-0.2179
G3 X23.6687 Y37.6541 I-0.5062 J0.7442
G2 X23.7557 Y37.6949 I0.1637 J-0.236
G2 X23.8391 Y37.6321 I-0.4733 J-0.7154
G2 X24.1223 Y37.3457 I-1.5511 J-1.817
G3 X24.1233 Y37.3445 I0.691 J0.5766
G2 X24.6543 Y36.5773 I-3.8982 J-3.2653
G3 X24.6576 Y36.5715 I0.7839 J0.4421
G2 X25.2642 Y35.1569 I-5.7789 J-3.3156
G3 X25.2644 Y35.1563 I0.8626 J0.2568
G2 X25.5146 Y33.6545 I-5.8539 J-1.7472
G2 X24.8628 Y30.7158 I-5.9015 J-0.2327
G3 X24.8626 Y30.7154 I0.8 J-0.4124
G2 X23.6538 Y29.0663 I-5.8111 J2.9921
G3 X23.6502 Y29.0627 I0.6337 J-0.6391
G2 X23.2712 Y28.7088 I-5.1393 J5.1245
G2 X22.8685 Y28.3845 I-4.6402 J5.348
G3 X22.8677 Y28.3839 I0.5386 J-0.721
G2 X22.0096 Y27.8489 I-3.5582 J4.752
G2 X20.0809 Y27.252 I-2.708 J5.3358
G3 X20.0754 Y27.2513 I0.1172 J-0.8923
G2 X18.5523 Y27.2368 I-0.8184 J5.9478
G2 X17.0734 Y27.6118 I0.7432 J6.0351
G3 X17.0703 Y27.613 I-0.3289 J-0.8377
G2 X16.1327 Y28.0588 I2.5615 J6.5962
G3 X16.115 Y28.0686 I-0.445 J-0.7823
G3 X16.0865 Y28.0851 I-0.4656 J-0.7702
G3 X16.0809 Y28.0885 I-0.4752 J-0.7643
G1 X16.0173 Y28.1275
G1 X15.8851 Y28.2139
G2 X15.6592 Y28.3782 I2.0579 J3.0663
G3 X15.6536 Y28.3826 I-0.5566 J-0.7073
G2 X15.1723 Y28.7888 I4.5806 J5.9164
G3 X15.172 Y28.789 I-0.6089 J-0.6628
G2 X14.2961 Y29.717 I6.0262 J6.5659
G2 X14.086 Y29.994 I5.0628 J4.0586
G2 X13.8863 Y30.3055 I3.3078 J2.3406
G2 X13.3455 Y31.5247 I6.1583 J3.4608
G2 X13.0646 Y32.8124 I5.8852 J1.9583
G2 X13.3574 Y35.4057 I5.9247 J0.6442
G2 X14.1655 Y37.0095 I6.4301 J-2.2341
G2 X14.5127 Y37.4498 I3.6875 J-2.5508
G2 X14.699 Y37.6308 I1.6408 J-1.502
G1 X14.7564 Y37.6765
G2 X14.784 Y37.6957 I0.3041 J-0.4082
G2 X14.8369 Y37.6755 I-0.0695 J-0.2612
G2 X14.986 Y37.5431 I-0.1815 J-0.3544
G3 X14.9966 Y37.5277 I0.747 J0.502
G1 F300.0 X15.3239 Y37.7577
G2 F500.0 X15.3976 Y37.5989 I-0.4058 J-0.2851
G2 X15.3988 Y37.4615 I-0.3146 J-0.0714
G3 X15.3981 Y37.4579 I0.4894 J-0.1023
G2 X15.3572 Y37.3264 I-0.6575 J0.1325
G3 X15.3517 Y37.3131 I0.4596 J-0.1968
G2 X15.3189 Y37.2425 I-0.6119 J0.2414
G3 X15.3155 Y37.2361 I0.4402 J-0.2372
G2 X15.1632 Y36.9851 I-1.9819 J1.031
G1 X15.1116 Y36.9122
G1 X15.0568 Y36.8383
G3 X14.3861 Y35.7407 I4.7568 J-3.6601
G3 X14.3852 Y35.7387 I0.4521 J-0.2135
G3 X13.9881 Y34.4885 I4.615 J-2.1541
G3 X13.9009 Y33.623 I5.3429 J-0.9753
G3 X13.9008 Y33.6182 I0.4999 J-0.0101
G1 X13.8986 Y33.4073
G3 Y33.4 I0.5 J-0.0053
G3 X13.9479 Y32.6302 I6.4205 J0.0252
G3 X13.9481 Y32.6291 I0.4962 J0.0619
G3 X14.107 Y31.8572 I5.0974 J0.6472
G3 X14.1076 Y31.8552 I0.4806 J0.1381
G3 X14.8058 Y30.4278 I4.4839 J1.3086
G3 X15.4741 Y29.6462 I5.0307 J3.6252
G3 X16.053 Y29.1289 I4.5216 J4.4774
G3 X16.7166 Y28.6831 I3.0494 J3.8228
G3 X16.7169 Y28.683 I0.2439 J0.4365
G3 X18.2356 Y28.1546 I2.2605 J4.0504
G1 X18.2357
G3 X19.2719 Y28.074 I1.0036 J6.2017
G3 X20.0465 Y28.1175 I0.0179 J6.6033
G3 X20.0468 I-0.0573 J0.4967
G3 X20.8288 Y28.2707 I-0.5894 J5.0827
G3 X20.8306 Y28.2712 I-0.134 J0.4817
G3 X22.2784 Y28.9705 I-1.2546 J4.4454
G3 X23.0689 Y29.6466 I-3.5298 J4.9273
G3 X23.7691 Y30.4736 I-4.2998 J4.3507
G3 X23.9729 Y30.79 I-3.3523 J2.3831
G3 X24.5166 Y32.1765 I-3.9956 J2.3666
G3 X24.5168 Y32.1776 I-0.4887 J0.1055
G3 X24.6378 Y33.1433 I-5.5436 J1.1848
G3 X24.644 Y33.3985 I-5.6191 J0.2642
G3 X24.4956 Y34.7698 I-5.7552 J0.071
G3 X24.4948 Y34.7732 I-0.4871 J-0.113
G3 X23.9856 Y36.0757 I-4.9464 J-1.1832
G3 X23.4861 Y36.838 I-5.3951 J-2.9905
G2 X23.348 Y37.0315 I5.2534 J3.8934
G3 X23.3401 Y37.0427 I-0.4123 J-0.2829
G2 X23.3227 Y37.0696 I0.236 J0.1717
G3 X23.3097 Y37.0911 I-0.4341 J-0.2481
G2 X23.1863 Y37.3243 I1.3387 J0.8576
G3 X23.1862 Y37.3245 I-0.4598 J-0.1964
G2 X23.1454 Y37.4531 I0.6413 J0.2741
G2 X23.1406 Y37.5766 I0.3546 J0.0756
G2 X23.2182 Y37.7569 I0.4653 J-0.0932
G3 X23.2249 Y37.7666 I-0.4086 J0.2882
G2 X23.437 Y37.9802 I0.6572 J-0.4407
G3 X23.4408 Y37.9828 I-0.2812 J0.4134
G2 X23.703 Y38.093 I0.3916 J-0.5647
G3 X23.704 Y38.0932 I-0.0941 J0.4911
G2 X23.8419 Y38.0957 I0.0759 J-0.3916
G2 X23.9284 Y38.0589 I-0.0673 J-0.278
G3 X23.937 Y38.0535 I0.2688 J0.4216
G2 X24.0988 Y37.9363 I-0.6545 J-1.074
G2 X24.4294 Y37.602 I-1.8108 J-2.1213
G3 X24.43 Y37.6013 I0.3839 J0.3204
G2 X25.0027 Y36.7738 I-4.2048 J-3.5221
G3 X25.0045 Y36.7706 I0.4355 J0.2456
G2 X25.6476 Y35.271 I-6.1259 J-3.5146
G3 X25.6477 Y35.2707 I0.4792 J0.1427
G2 X25.9143 Y33.6704 I-6.2372 J-1.8615
G2 X25.2184 Y30.5325 I-6.3012 J-0.2486
G3 X25.2183 Y30.5323 I0.4444 J-0.2291
G2 X23.9354 Y28.7823 I-6.1667 J3.1752
G3 X23.9334 Y28.7803 I0.3521 J-0.355
G2 X23.5334 Y28.4068 I-5.4225 J5.4069
G2 X23.1079 Y28.064 I-4.9024 J5.6501
G3 X23.1074 Y28.0637 I0.2992 J-0.4006
G2 X22.1911 Y27.4925 I-3.798 J5.0721
G2 X20.1329 Y26.8555 I-2.8895 J5.6923
G3 X20.1299 Y26.855 I0.0651 J-0.4957
G2 X18.5044 Y26.8397 I-0.8729 J6.3441
G2 X16.9272 Y27.2394 I0.7912 J6.4322
G3 X16.9255 Y27.2401 I-0.1827 J-0.4654
G2 X15.9349 Y27.7111 I2.7063 J6.9691
G3 X15.9163 Y27.7211 I-0.2472 J-0.4346
G3 X15.8836 Y27.7401 I-0.267 J-0.4227
G3 X15.8722 Y27.7473 I-0.2723 J-0.4193
G1 X15.8034 Y27.7894
G1 X15.6642 Y27.8805
G2 X15.4119 Y28.0639 I2.2788 J3.3998
G3 X15.4087 Y28.0663 I-0.3092 J-0.3929
G2 X14.9017 Y28.4942 I4.8255 J6.2327
G3 X14.9016 Y28.4943 I-0.3383 J-0.3682
G2 X13.9851 Y29.4654 I6.2967 J6.8606
G2 X13.7602 Y29.7619 I5.3737 J4.3103
G2 X13.5388 Y30.1074 I3.6336 J2.5727
G2 X12.9661 Y31.3981 I6.5058 J3.6589
G2 X12.667 Y32.7691 I6.2646 J2.0849
G1 Y32.7692
G1 Y32.7691
G2 X12.9795 Y35.5367 I6.3224 J0.6874
G2 X13.8358 Y37.236 I6.808 J-2.3652
G2 X14.2161 Y37.7182 I4.0172 J-2.7774
G2 X14.4439 Y37.939 I1.9373 J-1.7704
G1 X14.5116 Y37.9929
G2 X14.625 Y38.0662 I0.5489 J-0.7246
G3 X14.6311 Y38.0696 I-0.2396 J0.4389
G2 X14.6962 Y38.0948 I0.12 J-0.2127
G2 X14.8413 Y38.0927 I0.0662 J-0.4341
G2 X15.0187 Y38.0318 I-0.1268 J-0.6582
G2 X15.318 Y37.7662 I-0.3632 J-0.7108
G3 X15.3239 Y37.7577 I0.415 J0.2789
G0 Z3.0
G0 X19.2075 Y37.7529
G1 F300.0 Z-0.3
G1 F500.0 X19.2079 Y38.0512
G1 X19.2095 Y38.5272
G1 X19.2152 Y39.3643
G3 Y39.381 I-1.3 J0.0088
G3 X19.2155 Y39.398 I-1.2996 J0.0315
G1 X19.2224 Y40.015
G1 X19.2293 Y40.4728
G1 X19.2443 Y41.1577
G1 X19.2549 Y41.4711
G1 X19.2716
G3 X19.2913 Y41.4713 I-0.0025 J1.3
G2 X19.3005 Y41.4714 I0.0436 J-2.5452
G2 X19.3093 Y41.2976 I-3.6048 J-0.2688
G3 X19.3109 Y41.259 I1.2996 J0.0342
G2 X19.3134 Y41.1896 I-1.7903 J-0.1005
G3 X19.3136 Y41.1818 I1.2998 J0.0226
G1 X19.3243 Y40.7251
G1 X19.3293 Y40.3303
G1 X19.334 Y39.6275
G1 X19.3375 Y37.5017
G1 X19.3377 Y36.9166
G1 X19.3376 Y35.8908
G3 X19.3379 Y35.8626 I1.3 J-0.0002
G2 Y35.8248 I-0.8401 J-0.0181
G3 X19.3375 Y35.7973 I1.2996 J-0.0305
G1 X19.3358 Y35.054
G1 X19.3322 Y34.499
G1 X19.3311 Y34.4
G1 X19.325 Y34.0175
G1 X19.3169 Y33.739
G1 X19.3124 Y33.6374
G2 X19.2957 Y33.4223 I-3.2495 J0.145
G2 X19.2748 Y33.4192 I-0.1002 J0.5956
G2 X19.2592 Y33.4384 I0.3201 J0.2761
G2 X19.259 Y33.4432 I3.039 J0.1283
G1 X19.2492 Y33.693
G1 X19.2424 Y33.9243
G1 X19.2371 Y34.1424
G1 X19.2226 Y34.9815
G1 X19.2156 Y35.6112
G1 X19.2118 Y36.0848
G1 X19.2107 Y36.2618
G1 X19.2092 Y36.5733
G1 X19.2087 Y36.6892
G1 X19.2076 Y37.0982
G1 X19.2073 Y37.3021
G1 X19.2072 Y37.5057
G1 X19.2075 Y37.7529
G1 F300.0 X18.8075 Y37.7534
G1 F500.0 X18.8079 Y38.0521
G1 X18.8096 Y38.5292
G1 X18.8152 Y39.367
G3 Y39.3846 I-0.9 J0.0061
G3 X18.8155 Y39.4025 I-0.8996 J0.0279
G1 X18.8224 Y40.0203
G1 X18.8294 Y40.4802
G1 X18.8444 Y41.1688
G1 X18.8558 Y41.505
G1 X18.8636 Y41.6632
G1 X18.866 Y41.6984
G2 X18.887 Y41.7384 I0.3001 J-0.1318
G3 X18.9011 Y41.7622 I-0.7665 J0.4717
G2 X18.9783 Y41.869 I0.5459 J-0.3132
G3 X18.9872 I-0.0026 J0.9
G1 X19.129 Y41.8708
G1 X19.2708 Y41.8711
G3 X19.2845 Y41.8712 I-0.0017 J0.9
G2 X19.5632 Y41.8628 I0.0504 J-2.9451
G3 X19.5715 Y41.8622 I0.0698 J0.8973
G2 X19.6277 Y41.8566 I-0.0623 J-0.9097
G2 X19.6575 Y41.795 I-0.8727 J-0.4606
G3 X19.6609 Y41.7877 I0.8231 J0.364
G2 X19.6736 Y41.7461 I-0.1552 J-0.0703
G2 X19.7092 Y41.3081 I-3.9779 J-0.5435
G3 X19.7103 Y41.2814 I0.8997 J0.0237
G2 X19.7134 Y41.1966 I-2.1896 J-0.1229
G3 X19.7135 Y41.1911 I0.8999 J0.0156
G1 X19.7242 Y40.7323
G1 X19.7293 Y40.3342
G1 X19.734 Y39.6292
G1 X19.7375 Y37.5021
G1 X19.7377 Y36.9167
G1 X19.7376 Y35.8908
G3 X19.7378 Y35.8712 I0.9 J-0.0001
G2 Y35.8154 I-1.24 J-0.0267
G3 X19.7375 Y35.7964 I0.8998 J-0.0211
G1 X19.7358 Y35.0522
G1 X19.7322 Y34.4956
G1 X19.7311 Y34.3947
G1 X19.7249 Y34.0085
G1 X19.7166 Y33.7244
G1 X19.712 Y33.6197
G2 X19.685 Y33.3103 I-3.6491 J0.1627
G2 X19.6686 Y33.262 I-0.137 J0.0196
G3 X19.652 Y33.2311 I0.7842 J-0.4417
G2 X19.5784 Y33.1208 I-0.5168 J0.2651
G3 X19.5714 Y33.1124 I0.6868 J-0.5817
G2 X19.5383 Y33.0752 I-0.5256 J0.4343
G2 X19.4926 Y33.0588 I-0.1504 J0.348
G3 X19.4833 Y33.0561 I0.2487 J-0.8649
G2 X19.2537 Y33.0156 I-0.2878 J0.9618
G2 X19.1399 Y33.0171 I-0.0444 J0.9708
G3 X19.1392 Y33.0172 I-0.0643 J-0.8977
G2 X19.1274 Y33.0185 I0.0089 J0.1258
G2 X19.1149 Y33.0266 I0.0376 J0.0721
G3 X19.1004 Y33.0378 I-0.5554 J-0.7082
G2 X18.9321 Y33.2079 I0.4945 J0.6575
G3 X18.9262 Y33.2158 I-0.7251 J-0.5332
G2 X18.8682 Y33.3073 I0.5423 J0.4081
G3 X18.8659 Y33.3116 I-0.7961 J-0.4199
G3 X18.8652 Y33.3226 I-0.8984 J-0.0529
G2 X18.8593 Y33.4272 I3.4331 J0.2441
G1 X18.8494 Y33.6792
G1 X18.8425 Y33.9135
G1 X18.8372 Y34.1341
G1 X18.8226 Y34.9758
G1 X18.8156 Y35.6073
G1 X18.8118 Y36.082
G1 X18.8107 Y36.2596
G1 X18.8092 Y36.5715
G1 X18.8087 Y36.6879
G1 X18.8076 Y37.0974
G1 X18.8073 Y37.3017
G1 X18.8072 Y37.5058
G1 X18.8075 Y37.7534
G1 F300.0 X18.4075 Y37.7539
G1 F500.0 X18.4079 Y38.0531
G1 X18.4096 Y38.5313
G1 X18.4152 Y39.3697
G3 X18.415 Y39.3883 I-0.5 J0.0034
G3 X18.4156 Y39.4069 I-0.4994 J0.0242
G1 X18.4225 Y40.0256
G1 X18.4294 Y40.4876
G1 X18.4446 Y41.1799
G1 X18.4561 Y41.5216
G1 X18.4642 Y41.6868
G1 X18.4699 Y41.7682
G2 X18.4712 Y41.783 I0.3692 J-0.0268
G2 X18.5463 Y41.948 I0.6949 J-0.2164
G3 X18.5542 Y41.9613 I-0.4258 J0.2621
G2 X18.6936 Y42.1504 I0.8928 J-0.5123
G3 X18.6959 Y42.1529 I-0.366 J0.3407
G2 X18.7598 Y42.2173 I0.8579 J-0.7876
G3 X18.7814 Y42.2387 I-0.3409 J0.3658
G2 X18.7959 Y42.2512 I0.073 J-0.0694
G3 X18.8005 Y42.2546 I-0.291 J0.4066
G2 X18.9739 Y42.269 I0.1698 J-0.9955
G3 X18.9821 I0.0018 J0.5
G1 X19.1261 Y42.2708
G1 X19.2701 Y42.2711
G3 X19.2777 Y42.2712 I-0.001 J0.5
G2 X19.5942 Y42.2616 I0.0572 J-3.3451
G3 X19.5988 Y42.2613 I0.0388 J0.4985
G2 X19.7974 Y42.2323 I-0.0896 J-1.3087
G2 X19.8603 Y42.2089 I-0.0567 J-0.2482
G2 X19.9137 Y42.1581 I-0.0825 J-0.14
G3 Y42.158 I0.4178 J0.2746
G2 X20.0234 Y41.9568 I-1.1587 J-0.762
G3 X20.0252 Y41.9527 I0.4573 J0.2022
G2 X20.0692 Y41.8052 I-0.5196 J-0.2354
G2 X20.109 Y41.3187 I-4.3735 J-0.6025
G3 X20.1096 Y41.3038 I0.4998 J0.0131
G2 X20.1133 Y41.2035 I-2.589 J-0.1453
G3 X20.1134 Y41.2005 I0.4999 J0.0087
G1 X20.1242 Y40.7396
G1 X20.1293 Y40.3381
G1 X20.134 Y39.6309
G1 X20.1375 Y37.5025
G1 X20.1377 Y36.9167
G1 X20.1376 Y35.8907
G3 X20.1377 Y35.8799 I0.5 J-0.0001
G2 X20.1376 Y35.8061 I-1.6399 J-0.0354
G3 X20.1375 Y35.7955 I0.4999 J-0.0117
G1 X20.1358 Y35.0504
G1 X20.1322 Y34.4922
G1 X20.1311 Y34.3894
G1 X20.1248 Y33.9995
G1 X20.1164 Y33.7098
G1 X20.1117 Y33.6021
G2 X20.0815 Y33.2569 I-4.0487 J0.1804
G2 X20.0171 Y33.0657 I-0.5334 J0.073
G3 X20.0079 Y33.0485 I0.4357 J-0.2454
G2 X19.8836 Y32.8623 I-0.8727 J0.4476
G3 X19.8797 Y32.8576 I0.3815 J-0.3231
G2 X19.8012 Y32.7723 I-0.834 J0.6891
G3 X19.8007 Y32.7718 I0.3491 J-0.3579
G2 X19.7601 Y32.7387 I-0.2018 J0.2063
G2 X19.6032 Y32.6744 I-0.3722 J0.6845
G3 X19.598 Y32.6729 I0.1382 J-0.4805
G2 X19.2744 Y32.6162 I-0.4025 J1.345
G2 X19.1113 Y32.6181 I-0.0651 J1.3702
G3 X19.111 Y32.6182 I-0.0357 J-0.4987
G2 X19.0054 Y32.6366 I0.0372 J0.5248
G2 X18.868 Y32.7119 I0.1597 J0.454
G3 X18.86 Y32.7181 I-0.3086 J-0.3934
G2 X18.6098 Y32.9709 I0.7349 J0.9772
G3 X18.6066 Y32.9753 I-0.4028 J-0.2962
G2 X18.5144 Y33.1207 I0.862 J0.6486
G3 X18.5121 Y33.1249 I-0.4423 J-0.2333
G2 X18.4713 Y33.226 I0.4308 J0.2326
G2 X18.4672 Y33.2736 I0.4197 J0.0603
G3 X18.4662 Y33.2942 I-0.4998 J-0.0149
G2 X18.4596 Y33.4112 I3.8321 J0.2724
G1 X18.4497 Y33.6655
G1 X18.4427 Y33.9028
G1 X18.4373 Y34.1258
G1 X18.4227 Y34.9701
G1 X18.4156 Y35.6035
G1 X18.4118 Y36.0792
G1 X18.4107 Y36.2573
G1 X18.4092 Y36.5697
G1 X18.4087 Y36.6865
G1 X18.4076 Y37.0966
G1 X18.4073 Y37.3013
G1 X18.4072 Y37.506
G1 X18.4075 Y37.7539
G0 Z3.0
G0 X19.2075 Y37.7529
G1 F300.0 Z-0.4
G1 F500.0 X19.2079 Y38.0512
G1 X19.2095 Y38.5272
G1 X19.2152 Y39.3643
G3 Y39.381 I-1.3 J0.0088
G3 X19.2155 Y39.398 I-1.2996 J0.0315
G1 X19.2224 Y40.015
G1 X19.2293 Y40.4728
G1 X19.2443 Y41.1577
G1 X19.2549 Y41.4711
G1 X19.2716
G3 X19.2913 Y41.4713 I-0.0025 J1.3
G2 X19.3005 Y41.4714 I0.0436 J-2.5452
G2 X19.3093 Y41.2976 I-3.6048 J-0.2688
G3 X19.3109 Y41.259 I1.2996 J0.0342
G2 X19.3134 Y41.1896 I-1.7903 J-0.1005
G3 X19.3136 Y41.1818 I1.2998 J0.0226
G1 X19.3243 Y40.7251
G1 X19.3293 Y40.3303
G1 X19.334 Y39.6275
G1 X19.3375 Y37.5017
G1 X19.3377 Y36.9166
G1 X19.3376 Y35.8908
G3 X19.3379 Y35.8626 I1.3 J-0.0002
G2 Y35.8248 I-0.8401 J-0.0181
G3 X19.3375 Y35.7973 I1.2996 J-0.0305
G1 X19.3358 Y35.054
G1 X19.3322 Y34.499
G1 X19.3311 Y34.4
G1 X19.325 Y34.0175
G1 X19.3169 Y33.739
G1 X19.3124 Y33.6374
G2 X19.2957 Y33.4223 I-3.2495 J0.145
G2 X19.2748 Y33.4192 I-0.1002 J0.5956
G2 X19.2592 Y33.4384 I0.3201 J0.2761
G2 X19.259 Y33.4432 I3.039 J0.1283
G1 X19.2492 Y33.693
G1 X19.2424 Y33.9243
G1 X19.2371 Y34.1424
G1 X19.2226 Y34.9815
G1 X19.2156 Y35.6112
G1 X19.2118 Y36.0848
G1 X19.2107 Y36.2618
G1 X19.2092 Y36.5733
G1 X19.2087 Y36.6892
G1 X19.2076 Y37.0982
G1 X19.2073 Y37.3021
G1 X19.2072 Y37.5057
G1 X19.2075 Y37.7529
G1 F300.0 X18.8075 Y37.7534
G1 F500.0 X18.8079 Y38.0521
G1 X18.8096 Y38.5292
G1 X18.8152 Y39.367
G3 Y39.3846 I-0.9 J0.0061
G3 X18.8155 Y39.4025 I-0.8996 J0.0279
G1 X18.8224 Y40.0203
G1 X18.8294 Y40.4802
G1 X18.8444 Y41.1688
G1 X18.8558 Y41.505
G1 X18.8636 Y41.6632
G1 X18.866 Y41.6984
G2 X18.887 Y41.7384 I0.3001 J-0.1318
G3 X18.9011 Y41.7622 I-0.7665 J0.4717
G2 X18.9783 Y41.869 I0.5459 J-0.3132
G3 X18.9872 I-0.0026 J0.9
G1 X19.129 Y41.8708
G1 X19.2708 Y41.8711
G3 X19.2845 Y41.8712 I-0.0017 J0.9
G2 X19.5632 Y41.8628 I0.0504 J-2.9451
G3 X19.5715 Y41.8622 I0.0698 J0.8973
G2 X19.6277 Y41.8566 I-0.0623 J-0.9097
G2 X19.6575 Y41.795 I-0.8727 J-0.4606
G3 X19.6609 Y41.7877 I0.8231 J0.364
G2 X19.6736 Y41.7461 I-0.1552 J-0.0703
G2 X19.7092 Y41.3081 I-3.9779 J-0.5435
G3 X19.7103 Y41.2814 I0.8997 J0.0237
G2 X19.7134 Y41.1966 I-2.1896 J-0.1229
G3 X19.7135 Y41.1911 I0.8999 J0.0156
G1 X19.7242 Y40.7323
G1 X19.7293 Y40.3342
G1 X19.734 Y39.6292
G1 X19.7375 Y37.5021
G1 X19.7377 Y36.9167
G1 X19.7376 Y35.8908
G3 X19.7378 Y35.8712 I0.9 J-0.0001
G2 Y35.8154 I-1.24 J-0.0267
G3 X19.7375 Y35.7964 I0.8998 J-0.0211
G1 X19.7358 Y35.0522
G1 X19.7322 Y34.4956
G1 X19.7311 Y34.3947
G1 X19.7249 Y34.0085
G1 X19.7166 Y33.7244
G1 X19.712 Y33.6197
G2 X19.685 Y33.3103 I-3.6491 J0.1627
G2 X19.6686 Y33.262 I-0.137 J0.0196
G3 X19.652 Y33.2311 I0.7842 J-0.4417
G2 X19.5784 Y33.1208 I-0.5168 J0.2651
G3 X19.5714 Y33.1124 I0.6868 J-0.5817
G2 X19.5383 Y33.0752 I-0.5256 J0.4343
G2 X19.4926 Y33.0588 I-0.1504 J0.348
G3 X19.4833 Y33.0561 I0.2487 J-0.8649
G2 X19.2537 Y33.0156 I-0.2878 J0.9618
G2 X19.1399 Y33.0171 I-0.0444 J0.9708
G3 X19.1392 Y33.0172 I-0.0643 J-0.8977
G2 X19.1274 Y33.0185 I0.0089 J0.1258
G2 X19.1149 Y33.0266 I0.0376 J0.0721
G3 X19.1004 Y33.0378 I-0.5554 J-0.7082
G2 X18.9321 Y33.2079 I0.4945 J0.6575
G3 X18.9262 Y33.2158 I-0.7251 J-0.5332
G2 X18.8682 Y33.3073 I0.5423 J0.4081
G3 X18.8659 Y33.3116 I-0.7961 J-0.4199
G3 X18.8652 Y33.3226 I-0.8984 J-0.0529
G2 X18.8593 Y33.4272 I3.4331 J0.2441
G1 X18.8494 Y33.6792
G1 X18.8425 Y33.9135
G1 X18.8372 Y34.1341
G1 X18.8226 Y34.9758
G1 X18.8156 Y35.6073
G1 X18.8118 Y36.082
G1 X18.8107 Y36.2596
G1 X18.8092 Y36.5715
G1 X18.8087 Y36.6879
G1 X18.8076 Y37.0974
G1 X18.8073 Y37.3017
G1 X18.8072 Y37.5058
G1 X18.8075 Y37.7534
G1 F300.0 X18.4075 Y37.7539
G1 F500.0 X18.4079 Y38.0531
G1 X18.4096 Y38.5313
G1 X18.4152 Y39.3697
G3 X18.415 Y39.3883 I-0.5 J0.0034
G3 X18.4156 Y39.4069 I-0.4994 J0.0242
G1 X18.4225 Y40.0256
G1 X18.4294 Y40.4876
G1 X18.4446 Y41.1799
G1 X18.4561 Y41.5216
G1 X18.4642 Y41.6868
G1 X18.4699 Y41.7682
G2 X18.4712 Y41.783 I0.3692 J-0.0268
G2 X18.5463 Y41.948 I0.6949 J-0.2164
G3 X18.5542 Y41.9613 I-0.4258 J0.2621
G2 X18.6936 Y42.1504 I0.8928 J-0.5123
G3 X18.6959 Y42.1529 I-0.366 J0.3407
G2 X18.7598 Y42.2173 I0.8579 J-0.7876
G3 X18.7814 Y42.2387 I-0.3409 J0.3658
G2 X18.7959 Y42.2512 I0.073 J-0.0694
G3 X18.8005 Y42.2546 I-0.291 J0.4066
G2 X18.9739 Y42.269 I0.1698 J-0.9955
G3 X18.9821 I0.0018 J0.5
G1 X19.1261 Y42.2708
G1 X19.2701 Y42.2711
G3 X19.2777 Y42.2712 I-0.001 J0.5
G2 X19.5942 Y42.2616 I0.0572 J-3.3451
G3 X19.5988 Y42.2613 I0.0388 J0.4985
G2 X19.7974 Y42.2323 I-0.0896 J-1.3087
G2 X19.8603 Y42.2089 I-0.0567 J-0.2482
G2 X19.9137 Y42.1581 I-0.0825 J-0.14
G3 Y42.158 I0.4178 J0.2746
G2 X20.0234 Y41.9568 I-1.1587 J-0.762
G3 X20.0252 Y41.9527 I0.4573 J0.2022
G2 X20.0692 Y41.8052 I-0.5196 J-0.2354
G2 X20.109 Y41.3187 I-4.3735 J-0.6025
G3 X20.1096 Y41.3038 I0.4998 J0.0131
G2 X20.1133 Y41.2035 I-2.589 J-0.1453
G3 X20.1134 Y41.2005 I0.4999 J0.0087
G1 X20.1242 Y40.7396
G1 X20.1293 Y40.3381
G1 X20.134 Y39.6309
G1 X20.1375 Y37.5025
G1 X20.1377 Y36.9167
G1 X20.1376 Y35.8907
G3 X20.1377 Y35.8799 I0.5 J-0.0001
G2 X20.1376 Y35.8061 I-1.6399 J-0.0354
G3 X20.1375 Y35.7955 I0.4999 J-0.0117
G1 X20.1358 Y35.0504
G1 X20.1322 Y34.4922
G1 X20.1311 Y34.3894
G1 X20.1248 Y33.9995
G1 X20.1164 Y33.7098
G1 X20.1117 Y33.6021
G2 X20.0815 Y33.2569 I-4.0487 J0.1804
G2 X20.0171 Y33.0657 I-0.5334 J0.073
G3 X20.0079 Y33.0485 I0.4357 J-0.2454
G2 X19.8836 Y32.8623 I-0.8727 J0.4476
G3 X19.8797 Y32.8576 I0.3815 J-0.3231
G2 X19.8012 Y32.7723 I-0.834 J0.6891
G3 X19.8007 Y32.7718 I0.3491 J-0.3579
G2 X19.7601 Y32.7387 I-0.2018 J0.2063
G2 X19.6032 Y32.6744 I-0.3722 J0.6845
G3 X19.598 Y32.6729 I0.1382 J-0.4805
G2 X19.2744 Y32.6162 I-0.4025 J1.345
G2 X19.1113 Y32.6181 I-0.0651 J1.3702
G3 X19.111 Y32.6182 I-0.0357 J-0.4987
G2 X19.0054 Y32.6366 I0.0372 J0.5248
G2 X18.868 Y32.7119 I0.1597 J0.454
G3 X18.86 Y32.7181 I-0.3086 J-0.3934
G2 X18.6098 Y32.9709 I0.7349 J0.9772
G3 X18.6066 Y32.9753 I-0.4028 J-0.2962
G2 X18.5144 Y33.1207 I0.862 J0.6486
G3 X18.5121 Y33.1249 I-0.4423 J-0.2333
G2 X18.4713 Y33.226 I0.4308 J0.2326
G2 X18.4672 Y33.2736 I0.4197 J0.0603
G3 X18.4662 Y33.2942 I-0.4998 J-0.0149
G2 X18.4596 Y33.4112 I3.8321 J0.2724
G1 X18.4497 Y33.6655
G1 X18.4427 Y33.9028
G1 X18.4373 Y34.1258
G1 X18.4227 Y34.9701
G1 X18.4156 Y35.6035
G1 X18.4118 Y36.0792
G1 X18.4107 Y36.2573
G1 X18.4092 Y36.5697
G1 X18.4087 Y36.6865
G1 X18.4076 Y37.0966
G1 X18.4073 Y37.3013
G1 X18.4072 Y37.506
G1 X18.4075 Y37.7539
G0 Z3.0
G0 X42.547 Y36.582
G1 F300.0 Z-0.3
G2 F500.0 X42.5534 Y36.6632 I1.3666 J-0.0663
G3 X42.9015 Y35.605 I1.8007 J0.0059
G3 X43.251 Y35.2341 I1.6519 J1.2067
G3 X43.6102 Y34.9845 I1.6578 J2.0025
G3 X43.6639 Y34.9559 I0.4495 J0.7797
G3 X43.8752 Y34.8644 I1.0852 J2.2153
G3 X44.3763 Y34.675 I10.8462 J27.9328
G3 X44.3778 Y34.6744 I0.3107 J0.8447
G1 X44.8696 Y34.4945
G3 X44.8768 Y34.4919 I0.3092 J0.8452
G2 X45.5228 Y34.1904 I-1.2671 J-3.5576
G2 X45.9116 Y33.9034 I-1.2571 J-2.11
G2 X46.1265 Y33.661 I-1.1585 J-1.2432
G2 X46.3223 Y33.2617 I-1.0631 J-0.769
G2 X46.3899 Y32.7707 I-1.6751 J-0.481
G3 Y32.7576 I0.9 J-0.0052
G2 X46.3551 Y32.3165 I-2.5295 J-0.0224
G3 X46.3546 Y32.313 I0.8876 J-0.149
G2 X46.2647 Y31.9787 I-1.7099 J0.2802
G3 X46.2638 Y31.9761 I0.8415 J-0.3192
G2 X46.0187 Y31.5857 I-1.0802 J0.4059
G3 X46.1782 Y32.0737 I-1.7199 J0.8322
G3 X46.1786 Y32.076 I-0.8853 J0.1621
G3 X46.2166 Y32.5099 I-2.3483 J0.4239
G3 X45.8374 Y33.6027 I-1.7822 J-0.0062
G3 X45.5079 Y33.9481 I-1.7703 J-1.3586
G3 X45.4999 Y33.9549 I-0.5811 J-0.6873
G1 X45.444 Y34.001
G3 X45.4154 Y34.0237 I-0.573 J-0.694
G3 X45.189 Y34.184 I-2.5116 J-3.3067
G3 X45.1652 Y34.1991 I-0.4953 J-0.7514
G3 X44.832 Y34.3821 I-2.0221 J-3.2872
G3 X44.5975 Y34.4927 I-2.4725 J-4.9413
G1 X44.4453 Y34.5601
G3 X44.4312 Y34.5663 I-0.3647 J-0.8228
G1 X44.201 Y34.6636
G3 X44.1887 Y34.6687 I-0.3506 J-0.8289
G1 X43.9571 Y34.7627
G3 X43.9392 Y34.7697 I-0.3383 J-0.834
G2 X43.7935 Y34.8308 I0.8441 J2.2158
G3 X43.7718 Y34.8405 I-0.3757 J-0.8178
G2 X43.5018 Y34.9707 I1.296 J3.0307
G3 X43.4921 Y34.9759 I-0.4276 J-0.7919
G2 X43.1215 Y35.2073 I1.348 J2.5714
G3 X43.1209 Y35.2077 I-0.5328 J-0.7254
G2 X42.8575 Y35.451 I0.9398 J1.2816
G2 X42.6279 Y35.8853 I0.9507 J0.7806
G1 X42.6045 Y35.9702
G2 X42.5454 Y36.4949 I2.1292 J0.5055
G3 X42.5455 Y36.5079 I-0.9 J0.0079
G2 X42.547 Y36.582 I1.3681 J0.0078
G1 F300.0 X42.1475 Y36.6014
G2 F500.0 X42.1933 Y36.9244 I1.7661 J-0.0857
G3 X42.1934 Y36.9247 I-0.4865 J0.1156
G2 X42.4499 Y37.4527 I1.3104 J-0.3103
G2 X42.9263 Y37.8645 I1.3944 J-1.1316
G3 X42.9286 Y37.8659 I-0.2556 J0.4297
G2 X43.8005 Y38.2177 I1.5382 J-2.5555
G2 X44.7767 Y38.3234 I0.9483 J-4.1971
G1 X45.0485 Y38.3196
G2 X45.9371 Y38.2388 I-0.142 J-6.4873
G2 X46.3598 Y38.1496 I-0.7847 J-4.7642
G1 X46.3856 Y38.1424
G1 X46.3375 Y37.8498
G3 X46.2113 Y37.8756 I-2.6876 J-12.8178
G3 X46.2071 Y37.8764 I-0.0978 J-0.4903
G3 X45.5632 Y37.9766 I-1.794 J-9.4131
G3 X45.5581 Y37.9772 I-0.06 J-0.4964
G3 X44.8913 Y38.017 I-0.7286 J-6.5913
G3 X44.889 I-0.0047 J-0.5
G3 X44.6373 Y38.0108 I-0.0203 J-4.2939
G3 X44.1736 Y37.9573 I0.1386 J-3.2347
G3 X43.7931 Y37.8509 I0.3904 J-2.1296
G3 X43.4886 Y37.695 I0.5378 J-1.4258
G3 X43.0852 Y37.2501 I0.6456 J-0.9906
G3 X43.079 Y37.2376 I0.4435 J-0.2308
G3 X42.9534 Y36.6781 I1.1262 J-0.5465
G3 X43.2243 Y35.8411 I1.4007 J-0.009
G3 X43.5059 Y35.5424 I1.329 J0.9705
G3 X43.81 Y35.331 I1.4029 J1.6942
G3 X43.8398 Y35.3152 I0.2497 J0.4332
G3 X44.0184 Y35.2379 I0.9092 J1.8561
G3 X44.5144 Y35.0504 I10.703 J27.5593
G3 X44.5152 Y35.0501 I0.1726 J0.4693
G1 X45.007 Y34.8702
G3 X45.011 Y34.8687 I0.1718 J0.4696
G2 X45.7265 Y34.5346 I-1.4014 J-3.9344
G2 X46.182 Y34.1982 I-1.4608 J-2.4543
G2 X46.4501 Y33.896 I-1.4288 J-1.538
G2 X46.7064 Y33.3732 I-1.3868 J-1.004
G2 X46.7899 Y32.7684 I-2.0592 J-0.5925
G3 Y32.7612 I0.5 J-0.0029
G2 X46.7496 Y32.2503 I-2.9295 J-0.0259
G3 X46.7493 Y32.2484 I0.4931 J-0.0828
G2 X46.6387 Y31.8369 I-2.1046 J0.3449
G3 X46.6382 Y31.8354 I0.4675 J-0.1773
G2 X46.2598 Y31.2612 I-1.4546 J0.5467
G2 X45.8263 Y30.9619 I-1.2119 J1.2918
G3 X45.8248 Y30.9611 I0.2197 J-0.4491
G2 X45.4335 Y30.8077 I-1.099 J2.2269
G1 X45.35 Y30.7837
G2 X44.7288 Y30.6696 I-1.0775 J4.1212
G2 X44.073 Y30.6363 I-0.6298 J5.9156
G3 X44.0682 I-0.0022 J-0.5
G2 X42.8863 Y30.7243 I-0.0393 J7.4465
G3 X42.8853 Y30.7245 I-0.0767 J-0.4941
G2 X42.1605 Y30.8924 I0.7454 J4.8659
G1 X42.2166 Y31.19
G3 X43.7334 Y30.9427 I1.5267 J4.5874
G3 X44.3358 Y30.9724 I0.0145 J5.8197
G3 X44.3395 Y30.9728 I-0.0505 J0.4974
G3 X44.6641 Y31.0263 I-0.3262 J2.9923
G3 X45.0297 Y31.1484 I-0.3547 J1.6701
G3 X45.6565 Y31.7557 I-0.5414 J1.1861
G3 X45.6586 Y31.7598 I-0.448 J0.222
G3 X45.7847 Y32.1458 I-1.3598 J0.6581
G3 X45.785 Y32.147 I-0.4918 J0.0901
G3 X45.8166 Y32.5084 I-1.9546 J0.3529
G3 X45.5213 Y33.3576 I-1.3822 J-0.0047
G3 X45.2497 Y33.6427 I-1.4542 J-1.1135
G3 X45.2452 Y33.6464 I-0.3228 J-0.3818
G1 X45.1893 Y33.6925
G3 X45.1734 Y33.7051 I-0.3184 J-0.3856
G3 X44.9689 Y33.85 I-2.2697 J-2.9881
G3 X44.9557 Y33.8584 I-0.2752 J-0.4175
G3 X44.655 Y34.0234 I-1.8125 J-2.9465
G3 X44.4354 Y34.127 I-2.2955 J-4.5826
G1 X44.2832 Y34.1945
G3 X44.2753 Y34.1979 I-0.2026 J-0.4571
G1 X44.0452 Y34.2952
G3 X44.0383 Y34.298 I-0.1948 J-0.4605
G1 X43.8067 Y34.392
G3 X43.7968 Y34.3959 I-0.1879 J-0.4633
G2 X43.6266 Y34.4673 I0.9865 J2.5896
G3 X43.6145 Y34.4727 I-0.2087 J-0.4544
G2 X43.3118 Y34.6187 I1.4533 J3.3985
G3 X43.3064 Y34.6216 I-0.2375 J-0.44
G2 X42.8847 Y34.8849 I1.5337 J2.9257
G3 X42.8844 Y34.8851 I-0.296 J-0.403
G2 X42.5515 Y35.1934 I1.1764 J1.6042
G2 X42.243 Y35.7762 I1.2567 J1.0383
G1 X42.2171 Y35.8707
G2 X42.1455 Y36.4984 I2.5167 J0.605
G3 Y36.5057 I-0.5 J0.0044
G2 X42.1475 Y36.6014 I1.7681 J0.0101
G1 F300.0 X42.547 Y36.582
G1 Z-0.4
G2 F500.0 X42.5534 Y36.6632 I1.3666 J-0.0663
G3 X42.9015 Y35.605 I1.8007 J0.0059
G3 X43.251 Y35.2341 I1.6519 J1.2067
G3 X43.6102 Y34.9845 I1.6578 J2.0025
G3 X43.6639 Y34.9559 I0.4495 J0.7797
G3 X43.8752 Y34.8644 I1.0852 J2.2153
G3 X44.3763 Y34.675 I10.8462 J27.9328
G3 X44.3778 Y34.6744 I0.3107 J0.8447
G1 X44.8696 Y34.4945
G3 X44.8768 Y34.4919 I0.3092 J0.8452
G2 X45.5228 Y34.1904 I-1.2671 J-3.5576
G2 X45.9116 Y33.9034 I-1.2571 J-2.11
G2 X46.1265 Y33.661 I-1.1585 J-1.2432
G2 X46.3223 Y33.2617 I-1.0631 J-0.769
G2 X46.3899 Y32.7707 I-1.6751 J-0.481
G3 Y32.7576 I0.9 J-0.0052
G2 X46.3551 Y32.3165 I-2.5295 J-0.0224
G3 X46.3546 Y32.313 I0.8876 J-0.149
G2 X46.2647 Y31.9787 I-1.7099 J0.2802
G3 X46.2638 Y31.9761 I0.8415 J-0.3192
G2 X46.0187 Y31.5857 I-1.0802 J0.4059
G3 X46.1782 Y32.0737 I-1.7199 J0.8322
G3 X46.1786 Y32.076 I-0.8853 J0.1621
G3 X46.2166 Y32.5099 I-2.3483 J0.4239
G3 X45.8374 Y33.6027 I-1.7822 J-0.0062
G3 X45.5079 Y33.9481 I-1.7703 J-1.3586
G3 X45.4999 Y33.9549 I-0.5811 J-0.6873
G1 X45.444 Y34.001
G3 X45.4154 Y34.0237 I-0.573 J-0.694
G3 X45.189 Y34.184 I-2.5116 J-3.3067
G3 X45.1652 Y34.1991 I-0.4953 J-0.7514
G3 X44.832 Y34.3821 I-2.0221 J-3.2872
G3 X44.5975 Y34.4927 I-2.4725 J-4.9413
G1 X44.4453 Y34.5601
G3 X44.4312 Y34.5663 I-0.3647 J-0.8228
G1 X44.201 Y34.6636
G3 X44.1887 Y34.6687 I-0.3506 J-0.8289
G1 X43.9571 Y34.7627
G3 X43.9392 Y34.7697 I-0.3383 J-0.834
G2 X43.7935 Y34.8308 I0.8441 J2.2158
G3 X43.7718 Y34.8405 I-0.3757 J-0.8178
G2 X43.5018 Y34.9707 I1.296 J3.0307
G3 X43.4921 Y34.9759 I-0.4276 J-0.7919
G2 X43.1215 Y35.2073 I1.348 J2.5714
G3 X43.1209 Y35.2077 I-0.5328 J-0.7254
G2 X42.8575 Y35.451 I0.9398 J1.2816
G2 X42.6279 Y35.8853 I0.9507 J0.7806
G1 X42.6045 Y35.9702
G2 X42.5454 Y36.4949 I2.1292 J0.5055
G3 X42.5455 Y36.5079 I-0.9 J0.0079
G2 X42.547 Y36.582 I1.3681 J0.0078
G1 F300.0 X42.1475 Y36.6014
G2 F500.0 X42.1933 Y36.9244 I1.7661 J-0.0857
G3 X42.1934 Y36.9247 I-0.4865 J0.1156
G2 X42.4499 Y37.4527 I1.3104 J-0.3103
G2 X42.9263 Y37.8645 I1.3944 J-1.1316
G3 X42.9286 Y37.8659 I-0.2556 J0.4297
G2 X43.8005 Y38.2177 I1.5382 J-2.5555
G2 X44.7767 Y38.3234 I0.9483 J-4.1971
G1 X45.0485 Y38.3196
G2 X45.9371 Y38.2388 I-0.142 J-6.4873
G2 X46.3598 Y38.1496 I-0.7847 J-4.7642
G1 X46.3856 Y38.1424
G1 X46.3375 Y37.8498
G3 X46.2113 Y37.8756 I-2.6876 J-12.8178
G3 X46.2071 Y37.8764 I-0.0978 J-0.4903
G3 X45.5632 Y37.9766 I-1.794 J-9.4131
G3 X45.5581 Y37.9772 I-0.06 J-0.4964
G3 X44.8913 Y38.017 I-0.7286 J-6.5913
G3 X44.889 I-0.0047 J-0.5
G3 X44.6373 Y38.0108 I-0.0203 J-4.2939
G3 X44.1736 Y37.9573 I0.1386 J-3.2347
G3 X43.7931 Y37.8509 I0.3904 J-2.1296
G3 X43.4886 Y37.695 I0.5378 J-1.4258
G3 X43.0852 Y37.2501 I0.6456 J-0.9906
G3 X43.079 Y37.2376 I0.4435 J-0.2308
G3 X42.9534 Y36.6781 I1.1262 J-0.5465
G3 X43.2243 Y35.8411 I1.4007 J-0.009
G3 X43.5059 Y35.5424 I1.329 J0.9705
G3 X43.81 Y35.331 I1.4029 J1.6942
G3 X43.8398 Y35.3152 I0.2497 J0.4332
G3 X44.0184 Y35.2379 I0.9092 J1.8561
G3 X44.5144 Y35.0504 I10.703 J27.5593
G3 X44.5152 Y35.0501 I0.1726 J0.4693
G1 X45.007 Y34.8702
G3 X45.011 Y34.8687 I0.1718 J0.4696
G2 X45.7265 Y34.5346 I-1.4014 J-3.9344
G2 X46.182 Y34.1982 I-1.4608 J-2.4543
G2 X46.4501 Y33.896 I-1.4288 J-1.538
G2 X46.7064 Y33.3732 I-1.3868 J-1.004
G2 X46.7899 Y32.7684 I-2.0592 J-0.5925
G3 Y32.7612 I0.5 J-0.0029
G2 X46.7496 Y32.2503 I-2.9295 J-0.0259
G3 X46.7493 Y32.2484 I0.4931 J-0.0828
G2 X46.6387 Y31.8369 I-2.1046 J0.3449
G3 X46.6382 Y31.8354 I0.4675 J-0.1773
G2 X46.2598 Y31.2612 I-1.4546 J0.5467
G2 X45.8263 Y30.9619 I-1.2119 J1.2918
G3 X45.8248 Y30.9611 I0.2197 J-0.4491
G2 X45.4335 Y30.8077 I-1.099 J2.2269
G1 X45.35 Y30.7837
G2 X44.7288 Y30.6696 I-1.0775 J4.1212
G2 X44.073 Y30.6363 I-0.6298 J5.9156
G3 X44.0682 I-0.0022 J-0.5
G2 X42.8863 Y30.7243 I-0.0393 J7.4465
G3 X42.8853 Y30.7245 I-0.0767 J-0.4941
G2 X42.1605 Y30.8924 I0.7454 J4.8659
G1 X42.2166 Y31.19
G3 X43.7334 Y30.9427 I1.5267 J4.5874
G3 X44.3358 Y30.9724 I0.0145 J5.8197
G3 X44.3395 Y30.9728 I-0.0505 J0.4974
G3 X44.6641 Y31.0263 I-0.3262 J2.9923
G3 X45.0297 Y31.1484 I-0.3547 J1.6701
G3 X45.6565 Y31.7557 I-0.5414 J1.1861
G3 X45.6586 Y31.7598 I-0.448 J0.222
G3 X45.7847 Y32.1458 I-1.3598 J0.6581
G3 X45.785 Y32.147 I-0.4918 J0.0901
G3 X45.8166 Y32.5084 I-1.9546 J0.3529
G3 X45.5213 Y33.3576 I-1.3822 J-0.0047
G3 X45.2497 Y33.6427 I-1.4542 J-1.1135
G3 X45.2452 Y33.6464 I-0.3228 J-0.3818
G1 X45.1893 Y33.6925
G3 X45.1734 Y33.7051 I-0.3184 J-0.3856
G3 X44.9689 Y33.85 I-2.2697 J-2.9881
G3 X44.9557 Y33.8584 I-0.2752 J-0.4175
G3 X44.655 Y34.0234 I-1.8125 J-2.9465
G3 X44.4354 Y34.127 I-2.2955 J-4.5826
G1 X44.2832 Y34.1945
G3 X44.2753 Y34.1979 I-0.2026 J-0.4571
G1 X44.0452 Y34.2952
G3 X44.0383 Y34.298 I-0.1948 J-0.4605
G1 X43.8067 Y34.392
G3 X43.7968 Y34.3959 I-0.1879 J-0.4633
G2 X43.6266 Y34.4673 I0.9865 J2.5896
G3 X43.6145 Y34.4727 I-0.2087 J-0.4544
G2 X43.3118 Y34.6187 I1.4533 J3.3985
G3 X43.3064 Y34.6216 I-0.2375 J-0.44
G2 X42.8847 Y34.8849 I1.5337 J2.9257
G3 X42.8844 Y34.8851 I-0.296 J-0.403
G2 X42.5515 Y35.1934 I1.1764 J1.6042
G2 X42.243 Y35.7762 I1.2567 J1.0383
G1 X42.2171 Y35.8707
G2 X42.1455 Y36.4984 I2.5167 J0.605
G3 Y36.5057 I-0.5 J0.0044
G2 X42.1475 Y36.6014 I1.7681 J0.0101
G0 Z3.0
G0 X49.3805
G1 F300.0 Z-0.3
G1 F500.0 Y37.8132
G1 X49.5349
G3 X49.4885 Y37.5281 I0.8528 J-0.2851
G1 Y34.8161
G3 X49.7413 Y34.191 I0.8992 J0.0
G3 X49.4877 Y33.5648 I0.6464 J-0.6262
G1 Y31.1465
G1 X49.3805
G1 Y36.6014
G0 Z3.0
G0 X52.8372 Y37.3474
G1 F300.0 Z-0.3
G2 F500.0 X53.0753 Y36.9721 I-0.7424 J-0.7343
G3 X53.0772 Y36.967 I0.8451 J0.3094
G2 X53.1673 Y36.6159 I-1.6126 J-0.6013
G2 X53.1974 Y36.1953 I-2.8764 J-0.4169
G3 Y36.1877 I0.9 J-0.0011
G2 X53.1666 Y35.7773 I-2.5083 J-0.0178
G3 X53.1654 Y35.77 I0.8889 J-0.1409
G2 X52.9998 Y35.2615 I-1.6007 J0.2402
G2 X52.8554 Y35.0509 I-1.0773 J0.5836
G3 X52.97 Y35.3501 I-1.7788 J0.8524
G3 X53.0642 Y35.7956 I-2.5525 J0.7727
G3 X53.0895 Y36.2138 I-3.0738 J0.3955
G3 X52.9678 Y37.0351 I-2.6177 J0.0318
G3 X52.9666 Y37.0387 I-0.8573 J-0.2712
G3 X52.8372 Y37.3474 I-1.843 J-0.5916
G1 F300.0 X53.1216 Y37.6286
G2 F500.0 X53.4509 Y37.1096 I-1.0268 J-1.0155
G3 X53.452 Y37.1068 I0.4695 J0.1719
G2 X53.5632 Y36.6736 I-1.9874 J-0.741
G2 X53.5974 Y36.1948 I-3.2723 J-0.4747
G3 Y36.1906 I0.5 J-0.0006
G2 X53.5616 Y35.7147 I-2.9082 J-0.0206
G3 X53.561 Y35.7106 I0.4938 J-0.0783
G2 X53.353 Y35.0738 I-1.9963 J0.2996
G2 X52.945 Y34.5819 I-1.4305 J0.7713
G3 X52.9437 Y34.5808 I0.3146 J-0.3886
G2 X52.5684 Y34.3425 I-1.1929 J1.4638
G2 X51.8959 Y34.1283 I-1.1204 J2.3554
G3 X51.8954 Y34.1282 I0.0859 J-0.4926
G2 X51.1453 Y34.0648 I-0.7294 J4.1613
G3 X51.1429 I-0.0024 J-0.5
G1 X50.3877
G3 X49.8877 Y33.5648 I0.0 J-0.5
G1 Y30.7465
G1 X48.9805
G1 Y38.2132
G1 X51.176
G3 X51.1786 I0.0 J0.5
G2 X51.6725 Y38.1913 I0.0262 J-4.9903
G2 X52.0993 Y38.1285 I-0.4261 J-4.38
G2 X52.4415 Y38.0357 I-0.4989 J-2.5153
G3 X52.4468 Y38.0339 I0.164 J0.4723
G2 X52.9655 Y37.7652 I-0.6001 J-1.7939
G2 X53.1216 Y37.6286 I-0.8708 J-1.1521
G0 Z3.0
G0 X52.4461 Y37.2292
G1 F300.0 Z-0.3
G3 F500.0 X52.2827 Y37.4557 I-1.3225 J-0.782
G3 X52.2808 Y37.4579 I-0.3772 J-0.3282
G3 X51.9193 Y37.7567 I-1.1169 J-0.9833
G3 X51.915 Y37.7592 I-0.2538 J-0.4308
G3 X51.3227 Y37.9777 I-0.9362 J-1.6259
G3 X50.7661 Y38.0281 I-0.5349 J-2.8096
G1 X50.3877
G3 X49.8877 Y37.5281 I0.0 J-0.5
G1 Y34.8161
G3 X50.3877 Y34.3161 I0.5 J0.0
G1 X50.8579
G3 X51.552 Y34.4131 I0.0333 J2.2942
G3 X51.5528 Y34.4133 I-0.144 J0.4788
G3 X52.0933 Y34.7027 I-0.4515 J1.4927
G3 X52.1007 Y34.7089 I-0.3181 J0.3858
G3 X52.5873 Y35.4639 I-1.0241 J1.1944
G3 X52.6681 Y35.8456 I-2.1699 J0.6589
G3 X52.6902 Y36.2148 I-2.6777 J0.3456
G3 X52.5872 Y36.9147 I-2.2185 J0.0308
G3 X52.5865 Y36.9167 I-0.4767 J-0.1508
G3 X52.4461 Y37.2292 I-1.4629 J-0.4696
G1 F300.0 Z-0.4
G3 F500.0 X52.2827 Y37.4557 I-1.3225 J-0.782
G3 X52.2808 Y37.4579 I-0.3772 J-0.3282
G3 X51.9193 Y37.7567 I-1.1169 J-0.9833
G3 X51.915 Y37.7592 I-0.2538 J-0.4308
G3 X51.3227 Y37.9777 I-0.9362 J-1.6259
G3 X50.7661 Y38.0281 I-0.5349 J-2.8096
G1 X50.3877
G3 X49.8877 Y37.5281 I0.0 J-0.5
G1 Y34.8161
G3 X50.3877 Y34.3161 I0.5 J0.0
G1 X50.8579
G3 X51.552 Y34.4131 I0.0333 J2.2942
G3 X51.5528 Y34.4133 I-0.144 J0.4788
G3 X52.0933 Y34.7027 I-0.4515 J1.4927
G3 X52.1007 Y34.7089 I-0.3181 J0.3858
G3 X52.5873 Y35.4639 I-1.0241 J1.1944
G3 X52.6681 Y35.8456 I-2.1699 J0.6589
G3 X52.6902 Y36.2148 I-2.6777 J0.3456
G3 X52.5872 Y36.9147 I-2.2185 J0.0308
G3 X52.5865 Y36.9167 I-0.4767 J-0.1508
G3 X52.4461 Y37.2292 I-1.4629 J-0.4696
G1 F300.0 X52.8372 Y37.3474
G2 F500.0 X53.0753 Y36.9721 I-0.7424 J-0.7343
G3 X53.0772 Y36.967 I0.8451 J0.3094
G2 X53.1673 Y36.6159 I-1.6126 J-0.6013
G2 X53.1974 Y36.1953 I-2.8764 J-0.4169
G3 Y36.1877 I0.9 J-0.0011
G2 X53.1666 Y35.7773 I-2.5083 J-0.0178
G3 X53.1654 Y35.77 I0.8889 J-0.1409
G2 X52.9998 Y35.2615 I-1.6007 J0.2402
G2 X52.8554 Y35.0509 I-1.0773 J0.5836
G3 X52.97 Y35.3501 I-1.7788 J0.8524
G3 X53.0642 Y35.7956 I-2.5525 J0.7727
G3 X53.0895 Y36.2138 I-3.0738 J0.3955
G3 X52.9678 Y37.0351 I-2.6177 J0.0318
G3 X52.9666 Y37.0387 I-0.8573 J-0.2712
G3 X52.8372 Y37.3474 I-1.843 J-0.5916
G0 Z3.0
G0 X49.5349 Y37.8132
G1 F300.0 Z-0.4
G3 F500.0 X49.4885 Y37.5281 I0.8528 J-0.2851
G1 Y34.8161
G3 X49.7413 Y34.191 I0.8992 J0.0
G3 X49.4877 Y33.5648 I0.6464 J-0.6262
G1 Y31.1465
G1 X49.3805
G1 Y37.8132
G1 X49.5349
G1 F300.0 Y38.2132
G1 F500.0 X51.176
G3 X51.1786 I0.0 J0.5
G2 X51.6725 Y38.1913 I0.0262 J-4.9903
G2 X52.0993 Y38.1285 I-0.4261 J-4.38
G2 X52.4415 Y38.0357 I-0.4989 J-2.5153
G3 X52.4468 Y38.0339 I0.164 J0.4723
G2 X52.9655 Y37.7652 I-0.6001 J-1.7939
G2 X53.4509 Y37.1096 I-0.8708 J-1.1521
G3 X53.452 Y37.1068 I0.4695 J0.1719
G2 X53.5632 Y36.6736 I-1.9874 J-0.741
G2 X53.5974 Y36.1948 I-3.2723 J-0.4747
G3 Y36.1906 I0.5 J-0.0006
G2 X53.5616 Y35.7147 I-2.9082 J-0.0206
G3 X53.561 Y35.7106 I0.4938 J-0.0783
G2 X53.353 Y35.0738 I-1.9963 J0.2996
G2 X52.945 Y34.5819 I-1.4305 J0.7713
G3 X52.9437 Y34.5808 I0.3146 J-0.3886
G2 X52.5684 Y34.3425 I-1.1929 J1.4638
G2 X51.8959 Y34.1283 I-1.1204 J2.3554
G3 X51.8954 Y34.1282 I0.0859 J-0.4926
G2 X51.1453 Y34.0648 I-0.7294 J4.1613
G3 X51.1429 I-0.0024 J-0.5
G1 X50.3877
G3 X49.8877 Y33.5648 I0.0 J-0.5
G1 Y30.7465
G1 X48.9805
G1 Y38.2132
G1 X49.5349
G0 Z3.0
G0 X56.3865 Y37.8132
G1 F300.0 Z-0.3
G1 F500.0 X56.4937
G1 Y31.1465
G1 X56.3865
G1 Y37.8132
G1 F300.0 X55.9865
G1 F500.0 Y38.2132
G1 X56.8937
G1 Y30.7465
G1 X55.9865
G1 Y37.8132
G1 F300.0 X56.3865
G1 Z-0.4
G1 F500.0 X56.4937
G1 Y31.1465
G1 X56.3865
G1 Y37.8132
G1 F300.0 X55.9865
G1 F500.0 Y38.2132
G1 X56.8937
G1 Y30.7465
G1 X55.9865
G1 Y37.8132
G0 Z3.0
G0 X60.1568 Y37.424
G1 F300.0 Z-0.3
G1 F500.0 X61.0059 Y36.3753
G3 X60.1568 Y36.3417 I-0.3931 J-0.8096
G1 Y37.424
G0 Z3.0
G0 X63.8553 Y32.9367
G1 F300.0 Z-0.3
G3 F500.0 X64.7674 Y32.9172 I0.4726 J0.7659
G1 Y31.7907
G1 X63.8553 Y32.9367
G1 F300.0 X63.5423 Y32.6876
G1 F500.0 X61.004 Y35.8771
G3 X60.1128 Y35.5657 I-0.3912 J-0.3114
G1 Y30.7465
G1 X59.7568
G1 Y38.2132
G1 X60.0325
G1 X63.9393 Y33.388
G3 X64.8279 Y33.7026 I0.3886 J0.3146
G1 Y38.2132
G1 X65.1674
G1 Y30.7465
G1 X65.0872
G1 X63.5423 Y32.6876
G1 F300.0 X63.8553 Y32.9367
G1 Z-0.4
G3 F500.0 X64.7674 Y32.9172 I0.4726 J0.7659
G1 Y31.7907
G1 X63.8553 Y32.9367
G0 Z3.0
G0 X61.0059 Y36.3753
G1 F300.0 Z-0.4
G3 F500.0 X60.1568 Y36.3417 I-0.3931 J-0.8096
G1 Y37.424
G1 X61.0059 Y36.3753
G1 F300.0 X60.8312 Y36.0155
G3 F500.0 X60.1128 Y35.5657 I-0.2184 J-0.4498
G1 Y30.7465
G1 X59.7568
G1 Y38.2132
G1 X60.0325
G1 X63.9393 Y33.388
G3 X64.8279 Y33.7026 I0.3886 J0.3146
G1 Y38.2132
G1 X65.1674
G1 Y30.7465
G1 X65.0872
G1 X61.004 Y35.8771
G3 X60.8312 Y36.0155 I-0.3912 J-0.3114
G0 Z3.0
G0 X68.0998
G1 F300.0 Z-0.3
G1 F500.0 Y37.8132
G1 X68.284
G3 X68.2078 Y37.4509 I0.823 J-0.3623
G1 Y31.4978
G3 X68.2792 Y31.1465 I0.8992 J0.0
G1 X68.0998
G1 Y36.0155
G0 Z3.0
G0 X72.0591 Y36.9362
G1 F300.0 Z-0.3
G2 F500.0 X72.2066 Y36.6915 I-1.686 J-1.1833
G2 X72.4036 Y36.2101 I-2.756 J-1.4088
G2 X72.5763 Y35.3854 I-4.3995 J-1.3513
G3 X72.5767 Y35.3818 I0.8941 J0.103
G2 X72.6277 Y34.4844 I-7.224 J-0.861
G3 Y34.4744 I0.9 J-0.0045
G2 X72.5985 Y33.7105 I-8.6345 J-0.0522
G3 X72.5971 Y33.6911 I0.8969 J-0.0742
G2 X72.5876 Y33.5858 I-1.789 J0.109
G3 X72.5855 Y33.5671 I0.8935 J-0.1076
G2 X72.5129 Y33.0515 I-6.3226 J0.6278
G2 X72.43 Y32.6878 I-4.4988 J0.8338
G3 X72.4284 Y32.6816 I0.8686 J-0.2355
G2 X72.3949 Y32.5674 I-2.1127 J0.5569
G3 X72.3868 Y32.541 I0.8565 J-0.2764
G2 X72.3628 Y32.4687 I-0.9301 J0.269
G3 X72.3557 Y32.4493 I0.8422 J-0.3172
G2 X72.2026 Y32.0964 I-2.519 J0.8835
G3 X72.2018 Y32.0949 I0.7976 J-0.4169
G2 X72.1885 Y32.0698 I-1.4367 J0.7474
G3 X72.256 Y32.2476 I-2.7177 J1.134
G3 X72.2598 Y32.2589 I-0.8505 J0.292
G3 X72.4077 Y32.8785 I-3.6399 J1.196
G3 X72.46 Y33.2945 I-6.641 J1.0464
G3 X72.4987 Y33.9016 I-9.1183 J0.8867
G1 X72.503 Y34.0387
G3 X72.5033 Y34.0467 I-0.8988 J0.0284
G1 X72.5056 Y34.1499
G3 X72.5057 Y34.1578 I-0.899 J0.0204
G1 X72.5079 Y34.3126
G3 X72.508 Y34.3211 I-0.8991 J0.0125
G1 X72.5087 Y34.4747
G3 X72.4481 Y35.5306 I-8.2248 J0.0578
G3 X72.2716 Y36.3892 I-5.1894 J-0.6194
G3 X72.2711 Y36.3909 I-0.8625 J-0.2543
G3 X72.0591 Y36.9362 I-3.4235 J-1.0168
G1 F300.0 X72.3865 Y37.166
G2 F500.0 X72.5627 Y36.8737 I-2.0134 J-1.4131
G2 X72.7857 Y36.3287 I-3.1121 J-1.5909
G2 X72.9736 Y35.4311 I-4.7815 J-1.4699
G3 X72.9739 Y35.4292 I0.4967 J0.0572
G2 X73.0277 Y34.4824 I-7.6212 J-0.9083
G3 Y34.4768 I0.5 J-0.0025
G2 X72.9971 Y33.6775 I-9.0345 J-0.0546
G3 X72.9964 Y33.6667 I0.4983 J-0.0412
G2 X72.9847 Y33.538 I-2.1883 J0.1334
G3 X72.9836 Y33.5276 I0.4964 J-0.0598
G2 X72.9063 Y32.979 I-6.7206 J0.6673
G2 X72.8161 Y32.5831 I-4.8922 J0.9062
G3 X72.8152 Y32.5797 I0.4826 J-0.1309
G2 X72.7756 Y32.4445 I-2.4995 J0.6588
G3 X72.7711 Y32.4299 I0.4758 J-0.1536
G2 X72.7371 Y32.3277 I-1.3144 J0.3801
G3 X72.7332 Y32.3169 I0.4679 J-0.1762
G2 X72.5571 Y31.9111 I-2.8964 J1.0159
G3 X72.5567 Y31.9103 I0.4431 J-0.2316
G2 X72.33 Y31.5658 I-1.7916 J0.932
G3 X72.3265 Y31.5614 I0.3874 J-0.316
G2 X71.8925 Y31.1172 I-2.4157 J1.9258
G2 X71.6632 Y30.9554 I-1.1119 J1.3327
G2 X71.4335 Y30.8491 I-0.6606 J1.1262
G2 X71.2016 Y30.7973 I-0.484 J1.622
G1 X71.0909 Y30.7827
G1 X71.0476 Y30.7779
G2 X70.3075 Y30.7465 I-0.6766 J7.2121
G3 X70.3031 I-0.0044 J-0.5
G1 X67.6998
G1 Y38.2132
G1 X69.9834
G3 X69.9867 I0.0 J0.5
G2 X70.6987 Y38.1594 I0.0284 J-4.3601
G2 X71.2847 Y38.0087 I-0.5105 J-3.2016
G3 X71.2856 Y38.0084 I0.1691 J0.4705
G2 X72.125 Y37.4796 I-0.7675 J-2.1489
G2 X72.3865 Y37.166 I-1.7519 J-1.7267
G0 Z3.0
G0 X71.6776 Y36.807
G1 F300.0 Z-0.3
G3 F500.0 X71.6363 Y36.8858 I-2.83 J-1.4329
G3 X71.6344 Y36.8893 I-0.4396 J-0.2383
G3 X71.3224 Y37.3251 I-2.017 J-1.1144
G3 X71.3205 Y37.3272 I-0.37 J-0.3363
G3 X70.6183 Y37.8085 I-1.3954 J-1.2829
G3 X70.6102 Y37.8116 I-0.1828 J-0.4654
G3 X69.8154 Y37.9509 I-0.7727 J-2.0714
G1 X69.107
G3 X68.607 Y37.4509 I0.0 J-0.5
G1 Y31.4978
G3 X69.107 Y30.9978 I0.5 J0.0
G1 X69.9821
G3 X70.5829 Y31.0754 I0.0108 J2.2794
G3 X70.5856 Y31.0762 I-0.1294 J0.483
G3 X71.4238 Y31.5884 I-0.4679 J1.7075
G3 X71.7006 Y31.9758 I-1.4079 J1.2986
G3 X71.8784 Y32.3772 I-2.2298 J1.2281
G3 X71.8805 Y32.3835 I-0.4729 J0.1624
G3 X72.0132 Y32.9396 I-3.2607 J1.0714
G3 X72.0626 Y33.3326 I-6.2465 J0.9854
G3 X72.0997 Y33.914 I-8.721 J0.8486
G1 X72.104 Y34.0513
G3 X72.1042 Y34.0558 I-0.4997 J0.0158
G1 X72.1065 Y34.159
G3 X72.1066 Y34.1633 I-0.4999 J0.0113
G1 X72.1087 Y34.3181
G3 X72.1088 Y34.3229 I-0.5 J0.007
G1 X72.1095 Y34.477
G3 X72.0518 Y35.4827 I-7.8257 J0.0555
G3 X71.8887 Y36.2763 I-4.7931 J-0.5715
G3 X71.8884 Y36.2773 I-0.4796 J-0.1414
G3 X71.6776 Y36.807 I-3.0408 J-0.9032
G1 F300.0 Z-0.4
G3 F500.0 X71.6363 Y36.8858 I-2.83 J-1.4329
G3 X71.6344 Y36.8893 I-0.4396 J-0.2383
G3 X71.3224 Y37.3251 I-2.017 J-1.1144
G3 X71.3205 Y37.3272 I-0.37 J-0.3363
G3 X70.6183 Y37.8085 I-1.3954 J-1.2829
G3 X70.6102 Y37.8116 I-0.1828 J-0.4654
G3 X69.8154 Y37.9509 I-0.7727 J-2.0714
G1 X69.107
G3 X68.607 Y37.4509 I0.0 J-0.5
G1 Y31.4978
G3 X69.107 Y30.9978 I0.5 J0.0
G1 X69.9821
G3 X70.5829 Y31.0754 I0.0108 J2.2794
G3 X70.5856 Y31.0762 I-0.1294 J0.483
G3 X71.4238 Y31.5884 I-0.4679 J1.7075
G3 X71.7006 Y31.9758 I-1.4079 J1.2986
G3 X71.8784 Y32.3772 I-2.2298 J1.2281
G3 X71.8805 Y32.3835 I-0.4729 J0.1624
G3 X72.0132 Y32.9396 I-3.2607 J1.0714
G3 X72.0626 Y33.3326 I-6.2465 J0.9854
G3 X72.0997 Y33.914 I-8.721 J0.8486
G1 X72.104 Y34.0513
G3 X72.1042 Y34.0558 I-0.4997 J0.0158
G1 X72.1065 Y34.159
G3 X72.1066 Y34.1633 I-0.4999 J0.0113
G1 X72.1087 Y34.3181
G3 X72.1088 Y34.3229 I-0.5 J0.007
G1 X72.1095 Y34.477
G3 X72.0518 Y35.4827 I-7.8257 J0.0555
G3 X71.8887 Y36.2763 I-4.7931 J-0.5715
G3 X71.8884 Y36.2773 I-0.4796 J-0.1414
G3 X71.6776 Y36.807 I-3.0408 J-0.9032
G1 F300.0 X72.0591 Y36.9362
G2 F500.0 X72.2066 Y36.6915 I-1.686 J-1.1833
G2 X72.4036 Y36.2101 I-2.756 J-1.4088
G2 X72.5763 Y35.3854 I-4.3995 J-1.3513
G3 X72.5767 Y35.3818 I0.8941 J0.103
G2 X72.6277 Y34.4844 I-7.224 J-0.861
G3 Y34.4744 I0.9 J-0.0045
G2 X72.5985 Y33.7105 I-8.6345 J-0.0522
G3 X72.5971 Y33.6911 I0.8969 J-0.0742
G2 X72.5876 Y33.5858 I-1.789 J0.109
G3 X72.5855 Y33.5671 I0.8935 J-0.1076
G2 X72.5129 Y33.0515 I-6.3226 J0.6278
G2 X72.43 Y32.6878 I-4.4988 J0.8338
G3 X72.4284 Y32.6816 I0.8686 J-0.2355
G2 X72.3949 Y32.5674 I-2.1127 J0.5569
G3 X72.3868 Y32.541 I0.8565 J-0.2764
G2 X72.3628 Y32.4687 I-0.9301 J0.269
G3 X72.3557 Y32.4493 I0.8422 J-0.3172
G2 X72.2026 Y32.0964 I-2.519 J0.8835
G3 X72.2018 Y32.0949 I0.7976 J-0.4169
G2 X72.1885 Y32.0698 I-1.4367 J0.7474
G3 X72.256 Y32.2476 I-2.7177 J1.134
G3 X72.2598 Y32.2589 I-0.8505 J0.292
G3 X72.4077 Y32.8785 I-3.6399 J1.196
G3 X72.46 Y33.2945 I-6.641 J1.0464
G3 X72.4987 Y33.9016 I-9.1183 J0.8867
G1 X72.503 Y34.0387
G3 X72.5033 Y34.0467 I-0.8988 J0.0284
G1 X72.5056 Y34.1499
G3 X72.5057 Y34.1578 I-0.899 J0.0204
G1 X72.5079 Y34.3126
G3 X72.508 Y34.3211 I-0.8991 J0.0125
G1 X72.5087 Y34.4747
G3 X72.4481 Y35.5306 I-8.2248 J0.0578
G3 X72.2716 Y36.3892 I-5.1894 J-0.6194
G3 X72.2711 Y36.3909 I-0.8625 J-0.2543
G3 X72.0591 Y36.9362 I-3.4235 J-1.0168
G0 Z3.0
G0 X68.2078
G1 F300.0 Z-0.4
G1 F500.0 Y31.4978
G3 X68.2792 Y31.1465 I0.8992 J0.0
G1 X68.0998
G1 Y37.8132
G1 X68.284
G3 X68.2078 Y37.4509 I0.823 J-0.3623
G1 Y36.9362
G1 F300.0 X67.6998
G1 F500.0 Y38.2132
G1 X69.9834
G3 X69.9867 I0.0 J0.5
G2 X70.6987 Y38.1594 I0.0284 J-4.3601
G2 X71.2847 Y38.0087 I-0.5105 J-3.2016
G3 X71.2856 Y38.0084 I0.1691 J0.4705
G2 X72.125 Y37.4796 I-0.7675 J-2.1489
G2 X72.5627 Y36.8737 I-1.7519 J-1.7267
G2 X72.7857 Y36.3287 I-3.1121 J-1.5909
G2 X72.9736 Y35.4311 I-4.7815 J-1.4699
G3 X72.9739 Y35.4292 I0.4967 J0.0572
G2 X73.0277 Y34.4824 I-7.6212 J-0.9083
G3 Y34.4768 I0.5 J-0.0025
G2 X72.9971 Y33.6775 I-9.0345 J-0.0546
G3 X72.9964 Y33.6667 I0.4983 J-0.0412
G2 X72.9847 Y33.538 I-2.1883 J0.1334
G3 X72.9836 Y33.5276 I0.4964 J-0.0598
G2 X72.9063 Y32.979 I-6.7206 J0.6673
G2 X72.8161 Y32.5831 I-4.8922 J0.9062
G3 X72.8152 Y32.5797 I0.4826 J-0.1309
G2 X72.7756 Y32.4445 I-2.4995 J0.6588
G3 X72.7711 Y32.4299 I0.4758 J-0.1536
G2 X72.7371 Y32.3277 I-1.3144 J0.3801
G3 X72.7332 Y32.3169 I0.4679 J-0.1762
G2 X72.5571 Y31.9111 I-2.8964 J1.0159
G3 X72.5567 Y31.9103 I0.4431 J-0.2316
G2 X72.33 Y31.5658 I-1.7916 J0.932
G3 X72.3265 Y31.5614 I0.3874 J-0.316
G2 X71.8925 Y31.1172 I-2.4157 J1.9258
G2 X71.6632 Y30.9554 I-1.1119 J1.3327
G2 X71.4335 Y30.8491 I-0.6606 J1.1262
G2 X71.2016 Y30.7973 I-0.484 J1.622
G1 X71.0909 Y30.7827
G1 X71.0476 Y30.7779
G2 X70.3075 Y30.7465 I-0.6766 J7.2121
G3 X70.3031 I-0.0044 J-0.5
G1 X67.6998
G1 Y36.9362
G0 Z3.0
G0 X75.7286
G1 F300.0 Z-0.3
G1 F500.0 Y37.8132
G1 X75.8358
G1 Y31.4978
G3 X75.9072 Y31.1465 I0.9 J0.0
G1 X75.7286
G1 Y36.9362
G1 F300.0 X75.3286
G1 F500.0 Y38.2132
G1 X76.2358
G1 Y31.4978
G3 X76.7358 Y30.9978 I0.5 J0.0
G1 X79.3832
G1 Y30.7465
G1 X75.3286
G1 Y36.9362
G1 F300.0 X75.7286
G1 Z-0.4
G1 F500.0 Y37.8132
G1 X75.8358
G1 Y31.4978
G3 X75.9072 Y31.1465 I0.9 J0.0
G1 X75.7286
G1 Y36.9362
G1 F300.0 X75.3286
G1 F500.0 Y38.2132
G1 X76.2358
G1 Y31.4978
G3 X76.7358 Y30.9978 I0.5 J0.0
G1 X79.3832
G1 Y30.7465
G1 X75.3286
G1 Y36.9362
G0 Z3.0
G0 X81.6596
G1 F300.0 Z-0.3
G1 F500.0 Y37.8132
G1 X81.843
G3 X81.7668 Y37.4509 I0.8239 J-0.3623
G1 Y35.1689
G3 X82.0252 Y34.5377 I0.9 J0.0
G3 X81.7668 Y33.9066 I0.6416 J-0.6311
G1 Y31.4978
G3 X81.8382 Y31.1465 I0.9 J0.0
G1 X81.6596
G1 Y36.9362
G1 F300.0 X81.2596
G1 F500.0 Y38.2132
G1 X85.4025
G1 Y37.9509
G1 X82.6668
G3 X82.1668 Y37.4509 I0.0 J-0.5
G1 Y35.1689
G3 X82.6668 Y34.6689 I0.5 J0.0
G1 X84.6804
G1 Y34.4066
G1 X82.6668
G3 X82.1668 Y33.9066 I0.0 J-0.5
G1 Y31.4978
G3 X82.6668 Y30.9978 I0.5 J0.0
G1 X85.4025
G1 Y30.7465
G1 X81.2596
G1 Y36.9362
G1 F300.0 X81.6596
G1 Z-0.4
G1 F500.0 Y37.8132
G1 X81.843
G3 X81.7668 Y37.4509 I0.8239 J-0.3623
G1 Y35.1689
G3 X82.0252 Y34.5377 I0.9 J0.0
G3 X81.7668 Y33.9066 I0.6416 J-0.6311
G1 Y31.4978
G3 X81.8382 Y31.1465 I0.9 J0.0
G1 X81.6596
G1 Y36.9362
G1 F300.0 X81.2596
G1 F500.0 Y38.2132
G1 X85.4025
G1 Y37.9509
G1 X82.6668
G3 X82.1668 Y37.4509 I0.0 J-0.5
G1 Y35.1689
G3 X82.6668 Y34.6689 I0.5 J0.0
G1 X84.6804
G1 Y34.4066
G1 X82.6668
G3 X82.1668 Y33.9066 I0.0 J-0.5
G1 Y31.4978
G3 X82.6668 Y30.9978 I0.5 J0.0
G1 X85.4025
G1 Y30.7465
G1 X81.2596
G1 Y36.9362
G0 Z3.0
G0 X107.0556 Y38.5195
G1 F300.0 Z-0.3
G1 F500.0 X107.093
G1 X108.6276 Y36.2621
G3 X110.1169 Y36.2632 I0.7443 J0.506
G1 X111.6461 Y38.5195
G1 X111.6936
G1 X109.9069 Y35.8968
G3 X109.9064 Y34.8841 I0.7438 J-0.5067
G1 X111.8059 Y32.0898
G1 X111.7703
G1 X110.1146 Y34.5093
G3 X108.6271 Y34.5063 I-0.7427 J-0.5083
G1 X106.9877 Y32.0898
G1 X106.9433
G1 X108.8429 Y34.8841
G3 X108.8423 Y35.8968 I-0.7443 J0.506
G1 X107.0556 Y38.5195
G1 F300.0 X106.7251 Y38.2942
G1 F500.0 X106.2991 Y38.9195
G1 X107.3047
G1 X108.9584 Y36.487
G3 X109.7858 Y36.4876 I0.4135 J0.2811
G1 X111.434 Y38.9195
G1 X112.4501
G1 X110.2375 Y35.6716
G3 X110.2372 Y35.109 I0.4132 J-0.2815
G1 X112.5615 Y31.6898
G1 X111.5593
G1 X109.7845 Y34.2834
G3 X108.9581 Y34.2817 I-0.4126 J-0.2824
G1 X107.1997 Y31.6898
G1 X106.1877
G1 X108.5121 Y35.109
G3 X108.5118 Y35.6716 I-0.4135 J0.2811
G1 X106.7251 Y38.2942
G1 F300.0 X107.0556 Y38.5195
G1 Z-0.4
G1 F500.0 X107.093
G1 X108.6276 Y36.2621
G3 X110.1169 Y36.2632 I0.7443 J0.506
G1 X111.6461 Y38.5195
G1 X111.6936
G1 X109.9069 Y35.8968
G3 X109.9064 Y34.8841 I0.7438 J-0.5067
G1 X111.8059 Y32.0898
G1 X111.7703
G1 X110.1146 Y34.5093
G3 X108.6271 Y34.5063 I-0.7427 J-0.5083
G1 X106.9877 Y32.0898
G1 X106.9433
G1 X108.8429 Y34.8841
G3 X108.8423 Y35.8968 I-0.7443 J0.506
G1 X107.0556 Y38.5195
G1 F300.0 X106.7251 Y38.2942
G1 F500.0 X106.2991 Y38.9195
G1 X107.3047
G1 X108.9584 Y36.487
G3 X109.7858 Y36.4876 I0.4135 J0.2811
G1 X111.434 Y38.9195
G1 X112.4501
G1 X110.2375 Y35.6716
G3 X110.2372 Y35.109 I0.4132 J-0.2815
G1 X112.5615 Y31.6898
G1 X111.5593
G1 X109.7845 Y34.2834
G3 X108.9581 Y34.2817 I-0.4126 J-0.2824
G1 X107.1997 Y31.6898
G1 X106.1877
G1 X108.5121 Y35.109
G3 X108.5118 Y35.6716 I-0.4135 J0.2811
G1 X106.7251 Y38.2942
G0 Z3.0
G0 X127.4682 Y38.5195
G1 F300.0 Z-0.3
G1 F500.0 X127.6256
G1 X129.2342 Y36.0023
G3 X130.7509 I0.7584 J0.4847
G1 X132.3596 Y38.5195
G1 X132.5225
G1 X130.3048 Y35.152
G3 X130.1564 Y34.657 I0.7516 J-0.495
G1 Y32.0898
G1 X129.8343
G1 Y34.657
G3 X129.6859 Y35.152 I-0.9 J0.0
G1 X127.4682 Y38.5195
G1 F300.0 X127.1341 Y38.2995
G1 F500.0 X126.7258 Y38.9195
G1 X127.8446
G1 X129.5713 Y36.2177
G3 X130.4139 I0.4213 J0.2693
G1 X132.1406 Y38.9195
G1 X133.2649
G1 X130.6389 Y34.932
G3 X130.5564 Y34.657 I0.4176 J-0.275
G1 Y31.6898
G1 X129.4343
G1 Y34.657
G3 X129.3518 Y34.932 I-0.5 J0.0
G1 X127.1341 Y38.2995
G1 F300.0 X127.4682 Y38.5195
G1 Z-0.4
G1 F500.0 X127.6256
G1 X129.2342 Y36.0023
G3 X130.7509 I0.7584 J0.4847
G1 X132.3596 Y38.5195
G1 X132.5225
G1 X130.3048 Y35.152
G3 X130.1564 Y34.657 I0.7516 J-0.495
G1 Y32.0898
G1 X129.8343
G1 Y34.657
G3 X129.6859 Y35.152 I-0.9 J0.0
G1 X127.4682 Y38.5195
G1 F300.0 X127.1341 Y38.2995
G1 F500.0 X126.7258 Y38.9195
G1 X127.8446
G1 X129.5713 Y36.2177
G3 X130.4139 I0.4213 J0.2693
G1 X132.1406 Y38.9195
G1 X133.2649
G1 X130.6389 Y34.932
G3 X130.5564 Y34.657 I0.4176 J-0.275
G1 Y31.6898
G1 X129.4343
G1 Y34.657
G3 X129.3518 Y34.932 I-0.5 J0.0
G1 X127.1341 Y38.2995
G0 Z3.0
G0 X144.1607 Y38.5195
G1 F300.0 Z-0.3
G1 F500.0 X144.3181
G1 X145.9267 Y36.0023
G3 X147.4435 I0.7584 J0.4847
G1 X149.0521 Y38.5195
G1 X149.215
G1 X146.9973 Y35.152
G3 X146.8489 Y34.657 I0.7516 J-0.495
G1 Y32.0898
G1 X146.5268
G1 Y34.657
G3 X146.3784 Y35.152 I-0.9 J0.0
G1 X144.1607 Y38.5195
G1 F300.0 Y38.9195
G1 F500.0 X144.5371
G1 X146.2638 Y36.2177
G3 X147.1064 I0.4213 J0.2693
G1 X148.8331 Y38.9195
G1 X149.9574
G1 X147.3314 Y34.932
G3 X147.2489 Y34.657 I0.4176 J-0.275
G1 Y31.6898
G1 X146.1268
G1 Y34.657
G3 X146.0444 Y34.932 I-0.5 J0.0
G1 X143.4183 Y38.9195
G1 X144.1607
G1 F300.0 Y38.5195
G1 Z-0.4
G1 F500.0 X144.3181
G1 X145.9267 Y36.0023
G3 X147.4435 I0.7584 J0.4847
G1 X149.0521 Y38.5195
G1 X149.215
G1 X146.9973 Y35.152
G3 X146.8489 Y34.657 I0.7516 J-0.495
G1 Y32.0898
G1 X146.5268
G1 Y34.657
G3 X146.3784 Y35.152 I-0.9 J0.0
G1 X144.1607 Y38.5195
G1 F300.0 Y38.9195
G1 F500.0 X144.5371
G1 X146.2638 Y36.2177
G3 X147.1064 I0.4213 J0.2693
G1 X148.8331 Y38.9195
G1 X149.9574
G1 X147.3314 Y34.932
G3 X147.2489 Y34.657 I0.4176 J-0.275
G1 Y31.6898
G1 X146.1268
G1 Y34.657
G3 X146.0444 Y34.932 I-0.5 J0.0
G1 X143.4183 Y38.9195
G1 X144.1607
G0 Z3.0
G0 X152.5736 Y32.3437
G1 F300.0 Z-0.3
G1 F500.0 X153.1375 Y32.8413
G3 X153.4208 Y32.0898 I0.8953 J-0.0916
G1 X152.5736
G1 Y32.3437
G0 Z3.0
G0 X156.1802 Y35.9197
G1 F300.0 Z-0.3
G3 F500.0 X156.3659 Y36.8265 I-2.1736 J0.9177
G3 X156.2112 Y37.6726 I-2.236 J0.0282
G3 X156.2076 Y37.6815 I-0.8376 J-0.3292
G3 X155.6754 Y38.4359 I-1.8823 J-0.7629
G3 X155.5529 Y38.5387 I-1.4589 J-1.6147
G2 X155.6838 Y38.4981 I-0.8394 J-2.942
G1 X155.7293 Y38.4819
G2 X156.2223 Y38.2098 I-0.5921 J-1.6549
G3 X156.2236 Y38.2087 I0.5556 J0.708
G2 X156.4335 Y37.9995 I-0.7584 J-0.9704
G2 X156.6314 Y37.6143 I-0.9317 J-0.7222
G2 X156.6992 Y37.1147 I-1.6593 J-0.4797
G3 Y37.1004 I0.8999 J-0.0104
G2 X156.4851 Y36.3188 I-1.5094 J-0.0066
G2 X156.2523 Y36.0038 I-2.2327 J1.4061
G3 X156.2451 Y35.9953 I0.6821 J-0.5871
G2 X156.1802 Y35.9197 I-3.4481 J2.894
G1 F300.0 X155.8117 Y36.0753
G3 F500.0 X155.9659 Y36.8299 I-1.8051 J0.7621
G3 X155.8389 Y37.5263 I-1.836 J0.0248
G3 X155.8369 Y37.5312 I-0.4654 J-0.1829
G3 X155.4083 Y38.1381 I-1.5116 J-0.6127
G3 X154.7404 Y38.5184 I-1.1919 J-1.3169
G3 X154.7362 Y38.5197 I-0.1475 J-0.4778
G3 X154.0396 Y38.6186 I-0.6765 J-2.2622
G3 X154.0378 I0.0043 J-0.5
G3 X153.3893 Y38.5476 I0.0402 J-3.3678
G3 X153.3882 Y38.5474 I0.1023 J-0.4894
G3 X152.7851 Y38.3728 I0.8817 J-4.1748
G3 X152.1956 Y38.124 I2.2449 J-6.1417
G1 Y38.7145
G2 X152.5226 Y38.8045 I3.1656 J-10.8553
G2 X153.1962 Y38.9486 I2.0515 J-7.9441
G3 X153.2031 Y38.9498 I-0.084 J0.4929
G2 X154.4856 Y39.0683 I1.2939 J-7.0063
G3 X154.4877 I-0.0008 J0.5
G2 X155.0369 Y39.041 I0.0285 J-4.963
G3 X155.0419 Y39.0405 I0.0525 J0.4972
G2 X155.8144 Y38.8762 I-0.3284 J-3.4438
G1 X155.8637 Y38.8587
G2 X156.4692 Y38.5245 I-0.7265 J-2.0317
G3 X156.4699 Y38.5239 I0.3087 J0.3934
G2 X156.7488 Y38.2456 I-1.0047 J-1.2856
G2 X157.0152 Y37.727 I-1.247 J-0.9683
G2 X157.0992 Y37.1101 I-2.0431 J-0.5924
G3 Y37.1022 I0.5 J-0.0058
G2 X156.8259 Y36.1095 I-1.9094 J-0.0084
G2 X156.5555 Y35.7429 I-2.5735 J1.6155
G3 X156.5514 Y35.7381 I0.379 J-0.3262
G2 X156.3073 Y35.4682 I-3.7545 J3.1511
G3 X156.3063 Y35.4672 I0.3581 J-0.349
G2 X155.4641 Y34.6714 I-9.4201 J9.1251
G3 X155.4613 Y34.6689 I0.327 J-0.3782
G1 X153.703 Y33.1255
G3 X154.0328 Y32.2498 I0.3298 J-0.3758
G1 X157.1543
G1 Y31.6898
G1 X152.1736
G1 Y32.5242
G1 X155.0086 Y35.0262
G3 X155.0115 Y35.0289 I-0.3309 J0.3749
G3 X155.3809 Y35.4042 I-2.8201 J3.1444
G3 X155.7076 Y35.8649 I-2.0918 J1.8297
G3 X155.8117 Y36.0753 I-1.701 J0.9724
G1 F300.0 X156.1802 Y35.9197
G1 Z-0.4
G3 F500.0 X156.3659 Y36.8265 I-2.1736 J0.9177
G3 X156.2112 Y37.6726 I-2.236 J0.0282
G3 X156.2076 Y37.6815 I-0.8376 J-0.3292
G3 X155.6754 Y38.4359 I-1.8823 J-0.7629
G3 X155.5529 Y38.5387 I-1.4589 J-1.6147
G2 X155.6838 Y38.4981 I-0.8394 J-2.942
G1 X155.7293 Y38.4819
G2 X156.2223 Y38.2098 I-0.5921 J-1.6549
G3 X156.2236 Y38.2087 I0.5556 J0.708
G2 X156.4335 Y37.9995 I-0.7584 J-0.9704
G2 X156.6314 Y37.6143 I-0.9317 J-0.7222
G2 X156.6992 Y37.1147 I-1.6593 J-0.4797
G3 Y37.1004 I0.8999 J-0.0104
G2 X156.4851 Y36.3188 I-1.5094 J-0.0066
G2 X156.2523 Y36.0038 I-2.2327 J1.4061
G3 X156.2451 Y35.9953 I0.6821 J-0.5871
G2 X156.1802 Y35.9197 I-3.4481 J2.894
G0 Z3.0
G0 X153.1375 Y32.8413
G1 F300.0 Z-0.4
G3 F500.0 X153.4208 Y32.0898 I0.8953 J-0.0916
G1 X152.5736
G1 Y32.3437
G1 X153.1375 Y32.8413
G1 F300.0 X152.8728 Y33.1412
G1 F500.0 X155.0086 Y35.0262
G3 X155.0115 Y35.0289 I-0.3309 J0.3749
G3 X155.3809 Y35.4042 I-2.8201 J3.1444
G3 X155.7076 Y35.8649 I-2.0918 J1.8297
G3 X155.9659 Y36.8299 I-1.701 J0.9724
G3 X155.8389 Y37.5263 I-1.836 J0.0248
G3 X155.8369 Y37.5312 I-0.4654 J-0.1829
G3 X155.4083 Y38.1381 I-1.5116 J-0.6127
G3 X154.7404 Y38.5184 I-1.1919 J-1.3169
G3 X154.7362 Y38.5197 I-0.1475 J-0.4778
G3 X154.0396 Y38.6186 I-0.6765 J-2.2622
G3 X154.0378 I0.0043 J-0.5
G3 X153.3893 Y38.5476 I0.0402 J-3.3678
G3 X153.3882 Y38.5474 I0.1023 J-0.4894
G3 X152.7851 Y38.3728 I0.8817 J-4.1748
G3 X152.1956 Y38.124 I2.2449 J-6.1417
G1 Y38.7145
G2 X152.5226 Y38.8045 I3.1656 J-10.8553
G2 X153.1962 Y38.9486 I2.0515 J-7.9441
G3 X153.2031 Y38.9498 I-0.084 J0.4929
G2 X154.4856 Y39.0683 I1.2939 J-7.0063
G3 X154.4877 I-0.0008 J0.5
G2 X155.0369 Y39.041 I0.0285 J-4.963
G3 X155.0419 Y39.0405 I0.0525 J0.4972
G2 X155.8144 Y38.8762 I-0.3284 J-3.4438
G1 X155.8637 Y38.8587
G2 X156.4692 Y38.5245 I-0.7265 J-2.0317
G3 X156.4699 Y38.5239 I0.3087 J0.3934
G2 X156.7488 Y38.2456 I-1.0047 J-1.2856
G2 X157.0152 Y37.727 I-1.247 J-0.9683
G2 X157.0992 Y37.1101 I-2.0431 J-0.5924
G3 Y37.1022 I0.5 J-0.0058
G2 X156.8259 Y36.1095 I-1.9094 J-0.0084
G2 X156.5555 Y35.7429 I-2.5735 J1.6155
G3 X156.5514 Y35.7381 I0.379 J-0.3262
G2 X156.3073 Y35.4682 I-3.7545 J3.1511
G3 X156.3063 Y35.4672 I0.3581 J-0.349
G2 X155.4641 Y34.6714 I-9.4201 J9.1251
G3 X155.4613 Y34.6689 I0.327 J-0.3782
G1 X153.703 Y33.1255
G3 X154.0328 Y32.2498 I0.3298 J-0.3758
G1 X157.1543
G1 Y31.6898
G1 X152.1736
G1 Y32.5242
G1 X152.8728 Y33.1412
G0 Z3.0
G0 X168.5512 Y32.1503
G1 F300.0 Z-0.3
G1 F500.0 X172.7601 Y37.242
G3 X172.6271 Y38.5195 I-0.6937 J0.5734
G1 X173.7957
G1 Y38.459
G1 X169.5868 Y33.3673
G3 X169.7198 Y32.0898 I0.6937 J-0.5734
G1 X168.5512
G1 Y32.1503
G1 F300.0 X168.2429 Y32.4052
G1 F500.0 X172.4518 Y37.4969
G3 X172.0664 Y38.3154 I-0.3854 J0.3186
G1 X168.278
G1 Y38.9195
G1 X174.1957
G1 Y38.315
G1 X169.8951 Y33.1124
G3 X170.2805 Y32.2939 I0.3854 J-0.3186
G1 X174.3225
G1 Y31.6898
G1 X168.1512
G1 Y32.2943
G1 X168.2429 Y32.4052
G1 F300.0 X168.5512 Y32.1503
G1 Z-0.4
G1 F500.0 X172.7601 Y37.242
G3 X172.6271 Y38.5195 I-0.6937 J0.5734
G1 X173.7957
G1 Y38.459
G1 X169.5868 Y33.3673
G3 X169.7198 Y32.0898 I0.6937 J-0.5734
G1 X168.5512
G1 Y32.1503
G1 F300.0 X168.2429 Y32.4052
G1 F500.0 X172.4518 Y37.4969
G3 X172.0664 Y38.3154 I-0.3854 J0.3186
G1 X168.278
G1 Y38.9195
G1 X174.1957
G1 Y38.315
G1 X169.8951 Y33.1124
G3 X170.2805 Y32.2939 I0.3854 J-0.3186
G1 X174.3225
G1 Y31.6898
G1 X168.1512
G1 Y32.2943
G1 X168.2429 Y32.4052
( holes )
S1000
G0 Z3.0
G0 X24.6592 Y15.9159
G1 F300.0 Z0.0
G2 F800.0 X23.0816 Y12.1072 Z-0.075 I-5.3698 J-0.0069
G3 X23.0806 Y12.1063 I0.3531 J-0.354
G2 X19.272 Y10.5287 Z-0.15 I-3.8014 J3.7911
G3 X19.2706 I-0.0007 J-0.5
G2 X15.4619 Y12.1063 Z-0.225 I-0.0069 J5.3698
G3 X15.461 Y12.1072 I-0.354 J-0.3531
G2 X13.8834 Y15.9159 Z-0.3 I3.7911 J3.8014
G3 Y15.9172 I-0.5 J0.0007
G2 X15.461 Y19.7259 Z-0.375 I5.3698 J0.0069
G3 X15.4619 Y19.7269 I-0.3531 J0.354
G2 X19.2706 Y21.3045 Z-0.45 I3.8014 J-3.7912
G3 X19.2719 I0.0007 J0.5
G2 X23.0807 Y19.7268 Z-0.525 I0.0069 J-5.3698
G3 X23.0816 Y19.7259 I0.354 J0.3531
G2 X24.6592 Y15.9172 Z-0.6 I-3.7912 J-3.8014
G3 Y15.9159 I0.5 J-0.0007
G2 X23.0816 Y12.1072 Z-0.675 I-5.3698 J-0.0069
G3 X23.0806 Y12.1063 I0.3531 J-0.354
G2 X19.272 Y10.5287 Z-0.75 I-3.8014 J3.7911
G3 X19.2706 I-0.0007 J-0.5
G2 X15.4619 Y12.1063 Z-0.825 I-0.0069 J5.3698
G3 X15.461 Y12.1072 I-0.354 J-0.3531
G2 X13.8834 Y15.9159 Z-0.9 I3.7911 J3.8014
G3 Y15.9172 I-0.5 J0.0007
G2 X15.461 Y19.7259 Z-0.975 I5.3698 J0.0069
G3 X15.4619 Y19.7269 I-0.3531 J0.354
G2 X19.2706 Y21.3045 Z-1.05 I3.8014 J-3.7912
G3 X19.2719 I0.0007 J0.5
G2 X23.0807 Y19.7268 Z-1.125 I0.0069 J-5.3698
G3 X23.0816 Y19.7259 I0.354 J0.3531
G2 X24.6592 Y15.9172 Z-1.2 I-3.7912 J-3.8014
G3 Y15.9159 I0.5 J-0.0007
G2 X23.0816 Y12.1072 Z-1.275 I-5.3698 J-0.0069
G3 X23.0806 Y12.1063 I0.3531 J-0.354
G2 X19.272 Y10.5287 Z-1.35 I-3.8014 J3.7911
G3 X19.2706 I-0.0007 J-0.5
G2 X15.4619 Y12.1063 Z-1.425 I-0.0069 J5.3698
G3 X15.461 Y12.1072 I-0.354 J-0.3531
G2 X13.8834 Y15.9159 Z-1.5 I3.7911 J3.8014
G3 Y15.9172 I-0.5 J0.0007
G2 X15.461 Y19.7259 Z-1.575 I5.3698 J0.0069
G3 X15.4619 Y19.7269 I-0.3531 J0.354
G2 X19.2706 Y21.3045 Z-1.65 I3.8014 J-3.7912
G3 X19.2719 I0.0007 J0.5
G2 X23.0807 Y19.7268 Z-1.725 I0.0069 J-5.3698
G3 X23.0816 Y19.7259 I0.354 J0.3531
G2 X24.6592 Y15.9172 Z-1.8 I-3.7912 J-3.8014
G3 Y15.9159 I0.5 J-0.0007
G2 X23.0816 Y12.1072 Z-1.875 I-5.3698 J-0.0069
G3 X23.0806 Y12.1063 I0.3531 J-0.354
G2 X19.272 Y10.5287 Z-1.95 I-3.8014 J3.7911
G3 X19.2706 I-0.0007 J-0.5
G2 X15.4619 Y12.1063 Z-2.025 I-0.0069 J5.3698
G3 X15.461 Y12.1072 I-0.354 J-0.3531
G2 X13.8834 Y15.9159 Z-2.1 I3.7911 J3.8014
G3 Y15.9172 I-0.5 J0.0007
G2 X15.461 Y19.7259 Z-2.175 I5.3698 J0.0069
G3 X15.4619 Y19.7269 I-0.3531 J0.354
G2 X19.2706 Y21.3045 Z-2.25 I3.8014 J-3.7912
G3 X19.2719 I0.0007 J0.5
G2 X23.0807 Y19.7268 Z-2.325 I0.0069 J-5.3698
G3 X23.0816 Y19.7259 I0.354 J0.3531
G2 X24.6592 Y15.9172 Z-2.4 I-3.7912 J-3.8014
G3 Y15.9159 I0.5 J-0.0007
G2 X23.0816 Y12.1072 Z-2.475 I-5.3698 J-0.0069
G3 X23.0806 Y12.1063 I0.3531 J-0.354
G2 X19.272 Y10.5287 Z-2.55 I-3.8014 J3.7911
G3 X19.2706 I-0.0007 J-0.5
G2 X15.4619 Y12.1063 Z-2.625 I-0.0069 J5.3698
G3 X15.461 Y12.1072 I-0.354 J-0.3531
G2 X13.8834 Y15.9159 Z-2.7 I3.7911 J3.8014
G3 Y15.9172 I-0.5 J0.0007
G2 X15.461 Y19.7259 Z-2.775 I5.3698 J0.0069
G3 X15.4619 Y19.7269 I-0.3531 J0.354
G2 X19.2706 Y21.3045 Z-2.85 I3.8014 J-3.7912
G3 X19.2719 I0.0007 J0.5
G2 X23.0807 Y19.7268 Z-2.925 I0.0069 J-5.3698
G3 X23.0816 Y19.7259 I0.354 J0.3531
G2 X24.6592 Y15.9172 Z-3.0 I-3.7912 J-3.8014
G3 Y15.9159 I0.5 J-0.0007
G2 X23.0816 Y12.1072 Z-3.075 I-5.3698 J-0.0069
G3 X23.0806 Y12.1063 I0.3531 J-0.354
G2 X19.272 Y10.5287 Z-3.15 I-3.8014 J3.7911
G3 X19.2706 I-0.0007 J-0.5
G2 X15.4619 Y12.1063 Z-3.225 I-0.0069 J5.3698
G3 X15.461 Y12.1072 I-0.354 J-0.3531
G2 X13.8834 Y15.9159 Z-3.3 I3.7911 J3.8014
G3 Y15.9172 I-0.5 J0.0007
G2 X15.461 Y19.7259 Z-3.375 I5.3698 J0.0069
G3 X15.4619 Y19.7269 I-0.3531 J0.354
G2 X19.2706 Y21.3045 Z-3.45 I3.8014 J-3.7912
G3 X19.2719 I0.0007 J0.5
G2 X23.0807 Y19.7268 Z-3.525 I0.0069 J-5.3698
G3 X23.0816 Y19.7259 I0.354 J0.3531
G2 X24.6592 Y15.9172 Z-3.6 I-3.7912 J-3.8014
G3 Y15.9159 I0.5 J-0.0007
G2 X23.0816 Y12.1072 Z-3.675 I-5.3698 J-0.0069
G3 X23.0806 Y12.1063 I0.3531 J-0.354
G2 X19.272 Y10.5287 Z-3.75 I-3.8014 J3.7911
G3 X19.2706 I-0.0007 J-0.5
G2 X15.4619 Y12.1063 Z-3.825 I-0.0069 J5.3698
G3 X15.461 Y12.1072 I-0.354 J-0.3531
G2 X13.8834 Y15.9159 Z-3.9 I3.7911 J3.8014
G3 Y15.9172 I-0.5 J0.0007
G2 X15.461 Y19.7259 Z-3.975 I5.3698 J0.0069
G3 X15.4619 Y19.7269 I-0.3531 J0.354
G2 X19.2706 Y21.3045 Z-4.05 I3.8014 J-3.7912
G3 X19.2719 I0.0007 J0.5
G2 X23.0807 Y19.7268 Z-4.125 I0.0069 J-5.3698
G3 X23.0816 Y19.7259 I0.354 J0.3531
G2 X24.6592 Y15.9172 Z-4.2 I-3.7912 J-3.8014
G3 Y15.9159 I0.5 J-0.0007
G2 X23.1576 Y12.1845 Z-4.2731 I-5.3698 J-0.0069
G2 X23.0816 Y12.1072 Z-4.275 I-3.8682 J3.7245
G3 X23.0806 Y12.1063 I0.3531 J-0.354
G2 X21.9657 Y11.2491 Z-4.3 I-3.8014 J3.7911
G2 X20.56 Y10.6837 Z-4.3269 I-2.6865 J4.6483
G2 X19.272 Y10.5287 Z-4.35 I-1.2808 J5.2137
G3 X19.2706 I-0.0007 J-0.5
G2 X15.4619 Y12.1063 Z-4.425 I-0.0069 J5.3698
G3 X15.461 Y12.1072 I-0.354 J-0.3531
G2 X14.0946 Y14.4175 Z-4.4731 I3.7911 J3.8014
G2 X13.8834 Y15.9159 Z-4.5 I5.1575 J1.4912
G3 Y15.9172 I-0.5 J0.0007
G2 X14.0952 Y17.4175 Z-4.5269 I5.3698 J0.0069
G2 X15.461 Y19.7259 Z-4.575 I5.1579 J-1.4934
G3 X15.4619 Y19.7269 I-0.3531 J0.354
G2 X19.2706 Y21.3045 Z-4.65 I3.8014 J-3.7912
G3 X19.2719 I0.0007 J0.5
G2 X20.56 Y21.1494 Z-4.673 I0.0069 J-5.3698
G2 X21.9657 Y20.5839 Z-4.6 I-1.2812 J-5.2147
G2 X23.0807 Y19.7268 Z-4.725 I-2.6869 J-4.6492
G3 X23.0816 Y19.7259 I0.354 J0.3531
G2 X23.1576 Y19.6485 Z-4.7269 I-3.7912 J-3.8014
G2 X24.6592 Y15.9172 Z-4.8 I-3.8672 J-3.7241
G3 Y15.9159 I0.5 J-0.0007
G2 X23.1576 Y12.1845 Z-4.8731 I-5.3698 J-0.0069
G2 X23.0816 Y12.1072 Z-4.875 I-3.8682 J3.7245
G3 X23.0806 Y12.1063 I0.3531 J-0.354
G2 X21.9657 Y11.2491 Z-4.6 I-3.8014 J3.7911
G2 X20.56 Y10.6837 Z-4.9269 I-2.6865 J4.6483
G2 X19.272 Y10.5287 Z-4.95 I-1.2808 J5.2137
G3 X19.2706 I-0.0007 J-0.5
G2 X15.4619 Y12.1063 Z-5.025 I-0.0069 J5.3698
G3 X15.461 Y12.1072 I-0.354 J-0.3531
G2 X14.0946 Y14.4175 Z-5.0731 I3.7911 J3.8014
G2 X13.8834 Y15.9159 Z-4.6009 I5.1575 J1.4912
G3 Y15.9172 Z-4.6002 I-0.5 J0.0007
G2 X14.0952 Y17.4175 Z-5.1269 I5.3698 J0.0069
G2 X15.461 Y19.7259 Z-5.175 I5.1579 J-1.4934
G3 X15.4619 Y19.7269 I-0.3531 J0.354
G2 X19.2706 Y21.3045 Z-5.25 I3.8014 J-3.7912
G3 X19.2719 I0.0007 J0.5
G2 X20.56 Y21.1494 Z-5.273 I0.0069 J-5.3698
G2 X21.9657 Y20.5839 Z-4.6 I-1.2812 J-5.2147
G2 X23.0807 Y19.7268 Z-5.325 I-2.6869 J-4.6492
G3 X23.0816 Y19.7259 I0.354 J0.3531
G2 X23.1576 Y19.6485 Z-5.3269 I-3.7912 J-3.8014
G2 X24.6592 Y15.9172 Z-5.4 I-3.8672 J-3.7241
G3 Y15.9159 I0.5 J-0.0007
G2 X23.1576 Y12.1845 Z-5.4731 I-5.3698 J-0.0069
G2 X23.0816 Y12.1072 Z-5.475 I-3.8682 J3.7245
G3 X23.0806 Y12.1063 I0.3531 J-0.354
G2 X21.9657 Y11.2491 Z-4.6 I-3.8014 J3.7911
G2 X20.56 Y10.6837 Z-5.5269 I-2.6865 J4.6483
G2 X19.272 Y10.5287 Z-5.55 I-1.2808 J5.2137
G3 X19.2706 I-0.0007 J-0.5
G2 X15.4619 Y12.1063 Z-5.625 I-0.0069 J5.3698
G3 X15.461 Y12.1072 I-0.354 J-0.3531
G2 X14.0946 Y14.4175 Z-5.6731 I3.7911 J3.8014
G2 X13.8834 Y15.9159 Z-4.6015 I5.1575 J1.4912
G3 Y15.9172 Z-4.6003 I-0.5 J0.0007
G2 X14.0952 Y17.4175 Z-5.7269 I5.3698 J0.0069
G2 X15.461 Y19.7259 Z-5.775 I5.1579 J-1.4934
G3 X15.4619 Y19.7269 I-0.3531 J0.354
G2 X19.2706 Y21.3045 Z-5.85 I3.8014 J-3.7912
G3 X19.2719 I0.0007 J0.5
G2 X20.56 Y21.1494 Z-5.873 I0.0069 J-5.3698
G2 X21.9657 Y20.5839 Z-4.6 I-1.2812 J-5.2147
G2 X23.0807 Y19.7268 Z-5.9013 I-2.6869 J-4.6492
G3 X23.0816 Y19.7259 Z-5.9025 I0.354 J0.3531
G2 X23.1576 Y19.6485 Z-5.9269 I-3.7912 J-3.8014
G2 X24.6592 Y15.9172 Z-6.0 I-3.8672 J-3.7241
G3 Y15.9159 I0.5 J-0.0007
G2 X23.1576 Y12.1845 Z-6.0122 I-5.3698 J-0.0069
G2 X23.0816 Y12.1072 Z-5.9955 I-3.8682 J3.7245
G3 X23.0806 Y12.1063 Z-5.9942 I0.3531 J-0.354
G2 X21.9657 Y11.2491 Z-4.6 I-3.8014 J3.7911
G2 X20.56 Y10.6837 Z-6.0212 I-2.6865 J4.6483
G2 X19.272 Y10.5287 Z-6.025 I-1.2808 J5.2137
G3 X19.2706 I-0.0007 J-0.5
G2 X15.4619 Y12.1063 Z-6.0375 I-0.0069 J5.3698
G3 X15.461 Y12.1072 I-0.354 J-0.3531
G2 X14.0946 Y14.4175 Z-6.0455 I3.7911 J3.8014
G2 X13.8834 Y15.9159 Z-4.6016 I5.1575 J1.4912
G3 Y15.9172 Z-4.6003 I-0.5 J0.0007
G2 X14.0952 Y17.4175 Z-6.0545 I5.3698 J0.0069
G2 X15.461 Y19.7259 Z-6.0625 I5.1579 J-1.4934
G3 X15.4619 Y19.7269 I-0.3531 J0.354
G2 X19.2706 Y21.3045 Z-6.075 I3.8014 J-3.7912
G3 X19.2719 I0.0007 J0.5
G2 X20.56 Y21.1494 Z-6.0788 I0.0069 J-5.3698
G2 X21.9657 Y20.5839 Z-4.6 I-1.2812 J-5.2147
G2 X23.0807 Y19.7268 Z-5.9942 I-2.6869 J-4.6492
G3 X23.0816 Y19.7259 Z-5.9955 I0.354 J0.3531
G2 X23.1576 Y19.6485 Z-6.0878 I-3.7912 J-3.8014
G2 X24.6592 Y15.9172 Z-6.1 I-3.8672 J-3.7241
G3 Y15.9159 I0.5 J-0.0007
G2 X23.1576 Y12.1845 I-5.3698 J-0.0069
G2 X23.0816 Y12.1072 Z-5.9955 I-3.8682 J3.7245
G3 X23.0806 Y12.1063 Z-5.9942 I0.3531 J-0.354
G2 X21.9657 Y11.2491 Z-4.6 I-3.8014 J3.7911
G2 X20.56 Y10.6837 Z-6.1 I-2.6865 J4.6483
G2 X19.272 Y10.5287 I-1.2808 J5.2137
G3 X19.2706 I-0.0007 J-0.5
G2 X15.4619 Y12.1063 I-0.0069 J5.3698
G3 X15.461 Y12.1072 I-0.354 J-0.3531
G2 X14.0946 Y14.4175 I3.7911 J3.8014
G2 X13.8834 Y15.9159 Z-4.6016 I5.1575 J1.4912
G3 Y15.9172 Z-4.6003 I-0.5 J0.0007
G2 X14.0952 Y17.4175 Z-6.1 I5.3698 J0.0069
G2 X15.461 Y19.7259 I5.1579 J-1.4934
G3 X15.4619 Y19.7269 I-0.3531 J0.354
G2 X19.2706 Y21.3045 I3.8014 J-3.7912
G3 X19.2719 I0.0007 J0.5
G2 X20.56 Y21.1494 I0.0069 J-5.3698
G2 X21.9657 Y20.5839 Z-4.6 I-1.2812 J-5.2147
G2 X23.0807 Y19.7268 Z-5.9942 I-2.6869 J-4.6492
G3 X23.0816 Y19.7259 Z-5.9955 I0.354 J0.3531
G2 X23.1576 Y19.6485 Z-6.1 I-3.7912 J-3.8014
G2 X24.6592 Y15.9172 I-3.8672 J-3.7241
G3 Y15.9159 I0.5 J-0.0007
G0 Z3.0
G0 X58.3867 Y19.3892
G1 F300.0 Z0.0
G2 F800.0 X58.3585 Y19.9465 Z-0.0099 I5.3405 J0.55
G3 Y19.9478 I-0.5 J0.0007
G2 X59.9361 Y23.7565 Z-0.0849 I5.3698 J0.0069
G3 X59.9371 Y23.7575 I-0.3531 J0.354
G2 X63.7457 Y25.3351 Z-0.1599 I3.8014 J-3.7911
G3 X63.747 I0.0007 J0.5
G2 X67.5558 Y23.7574 Z-0.2349 I0.0069 J-5.3698
G3 X67.5567 Y23.7565 I0.354 J0.3531
G2 X69.1343 Y19.9478 Z-0.3099 I-3.7912 J-3.8014
G3 Y19.9465 I0.5 J-0.0007
G2 X67.5567 Y16.1378 Z-0.3849 I-5.3698 J-0.0069
G3 X67.5557 Y16.1369 I0.3531 J-0.354
G2 X63.7471 Y14.5593 Z-0.4599 I-3.8014 J3.7911
G3 X63.7458 I-0.0007 J-0.5
G2 X59.937 Y16.1369 Z-0.5349 I-0.0069 J5.3698
G3 X59.9361 Y16.1378 I-0.354 J-0.3531
G2 X58.3867 Y19.3892 Z-0.6 I3.7911 J3.8014
G2 X58.3585 Y19.9465 Z-0.6099 I5.3405 J0.55
G3 Y19.9478 I-0.5 J0.0007
G2 X59.9361 Y23.7565 Z-0.6849 I5.3698 J0.0069
G3 X59.9371 Y23.7575 I-0.3531 J0.354
G2 X63.7457 Y25.3351 Z-0.7599 I3.8014 J-3.7911
G3 X63.747 I0.0007 J0.5
G2 X67.5558 Y23.7574 Z-0.8349 I0.0069 J-5.3698
G3 X67.5567 Y23.7565 I0.354 J0.3531
G2 X69.1343 Y19.9478 Z-0.9099 I-3.7912 J-3.8014
G3 Y19.9465 I0.5 J-0.0007
G2 X67.5567 Y16.1378 Z-0.9849 I-5.3698 J-0.0069
G3 X67.5557 Y16.1369 I0.3531 J-0.354
G2 X63.7471 Y14.5593 Z-1.0599 I-3.8014 J3.7911
G3 X63.7458 I-0.0007 J-0.5
G2 X59.937 Y16.1369 Z-1.1349 I-0.0069 J5.3698
G3 X59.9361 Y16.1378 I-0.354 J-0.3531
G2 X58.3867 Y19.3892 Z-1.2 I3.7911 J3.8014
G2 X58.3585 Y19.9465 Z-1.2099 I5.3405 J0.55
G3 Y19.9478 I-0.5 J0.0007
G2 X59.9361 Y23.7565 Z-1.2849 I5.3698 J0.0069
G3 X59.9371 Y23.7575 I-0.3531 J0.354
G2 X63.7457 Y25.3351 Z-1.3599 I3.8014 J-3.7911
G3 X63.747 I0.0007 J0.5
G2 X67.5558 Y23.7574 Z-1.4349 I0.0069 J-5.3698
G3 X67.5567 Y23.7565 I0.354 J0.3531
G2 X69.1343 Y19.9478 Z-1.5099 I-3.7912 J-3.8014
G3 Y19.9465 I0.5 J-0.0007
G2 X67.5567 Y16.1378 Z-1.5849 I-5.3698 J-0.0069
G3 X67.5557 Y16.1369 I0.3531 J-0.354
G2 X63.7471 Y14.5593 Z-1.6599 I-3.8014 J3.7911
G3 X63.7458 I-0.0007 J-0.5
G2 X59.937 Y16.1369 Z-1.7349 I-0.0069 J5.3698
G3 X59.9361 Y16.1378 I-0.354 J-0.3531
G2 X58.3867 Y19.3892 Z-1.8 I3.7911 J3.8014
G2 X58.3585 Y19.9465 Z-1.8099 I5.3405 J0.55
G3 Y19.9478 I-0.5 J0.0007
G2 X59.9361 Y23.7565 Z-1.8849 I5.3698 J0.0069
G3 X59.9371 Y23.7575 I-0.3531 J0.354
G2 X63.7457 Y25.3351 Z-1.9599 I3.8014 J-3.7911
G3 X63.747 I0.0007 J0.5
G2 X67.5558 Y23.7574 Z-2.0349 I0.0069 J-5.3698
G3 X67.5567 Y23.7565 I0.354 J0.3531
G2 X69.1343 Y19.9478 Z-2.1099 I-3.7912 J-3.8014
G3 Y19.9465 I0.5 J-0.0007
G2 X67.5567 Y16.1378 Z-2.1849 I-5.3698 J-0.0069
G3 X67.5557 Y16.1369 I0.3531 J-0.354
G2 X63.7471 Y14.5593 Z-2.2599 I-3.8014 J3.7911
G3 X63.7458 I-0.0007 J-0.5
G2 X59.937 Y16.1369 Z-2.3349 I-0.0069 J5.3698
G3 X59.9361 Y16.1378 I-0.354 J-0.3531
G2 X58.3867 Y19.3892 Z-2.4 I3.7911 J3.8014
G2 X58.3585 Y19.9465 Z-2.4099 I5.3405 J0.55
G3 Y19.9478 I-0.5 J0.0007
G2 X59.9361 Y23.7565 Z-2.4849 I5.3698 J0.0069
G3 X59.9371 Y23.7575 I-0.3531 J0.354
G2 X63.7457 Y25.3351 Z-2.5599 I3.8014 J-3.7911
G3 X63.747 I0.0007 J0.5
G2 X67.5558 Y23.7574 Z-2.6349 I0.0069 J-5.3698
G3 X67.5567 Y23.7565 I0.354 J0.3531
G2 X69.1343 Y19.9478 Z-2.7099 I-3.7912 J-3.8014
G3 Y19.9465 I0.5 J-0.0007
G2 X67.5567 Y16.1378 Z-2.7849 I-5.3698 J-0.0069
G3 X67.5557 Y16.1369 I0.3531 J-0.354
G2 X63.7471 Y14.5593 Z-2.8599 I-3.8014 J3.7911
G3 X63.7458 I-0.0007 J-0.5
G2 X59.937 Y16.1369 Z-2.9349 I-0.0069 J5.3698
G3 X59.9361 Y16.1378 I-0.354 J-0.3531
G2 X58.3867 Y19.3892 Z-3.0 I3.7911 J3.8014
G2 X58.3585 Y19.9465 Z-3.0099 I5.3405 J0.55
G3 Y19.9478 I-0.5 J0.0007
G2 X59.9361 Y23.7565 Z-3.0849 I5.3698 J0.0069
G3 X59.9371 Y23.7575 I-0.3531 J0.354
G2 X63.7457 Y25.3351 Z-3.1599 I3.8014 J-3.7911
G3 X63.747 I0.0007 J0.5
G2 X67.5558 Y23.7574 Z-3.2349 I0.0069 J-5.3698
G3 X67.5567 Y23.7565 I0.354 J0.3531
G2 X69.1343 Y19.9478 Z-3.3099 I-3.7912 J-3.8014
G3 Y19.9465 I0.5 J-0.0007
G2 X67.5567 Y16.1378 Z-3.3849 I-5.3698 J-0.0069
G3 X67.5557 Y16.1369 I0.3531 J-0.354
G2 X63.7471 Y14.5593 Z-3.4599 I-3.8014 J3.7911
G3 X63.7458 I-0.0007 J-0.5
G2 X59.937 Y16.1369 Z-3.5349 I-0.0069 J5.3698
G3 X59.9361 Y16.1378 I-0.354 J-0.3531
G2 X58.3867 Y19.3892 Z-3.6 I3.7911 J3.8014
G2 X58.3585 Y19.9465 Z-3.6099 I5.3405 J0.55
G3 Y19.9478 I-0.5 J0.0007
G2 X59.9361 Y23.7565 Z-3.6849 I5.3698 J0.0069
G3 X59.9371 Y23.7575 I-0.3531 J0.354
G2 X63.7457 Y25.3351 Z-3.7599 I3.8014 J-3.7911
G3 X63.747 I0.0007 J0.5
G2 X67.5558 Y23.7574 Z-3.8349 I0.0069 J-5.3698
G3 X67.5567 Y23.7565 I0.354 J0.3531
G2 X69.1343 Y19.9478 Z-3.9099 I-3.7912 J-3.8014
G3 Y19.9465 I0.5 J-0.0007
G2 X67.5567 Y16.1378 Z-3.9849 I-5.3698 J-0.0069
G3 X67.5557 Y16.1369 I0.3531 J-0.354
G2 X63.7471 Y14.5593 Z-4.0599 I-3.8014 J3.7911
G3 X63.7458 I-0.0007 J-0.5
G2 X59.937 Y16.1369 Z-4.1349 I-0.0069 J5.3698
G3 X59.9361 Y16.1378 I-0.354 J-0.3531
G2 X58.3867 Y19.3892 Z-4.2 I3.7911 J3.8014
G2 X58.3585 Y19.9465 Z-4.2099 I5.3405 J0.55
G3 Y19.9478 I-0.5 J0.0007
G2 X59.9361 Y23.7565 Z-4.2849 I5.3698 J0.0069
G3 X59.9371 Y23.7575 I-0.3531 J0.354
G2 X62.2454 Y25.1233 Z-4.333 I3.8014 J-3.7911
G2 X63.7457 Y25.3351 Z-4.3599 I1.493 J-5.1569
G3 X63.747 I0.0007 J0.5
G2 X65.2454 Y25.1238 Z-4.3868 I0.0069 J-5.3698
G2 X67.5558 Y23.7574 Z-4.4349 I-1.4915 J-5.1585
G3 X67.5567 Y23.7565 I0.354 J0.3531
G2 X69.1343 Y19.9478 Z-4.5099 I-3.7912 J-3.8014
G3 Y19.9465 I0.5 J-0.0007
G2 X68.9792 Y18.6584 Z-4.533 I-5.3698 J-0.0069
G2 X68.4137 Y17.2528 Z-4.5599 I-5.2147 J1.2812
G2 X67.5567 Y16.1378 Z-4.5849 I-4.6492 J2.6869
G3 X67.5557 Y16.1369 I0.3531 J-0.354
G2 X67.4784 Y16.0608 Z-4.5868 I-3.8014 J3.7911
G2 X63.7471 Y14.5593 Z-4.6599 I-3.7241 J3.8672
G3 X63.7458 I-0.0007 J-0.5
G2 X60.0144 Y16.0609 Z-4.733 I-0.0069 J5.3698
G2 X59.937 Y16.1369 Z-4.7349 I3.7245 J3.8682
G3 X59.9361 Y16.1378 I-0.354 J-0.3531
G2 X59.079 Y17.2528 Z-4.6 I3.7911 J3.8014
G2 X58.5135 Y18.6585 Z-4.7868 I4.6482 J2.6864
G2 X58.3867 Y19.3892 Z-4.8 I5.2137 J1.2808
G2 X58.3585 Y19.9465 Z-4.8099 I5.3405 J0.55
G3 Y19.9478 I-0.5 J0.0007
G2 X59.9361 Y23.7565 Z-4.8849 I5.3698 J0.0069
G3 X59.9371 Y23.7575 I-0.3531 J0.354
G2 X62.2454 Y25.1233 Z-4.933 I3.8014 J-3.7911
G2 X63.7457 Y25.3351 Z-4.6002 I1.493 J-5.1569
G3 X63.747 Z-4.6009 I0.0007 J0.5
G2 X65.2454 Y25.1238 Z-4.9868 I0.0069 J-5.3698
G2 X67.5558 Y23.7574 Z-5.0349 I-1.4915 J-5.1585
G3 X67.5567 Y23.7565 I0.354 J0.3531
G2 X69.1343 Y19.9478 Z-5.1099 I-3.7912 J-3.8014
G3 Y19.9465 I0.5 J-0.0007
G2 X68.9792 Y18.6584 Z-5.133 I-5.3698 J-0.0069
G2 X68.4137 Y17.2528 Z-4.6 I-5.2147 J1.2812
G2 X67.5567 Y16.1378 Z-5.1849 I-4.6492 J2.6869
G3 X67.5557 Y16.1369 I0.3531 J-0.354
G2 X67.4784 Y16.0608 Z-5.1868 I-3.8014 J3.7911
G2 X63.7471 Y14.5593 Z-5.2599 I-3.7241 J3.8672
G3 X63.7458 I-0.0007 J-0.5
G2 X60.0144 Y16.0609 Z-5.333 I-0.0069 J5.3698
G2 X59.937 Y16.1369 Z-5.3349 I3.7245 J3.8682
G3 X59.9361 Y16.1378 I-0.354 J-0.3531
G2 X59.079 Y17.2528 Z-4.6 I3.7911 J3.8014
G2 X58.5135 Y18.6585 Z-5.3868 I4.6482 J2.6864
G2 X58.3867 Y19.3892 Z-5.4 I5.2137 J1.2808
G2 X58.3585 Y19.9465 Z-5.4099 I5.3405 J0.55
G3 Y19.9478 I-0.5 J0.0007
G2 X59.9361 Y23.7565 Z-5.4849 I5.3698 J0.0069
G3 X59.9371 Y23.7575 I-0.3531 J0.354
G2 X62.2454 Y25.1233 Z-5.533 I3.8014 J-3.7911
G2 X63.7457 Y25.3351 Z-4.6003 I1.493 J-5.1569
G3 X63.747 Z-4.6015 I0.0007 J0.5
G2 X65.2454 Y25.1238 Z-5.5868 I0.0069 J-5.3698
G2 X67.5558 Y23.7574 Z-5.6349 I-1.4915 J-5.1585
G3 X67.5567 Y23.7565 I0.354 J0.3531
G2 X69.1343 Y19.9478 Z-5.7099 I-3.7912 J-3.8014
G3 Y19.9465 I0.5 J-0.0007
G2 X68.9792 Y18.6584 Z-5.733 I-5.3698 J-0.0069
G2 X68.4137 Y17.2528 Z-4.6 I-5.2147 J1.2812
G2 X67.5567 Y16.1378 Z-5.7849 I-4.6492 J2.6869
G3 X67.5557 Y16.1369 I0.3531 J-0.354
G2 X67.4784 Y16.0608 Z-5.7868 I-3.8014 J3.7911
G2 X63.7471 Y14.5593 Z-5.8599 I-3.7241 J3.8672
G3 X63.7458 I-0.0007 J-0.5
G2 X60.0144 Y16.0609 Z-5.933 I-0.0069 J5.3698
G2 X59.937 Y16.1369 Z-5.9025 I3.7245 J3.8682
G3 X59.9361 Y16.1378 Z-5.9013 I-0.354 J-0.3531
G2 X59.079 Y17.2528 Z-4.6 I3.7911 J3.8014
G2 X58.5135 Y18.6585 Z-5.9868 I4.6482 J2.6864
G2 X58.3867 Y19.3892 Z-6.0 I5.2137 J1.2808
G2 X58.3585 Y19.9465 Z-6.0016 I5.3405 J0.55
G3 Y19.9478 Z-6.0017 I-0.5 J0.0007
G2 X59.9361 Y23.7565 Z-6.0141 I5.3698 J0.0069
G3 X59.9371 Y23.7575 Z-6.0142 I-0.3531 J0.354
G2 X62.2454 Y25.1233 Z-6.0222 I3.8014 J-3.7911
G2 X63.7457 Y25.3351 Z-4.6003 I1.493 J-5.1569
G3 X63.747 Z-4.6016 I0.0007 J0.5
G2 X65.2454 Y25.1238 Z-6.0311 I0.0069 J-5.3698
G2 X67.5558 Y23.7574 Z-6.0391 I-1.4915 J-5.1585
G3 X67.5567 Y23.7565 Z-6.0392 I0.354 J0.3531
G2 X69.1343 Y19.9478 Z-6.0516 I-3.7912 J-3.8014
G3 Y19.9465 Z-6.0517 I0.5 J-0.0007
G2 X68.9792 Y18.6584 Z-6.0555 I-5.3698 J-0.0069
G2 X68.4137 Y17.2528 Z-4.6 I-5.2147 J1.2812
G2 X67.5567 Y16.1378 Z-5.9942 I-4.6492 J2.6869
G3 X67.5557 Y16.1369 Z-5.9955 I0.3531 J-0.354
G2 X67.4784 Y16.0608 Z-6.0645 I-3.8014 J3.7911
G2 X63.7471 Y14.5593 Z-6.0766 I-3.7241 J3.8672
G3 X63.7458 Z-6.0767 I-0.0007 J-0.5
G2 X60.0144 Y16.0609 Z-6.0888 I-0.0069 J5.3698
G2 X59.937 Y16.1369 Z-5.9955 I3.7245 J3.8682
G3 X59.9361 Y16.1378 Z-5.9942 I-0.354 J-0.3531
G2 X59.079 Y17.2528 Z-4.6 I3.7911 J3.8014
G2 X58.5135 Y18.6585 Z-6.0978 I4.6482 J2.6864
G2 X58.3867 Y19.3892 Z-6.1 I5.2137 J1.2808
G2 X58.3585 Y19.9465 I5.3405 J0.55
G3 Y19.9478 I-0.5 J0.0007
G2 X59.9361 Y23.7565 I5.3698 J0.0069
G3 X59.9371 Y23.7575 I-0.3531 J0.354
G2 X62.2454 Y25.1233 I3.8014 J-3.7911
G2 X63.7457 Y25.3351 Z-4.6003 I1.493 J-5.1569
G3 X63.747 Z-4.6016 I0.0007 J0.5
G2 X65.2454 Y25.1238 Z-6.1 I0.0069 J-5.3698
G2 X67.5558 Y23.7574 I-1.4915 J-5.1585
G3 X67.5567 Y23.7565 I0.354 J0.3531
G2 X69.1343 Y19.9478 I-3.7912 J-3.8014
G3 Y19.9465 I0.5 J-0.0007
G2 X68.9792 Y18.6584 I-5.3698 J-0.0069
G2 X68.4137 Y17.2528 Z-4.6 I-5.2147 J1.2812
G2 X67.5567 Y16.1378 Z-5.9942 I-4.6492 J2.6869
G3 X67.5557 Y16.1369 Z-5.9955 I0.3531 J-0.354
G2 X67.4784 Y16.0608 Z-6.1 I-3.8014 J3.7911
G2 X63.7471 Y14.5593 I-3.7241 J3.8672
G3 X63.7458 I-0.0007 J-0.5
G2 X60.0144 Y16.0609 I-0.0069 J5.3698
G2 X59.937 Y16.1369 Z-5.9955 I3.7245 J3.8682
G3 X59.9361 Y16.1378 Z-5.9942 I-0.354 J-0.3531
G2 X59.079 Y17.2528 Z-4.6 I3.7911 J3.8014
G2 X58.5135 Y18.6585 Z-6.1 I4.6482 J2.6864
G2 X58.3867 Y19.3892 I5.2137 J1.2808
G0 Z3.0
G0 X102.0418 Y20.7646
G1 F300.0 Z0.0
G2 F800.0 X102.0383 Y21.0001 Z-0.0031 I7.2119 J0.2272
G3 Y21.0013 I-0.5 J0.0006
G2 X102.598 Y23.7962 Z-0.0406 I7.212 J0.009
G2 X105.3075 Y27.063 Z-0.0968 I6.7515 J-2.8428
G3 X105.3078 Y27.0631 I-0.2759 J0.417
G2 X109.3737 Y28.2835 Z-0.1531 I4.0519 J-6.1163
G3 X109.3755 I0.0009 J0.5
G2 X114.5528 Y26.1597 Z-0.2281 I0.0136 J-7.3392
G3 X114.5534 Y26.1592 I0.3518 J0.3553
G2 X116.1511 Y23.7965 Z-0.2656 I-5.1108 J-5.1775
G2 X116.711 Y21.0013 Z-0.3031 I-6.6556 J-2.7868
G3 Y21.0001 I0.5 J-0.0006
G2 X116.1512 Y18.2052 Z-0.3406 I-7.212 J-0.009
G2 X113.4417 Y14.9384 Z-0.3968 I-6.7516 J2.8428
G3 X113.4414 Y14.9383 I0.2759 J-0.417
G2 X109.3756 Y13.7179 Z-0.4531 I-4.052 J6.1164
G3 X109.3737 I-0.0009 J-0.5
G2 X104.1964 Y15.8417 Z-0.5281 I-0.0136 J7.3392
G3 X104.1958 Y15.8422 I-0.3518 J-0.3553
G2 X102.5982 Y18.2049 Z-0.5656 I5.1108 J5.1775
G2 X102.0418 Y20.7646 Z-0.6 I6.6556 J2.7868
G2 X102.0383 Y21.0001 Z-0.6031 I7.2119 J0.2272
G3 Y21.0013 I-0.5 J0.0006
G2 X102.598 Y23.7962 Z-0.6406 I7.212 J0.009
G2 X105.3075 Y27.063 Z-0.6968 I6.7515 J-2.8428
G3 X105.3078 Y27.0631 I-0.2759 J0.417
G2 X109.3737 Y28.2835 Z-0.7531 I4.0519 J-6.1163
G3 X109.3755 I0.0009 J0.5
G2 X114.5528 Y26.1597 Z-0.8281 I0.0136 J-7.3392
G3 X114.5534 Y26.1592 I0.3518 J0.3553
G2 X116.1511 Y23.7965 Z-0.8656 I-5.1108 J-5.1775
G2 X116.711 Y21.0013 Z-0.9031 I-6.6556 J-2.7868
G3 Y21.0001 I0.5 J-0.0006
G2 X116.1512 Y18.2052 Z-0.9406 I-7.212 J-0.009
G2 X113.4417 Y14.9384 Z-0.9968 I-6.7516 J2.8428
G3 X113.4414 Y14.9383 I0.2759 J-0.417
G2 X109.3756 Y13.7179 Z-1.0531 I-4.052 J6.1164
G3 X109.3737 I-0.0009 J-0.5
G2 X104.1964 Y15.8417 Z-1.1281 I-0.0136 J7.3392
G3 X104.1958 Y15.8422 I-0.3518 J-0.3553
G2 X102.5982 Y18.2049 Z-1.1656 I5.1108 J5.1775
G2 X102.0418 Y20.7646 Z-1.2 I6.6556 J2.7868
G2 X102.0383 Y21.0001 Z-1.2031 I7.2119 J0.2272
G3 Y21.0013 I-0.5 J0.0006
G2 X102.598 Y23.7962 Z-1.2406 I7.212 J0.009
G2 X105.3075 Y27.063 Z-1.2968 I6.7515 J-2.8428
G3 X105.3078 Y27.0631 I-0.2759 J0.417
G2 X109.3737 Y28.2835 Z-1.3531 I4.0519 J-6.1163
G3 X109.3755 I0.0009 J0.5
G2 X114.5528 Y26.1597 Z-1.4281 I0.0136 J-7.3392
G3 X114.5534 Y26.1592 I0.3518 J0.3553
G2 X116.1511 Y23.7965 Z-1.4656 I-5.1108 J-5.1775
G2 X116.711 Y21.0013 Z-1.5031 I-6.6556 J-2.7868
G3 Y21.0001 I0.5 J-0.0006
G2 X116.1512 Y18.2052 Z-1.5406 I-7.212 J-0.009
G2 X113.4417 Y14.9384 Z-1.5968 I-6.7516 J2.8428
G3 X113.4414 Y14.9383 I0.2759 J-0.417
G2 X109.3756 Y13.7179 Z-1.6531 I-4.052 J6.1164
G3 X109.3737 I-0.0009 J-0.5
G2 X104.1964 Y15.8417 Z-1.7281 I-0.0136 J7.3392
G3 X104.1958 Y15.8422 I-0.3518 J-0.3553
G2 X102.5982 Y18.2049 Z-1.7656 I5.1108 J5.1775
G2 X102.0418 Y20.7646 Z-1.8 I6.6556 J2.7868
G2 X102.0383 Y21.0001 Z-1.8031 I7.2119 J0.2272
G3 Y21.0013 I-0.5 J0.0006
G2 X102.598 Y23.7962 Z-1.8406 I7.212 J0.009
G2 X105.3075 Y27.063 Z-1.8968 I6.7515 J-2.8428
G3 X105.3078 Y27.0631 I-0.2759 J0.417
G2 X109.3737 Y28.2835 Z-1.9531 I4.0519 J-6.1163
G3 X109.3755 I0.0009 J0.5
G2 X114.5528 Y26.1597 Z-2.0281 I0.0136 J-7.3392
G3 X114.5534 Y26.1592 I0.3518 J0.3553
G2 X116.1511 Y23.7965 Z-2.0656 I-5.1108 J-5.1775
G2 X116.711 Y21.0013 Z-2.1031 I-6.6556 J-2.7868
G3 Y21.0001 I0.5 J-0.0006
G2 X116.1512 Y18.2052 Z-2.1406 I-7.212 J-0.009
G2 X113.4417 Y14.9384 Z-2.1968 I-6.7516 J2.8428
G3 X113.4414 Y14.9383 I0.2759 J-0.417
G2 X109.3756 Y13.7179 Z-2.2531 I-4.052 J6.1164
G3 X109.3737 I-0.0009 J-0.5
G2 X104.1964 Y15.8417 Z-2.3281 I-0.0136 J7.3392
G3 X104.1958 Y15.8422 I-0.3518 J-0.3553
G2 X102.5982 Y18.2049 Z-2.3656 I5.1108 J5.1775
G2 X102.0418 Y20.7646 Z-2.4 I6.6556 J2.7868
G2 X102.0383 Y21.0001 Z-2.4031 I7.2119 J0.2272
G3 Y21.0013 I-0.5 J0.0006
G2 X102.598 Y23.7962 Z-2.4406 I7.212 J0.009
G2 X105.3075 Y27.063 Z-2.4968 I6.7515 J-2.8428
G3 X105.3078 Y27.0631 I-0.2759 J0.417
G2 X109.3737 Y28.2835 Z-2.5531 I4.0519 J-6.1163
G3 X109.3755 I0.0009 J0.5
G2 X114.5528 Y26.1597 Z-2.6281 I0.0136 J-7.3392
G3 X114.5534 Y26.1592 I0.3518 J0.3553
G2 X116.1511 Y23.7965 Z-2.6656 I-5.1108 J-5.1775
G2 X116.711 Y21.0013 Z-2.7031 I-6.6556 J-2.7868
G3 Y21.0001 I0.5 J-0.0006
G2 X116.1512 Y18.2052 Z-2.7406 I-7.212 J-0.009
G2 X113.4417 Y14.9384 Z-2.7968 I-6.7516 J2.8428
G3 X113.4414 Y14.9383 I0.2759 J-0.417
G2 X109.3756 Y13.7179 Z-2.8531 I-4.052 J6.1164
G3 X109.3737 I-0.0009 J-0.5
G2 X104.1964 Y15.8417 Z-2.9281 I-0.0136 J7.3392
G3 X104.1958 Y15.8422 I-0.3518 J-0.3553
G2 X102.5982 Y18.2049 Z-2.9656 I5.1108 J5.1775
G2 X102.0418 Y20.7646 Z-3.0 I6.6556 J2.7868
G2 X102.0383 Y21.0001 Z-3.0031 I7.2119 J0.2272
G3 Y21.0013 I-0.5 J0.0006
G2 X102.598 Y23.7962 Z-3.0406 I7.212 J0.009
G2 X105.3075 Y27.063 Z-3.0968 I6.7515 J-2.8428
G3 X105.3078 Y27.0631 I-0.2759 J0.417
G2 X109.3737 Y28.2835 Z-3.1531 I4.0519 J-6.1163
G3 X109.3755 I0.0009 J0.5
G2 X114.5528 Y26.1597 Z-3.2281 I0.0136 J-7.3392
G3 X114.5534 Y26.1592 I0.3518 J0.3553
G2 X116.1511 Y23.7965 Z-3.2656 I-5.1108 J-5.1775
G2 X116.711 Y21.0013 Z-3.3031 I-6.6556 J-2.7868
G3 Y21.0001 I0.5 J-0.0006
G2 X116.1512 Y18.2052 Z-3.3406 I-7.212 J-0.009
G2 X113.4417 Y14.9384 Z-3.3968 I-6.7516 J2.8428
G3 X113.4414 Y14.9383 I0.2759 J-0.417
G2 X109.3756 Y13.7179 Z-3.4531 I-4.052 J6.1164
G3 X109.3737 I-0.0009 J-0.5
G2 X104.1964 Y15.8417 Z-3.5281 I-0.0136 J7.3392
G3 X104.1958 Y15.8422 I-0.3518 J-0.3553
G2 X102.5982 Y18.2049 Z-3.5656 I5.1108 J5.1775
G2 X102.0418 Y20.7646 Z-3.6 I6.6556 J2.7868
G2 X102.0383 Y21.0001 Z-3.6031 I7.2119 J0.2272
G3 Y21.0013 I-0.5 J0.0006
G2 X102.598 Y23.7962 Z-3.6406 I7.212 J0.009
G2 X105.3075 Y27.063 Z-3.6968 I6.7515 J-2.8428
G3 X105.3078 Y27.0631 I-0.2759 J0.417
G2 X109.3737 Y28.2835 Z-3.7531 I4.0519 J-6.1163
G3 X109.3755 I0.0009 J0.5
G2 X114.5528 Y26.1597 Z-3.8281 I0.0136 J-7.3392
G3 X114.5534 Y26.1592 I0.3518 J0.3553
G2 X116.1511 Y23.7965 Z-3.8656 I-5.1108 J-5.1775
G2 X116.711 Y21.0013 Z-3.9031 I-6.6556 J-2.7868
G3 Y21.0001 I0.5 J-0.0006
G2 X116.1512 Y18.2052 Z-3.9406 I-7.212 J-0.009
G2 X113.4417 Y14.9384 Z-3.9968 I-6.7516 J2.8428
G3 X113.4414 Y14.9383 I0.2759 J-0.417
G2 X109.3756 Y13.7179 Z-4.0531 I-4.052 J6.1164
G3 X109.3737 I-0.0009 J-0.5
G2 X104.1964 Y15.8417 Z-4.1281 I-0.0136 J7.3392
G3 X104.1958 Y15.8422 I-0.3518 J-0.3553
G2 X102.5982 Y18.2049 Z-4.1656 I5.1108 J5.1775
G2 X102.0418 Y20.7646 Z-4.2 I6.6556 J2.7868
G2 X102.0383 Y21.0001 Z-4.2031 I7.2119 J0.2272
G3 Y21.0013 I-0.5 J0.0006
G2 X102.598 Y23.7962 Z-4.2406 I7.212 J0.009
G2 X104.4895 Y26.4347 Z-4.2833 I6.7515 J-2.8428
G2 X105.3075 Y27.063 Z-4.2968 I4.8601 J-5.4813
G3 X105.3078 Y27.0631 I-0.2759 J0.417
G2 X105.7145 Y27.3139 Z-4.3031 I4.0519 J-6.1163
G2 X107.0933 Y27.9247 Z-4.3228 I3.6452 J-6.3671
G2 X109.3737 Y28.2835 Z-4.3531 I2.2664 J-6.9778
G3 X109.3755 I0.0009 J0.5
G2 X114.5528 Y26.1597 Z-4.4281 I0.0136 J-7.3392
G3 X114.5534 Y26.1592 I0.3518 J0.3553
G2 X116.1511 Y23.7965 Z-4.4656 I-5.1108 J-5.1775
G2 X116.5551 Y22.5015 Z-4.4833 I-6.6556 J-2.7868
G2 X116.711 Y21.0013 Z-4.5031 I-7.0596 J-1.4918
G3 Y21.0001 I0.5 J-0.0006
G2 X116.5555 Y19.5015 Z-4.5228 I-7.212 J-0.009
G2 X116.1512 Y18.2052 Z-4.5406 I-7.0565 J1.4896
G2 X113.4417 Y14.9384 Z-4.5968 I-6.7516 J2.8428
G3 X113.4414 Y14.9383 I0.2759 J-0.417
G2 X109.3756 Y13.7179 Z-4.6531 I-4.052 J6.1164
G3 X109.3737 I-0.0009 J-0.5
G2 X107.0931 Y14.0768 Z-4.6834 I-0.0136 J7.3392
G2 X105.7143 Y14.6875 Z-4.6 I2.2671 J6.9803
G2 X104.4894 Y15.5671 Z-4.7228 I3.6458 J6.3697
G2 X104.1964 Y15.8417 Z-4.7281 I4.8707 J5.4901
G3 X104.1958 Y15.8422 I-0.3518 J-0.3553
G2 X102.5982 Y18.2049 Z-4.7656 I5.1108 J5.1775
G2 X102.0418 Y20.7646 Z-4.8 I6.6556 J2.7868
G2 X102.0383 Y21.0001 Z-4.8031 I7.2119 J0.2272
G3 Y21.0013 I-0.5 J0.0006
G2 X102.598 Y23.7962 Z-4.8406 I7.212 J0.009
G2 X104.4895 Y26.4347 Z-4.8833 I6.7515 J-2.8428
G2 X105.3075 Y27.063 Z-4.8549 I4.8601 J-5.4813
G3 X105.3078 Y27.0631 Z-4.8547 I-0.2759 J0.417
G2 X105.7145 Y27.3139 Z-4.6 I4.0519 J-6.1163
G2 X107.0933 Y27.9247 Z-4.9228 I3.6452 J-6.3671
G2 X109.3737 Y28.2835 Z-4.9531 I2.2664 J-6.9778
G3 X109.3755 I0.0009 J0.5
G2 X114.5528 Y26.1597 Z-5.0281 I0.0136 J-7.3392
G3 X114.5534 Y26.1592 I0.3518 J0.3553
G2 X116.1511 Y23.7965 Z-5.0656 I-5.1108 J-5.1775
G2 X116.5551 Y22.5015 Z-5.0833 I-6.6556 J-2.7868
G2 X116.711 Y21.0013 Z-4.6001 I-7.0596 J-1.4918
G3 Y21.0001 Z-4.6008 I0.5 J-0.0006
G2 X116.5555 Y19.5015 Z-5.1228 I-7.212 J-0.009
G2 X116.1512 Y18.2052 Z-5.1406 I-7.0565 J1.4896
G2 X113.4417 Y14.9384 Z-5.1968 I-6.7516 J2.8428
G3 X113.4414 Y14.9383 I0.2759 J-0.417
G2 X109.3756 Y13.7179 Z-5.2531 I-4.052 J6.1164
G3 X109.3737 I-0.0009 J-0.5
G2 X107.0931 Y14.0768 Z-5.2834 I-0.0136 J7.3392
G2 X105.7143 Y14.6875 Z-4.6 I2.2671 J6.9803
G2 X104.4894 Y15.5671 Z-5.3228 I3.6458 J6.3697
G2 X104.1964 Y15.8417 Z-5.3281 I4.8707 J5.4901
G3 X104.1958 Y15.8422 I-0.3518 J-0.3553
G2 X102.5982 Y18.2049 Z-5.3656 I5.1108 J5.1775
G2 X102.0418 Y20.7646 Z-5.4 I6.6556 J2.7868
G2 X102.0383 Y21.0001 Z-5.4031 I7.2119 J0.2272
G3 Y21.0013 I-0.5 J0.0006
G2 X102.598 Y23.7962 Z-5.4406 I7.212 J0.009
G2 X104.4895 Y26.4347 Z-5.4833 I6.7515 J-2.8428
G2 X105.3075 Y27.063 Z-5.0461 I4.8601 J-5.4813
G3 X105.3078 Y27.0631 Z-5.0458 I-0.2759 J0.417
G2 X105.7145 Y27.3139 Z-4.6 I4.0519 J-6.1163
G2 X107.0933 Y27.9247 Z-5.5228 I3.6452 J-6.3671
G2 X109.3737 Y28.2835 Z-5.5531 I2.2664 J-6.9778
G3 X109.3755 I0.0009 J0.5
G2 X114.5528 Y26.1597 Z-5.6281 I0.0136 J-7.3392
G3 X114.5534 Y26.1592 I0.3518 J0.3553
G2 X116.1511 Y23.7965 Z-5.6656 I-5.1108 J-5.1775
G2 X116.5551 Y22.5015 Z-5.6833 I-6.6556 J-2.7868
G2 X116.711 Y21.0013 Z-4.6002 I-7.0596 J-1.4918
G3 Y21.0001 Z-4.6013 I0.5 J-0.0006
G2 X116.5555 Y19.5015 Z-5.7228 I-7.212 J-0.009
G2 X116.1512 Y18.2052 Z-5.7406 I-7.0565 J1.4896
G2 X113.4417 Y14.9384 Z-5.7968 I-6.7516 J2.8428
G3 X113.4414 Y14.9383 I0.2759 J-0.417
G2 X109.3756 Y13.7179 Z-5.8531 I-4.052 J6.1164
G3 X109.3737 I-0.0009 J-0.5
G2 X107.0931 Y14.0768 Z-5.8834 I-0.0136 J7.3392
G2 X105.7143 Y14.6875 Z-4.6 I2.2671 J6.9803
G2 X104.4894 Y15.5671 Z-5.9228 I3.6458 J6.3697
G2 X104.1964 Y15.8417 Z-5.9281 I4.8707 J5.4901
G3 X104.1958 Y15.8422 I-0.3518 J-0.3553
G2 X102.5982 Y18.2049 Z-5.9656 I5.1108 J5.1775
G2 X102.0418 Y20.7646 Z-6.0 I6.6556 J2.7868
G2 X102.0383 Y21.0001 Z-6.0005 I7.2119 J0.2272
G3 Y21.0013 I-0.5 J0.0006
G2 X102.598 Y23.7962 Z-6.0068 I7.212 J0.009
G2 X104.4895 Y26.4347 Z-6.0139 I6.7515 J-2.8428
G2 X105.3075 Y27.063 Z-5.0779 I4.8601 J-5.4813
G3 X105.3078 Y27.0631 Z-5.0776 I-0.2759 J0.417
G2 X105.7145 Y27.3139 Z-4.6 I4.0519 J-6.1163
G2 X107.0933 Y27.9247 Z-6.0205 I3.6452 J-6.3671
G2 X109.3737 Y28.2835 Z-6.0255 I2.2664 J-6.9778
G3 X109.3755 I0.0009 J0.5
G2 X114.5528 Y26.1597 Z-6.038 I0.0136 J-7.3392
G3 X114.5534 Y26.1592 I0.3518 J0.3553
G2 X116.1511 Y23.7965 Z-6.0443 I-5.1108 J-5.1775
G2 X116.5551 Y22.5015 Z-6.0472 I-6.6556 J-2.7868
G2 X116.711 Y21.0013 Z-4.6002 I-7.0596 J-1.4918
G3 Y21.0001 Z-4.6014 I0.5 J-0.0006
G2 X116.5555 Y19.5015 Z-6.0538 I-7.212 J-0.009
G2 X116.1512 Y18.2052 Z-6.0568 I-7.0565 J1.4896
G2 X113.4417 Y14.9384 Z-6.0661 I-6.7516 J2.8428
G3 X113.4414 Y14.9383 I0.2759 J-0.417
G2 X109.3756 Y13.7179 Z-6.0755 I-4.052 J6.1164
G3 X109.3737 I-0.0009 J-0.5
G2 X107.0931 Y14.0768 Z-6.0806 I-0.0136 J7.3392
G2 X105.7143 Y14.6875 Z-4.6 I2.2671 J6.9803
G2 X104.4894 Y15.5671 Z-6.0871 I3.6458 J6.3697
G2 X104.1964 Y15.8417 Z-6.088 I4.8707 J5.4901
G3 X104.1958 Y15.8422 I-0.3518 J-0.3553
G2 X102.5982 Y18.2049 Z-6.0943 I5.1108 J5.1775
G2 X102.0418 Y20.7646 Z-6.1 I6.6556 J2.7868
G2 X102.0383 Y21.0001 I7.2119 J0.2272
G3 Y21.0013 I-0.5 J0.0006
G2 X102.598 Y23.7962 I7.212 J0.009
G2 X104.4895 Y26.4347 I6.7515 J-2.8428
G2 X105.3075 Y27.063 Z-5.0779 I4.8601 J-5.4813
G3 X105.3078 Y27.0631 Z-5.0776 I-0.2759 J0.417
G2 X105.7145 Y27.3139 Z-4.6 I4.0519 J-6.1163
G2 X107.0933 Y27.9247 Z-6.1 I3.6452 J-6.3671
G2 X109.3737 Y28.2835 I2.2664 J-6.9778
G3 X109.3755 I0.0009 J0.5
G2 X114.5528 Y26.1597 I0.0136 J-7.3392
G3 X114.5534 Y26.1592 I0.3518 J0.3553
G2 X116.1511 Y23.7965 I-5.1108 J-5.1775
G2 X116.5551 Y22.5015 I-6.6556 J-2.7868
G2 X116.711 Y21.0013 Z-4.6002 I-7.0596 J-1.4918
G3 Y21.0001 Z-4.6014 I0.5 J-0.0006
G2 X116.5555 Y19.5015 Z-6.1 I-7.212 J-0.009
G2 X116.1512 Y18.2052 I-7.0565 J1.4896
G2 X113.4417 Y14.9384 I-6.7516 J2.8428
G3 X113.4414 Y14.9383 I0.2759 J-0.417
G2 X109.3756 Y13.7179 I-4.052 J6.1164
G3 X109.3737 I-0.0009 J-0.5
G2 X107.0931 Y14.0768 I-0.0136 J7.3392
G2 X105.7143 Y14.6875 Z-4.6 I2.2671 J6.9803
G2 X104.4894 Y15.5671 Z-6.1 I3.6458 J6.3697
G2 X104.1964 Y15.8417 I4.8707 J5.4901
G3 X104.1958 Y15.8422 I-0.3518 J-0.3553
G2 X102.5982 Y18.2049 I5.1108 J5.1775
G2 X102.0418 Y20.7646 I6.6556 J2.7868
G0 Z3.0
G0 X122.6841 Y20.9313
G1 F300.0 Z0.0
G2 F800.0 X122.6839 Y21.0 Z-0.0009 I7.2858 J0.0589
G3 Y21.0013 I-0.5 J0.0007
G2 X124.8249 Y26.1702 Z-0.0759 I7.2874 J0.0093
G3 X124.8259 Y26.1711 I-0.3531 J0.354
G2 X129.9947 Y28.3121 Z-0.1509 I5.1589 J-5.145
G3 X129.996 I0.0007 J0.5
G2 X135.1649 Y26.1711 Z-0.2259 I0.0093 J-7.2874
G3 X135.1658 Y26.1702 I0.354 J0.3531
G2 X137.3068 Y21.0014 Z-0.3009 I-5.1451 J-5.159
G3 Y21.0001 I0.5 J-0.0007
G2 X135.1658 Y15.8312 Z-0.3759 I-7.2874 J-0.0093
G3 X135.1648 Y15.8303 I0.3531 J-0.354
G2 X129.996 Y13.6893 Z-0.4509 I-5.159 J5.145
G3 X129.9947 I-0.0007 J-0.5
G2 X124.8258 Y15.8303 Z-0.5259 I-0.0093 J7.2874
G3 X124.8249 Y15.8312 I-0.354 J-0.3531
G2 X122.6841 Y20.9313 Z-0.6 I5.145 J5.159
G2 X122.6839 Y21.0 Z-0.6009 I7.2858 J0.0589
G3 Y21.0013 I-0.5 J0.0007
G2 X124.8249 Y26.1702 Z-0.6759 I7.2874 J0.0093
G3 X124.8259 Y26.1711 I-0.3531 J0.354
G2 X129.9947 Y28.3121 Z-0.7509 I5.1589 J-5.145
G3 X129.996 I0.0007 J0.5
G2 X135.1649 Y26.1711 Z-0.8259 I0.0093 J-7.2874
G3 X135.1658 Y26.1702 I0.354 J0.3531
G2 X137.3068 Y21.0014 Z-0.9009 I-5.1451 J-5.159
G3 Y21.0001 I0.5 J-0.0007
G2 X135.1658 Y15.8312 Z-0.9759 I-7.2874 J-0.0093
G3 X135.1648 Y15.8303 I0.3531 J-0.354
G2 X129.996 Y13.6893 Z-1.0509 I-5.159 J5.145
G3 X129.9947 I-0.0007 J-0.5
G2 X124.8258 Y15.8303 Z-1.1259 I-0.0093 J7.2874
G3 X124.8249 Y15.8312 I-0.354 J-0.3531
G2 X122.6841 Y20.9313 Z-1.2 I5.145 J5.159
