( Made using CamBam - http://www.cambam.co.uk )
( Gates_combined_R12 12/7/2012 7:36:26 PM )
( T0 : 1.0 )
G21 G90 ( G64 ) G40
G0 Z3.0
( T0 : 1.0 )
( T0 M6 )
( Holes )
G17
M3 S1000
G0 X40.9225 Y98.1299
G1 F300.0 Z-1.0
G1 F800.0 X40.538 Y97.8251
G1 X40.0875 Y97.7262
G1 X39.636 Y97.826
G1 X39.228 Y98.1496
G1 X39.0878 Y98.3565
G1 X39.0201 Y98.5457
G1 X39.0037 Y98.8183
G1 X39.0518 Y99.2956
G1 X39.1869 Y100.2771
G3 X38.6741 Y100.845 I-0.4953 J0.0682
G1 X36.9597 Y100.7849
G3 X36.9535 Y100.7847 I0.0175 J-0.4997
G1 X36.0232 Y100.7405
G3 X35.977 Y100.7361 I0.0237 J-0.4994
G1 X35.4525 Y100.662
G3 X35.274 Y100.6008 I0.07 J-0.4951
G1 X35.0323 Y100.4624
G3 X34.8072 Y100.1891 I0.2485 J-0.4339
G1 X34.7664 Y100.0687
G1 X34.728 Y100.0784
G1 X34.3684 Y100.1992
G1 X33.8508 Y100.391
G1 X33.1645 Y100.6534
G1 X32.2647 Y101.0165
G1 X32.1284 Y101.0801
G1 X32.6646 Y101.304
G1 X33.3578 Y101.5884
G1 X34.0413 Y101.8641
G1 X34.6364 Y102.0987
G1 X34.7021 Y102.1237
G1 X34.7157 Y102.0572
G3 X34.9661 Y101.7188 I0.4898 J0.1006
G1 X35.1917 Y101.5958
G3 X35.3813 Y101.5372 I0.2394 J0.4389
G1 X35.9128 Y101.484
G3 X35.957 Y101.4815 I0.0498 J0.4975
G1 X36.9224 Y101.4706
G3 X36.928 I0.0056 J0.5
G1 X38.6956
G3 X39.1871 Y102.0625 I0.0 J0.5
G1 X39.0525 Y102.7819
G1 X39.0151 Y103.2398
G1 X39.069 Y103.6172
G1 X39.1934 Y103.9321
G1 X39.3733 Y104.1787
G1 X39.5952 Y104.3548
G1 X39.8517 Y104.4593
G1 X40.1455 Y104.487
G1 X40.4688 Y104.4251
G1 X40.8099 Y104.2356
G1 X41.0225 Y103.9544
G1 X41.1386 Y103.5232
G1 X41.1212 Y102.8848
G1 X41.0047 Y102.0388
G3 X41.5 Y101.4706 I0.4953 J-0.0682
G1 X43.2576
G3 X43.2633 I0.0 J0.5
G1 X44.2296 Y101.4815
G3 X44.2741 Y101.484 I-0.0056 J0.5
G1 X44.8016 Y101.5372
G3 X45.0028 Y101.6025 I-0.0502 J0.4975
G1 X45.2232 Y101.7308
G3 X45.463 Y102.0697 I-0.2514 J0.4322
G1 X45.4764 Y102.1398
G1 X45.554 Y102.1123
G1 X46.0517 Y101.9195
G1 X46.6606 Y101.6746
G1 X47.3118 Y101.4073
G1 X47.9391 Y101.1442
G1 X48.0873 Y101.0807
G1 X47.8376 Y100.971
G1 X47.0381 Y100.6439
G1 X46.3586 Y100.3777
G1 X45.8487 Y100.1827
G1 X45.4978 Y100.0615
G1 X45.4378 Y100.0461
G1 X45.3588 Y100.2263
G3 X45.1374 Y100.4661 I-0.4579 J-0.2007
G1 X44.8927 Y100.5975
G3 X44.7121 Y100.6538 I-0.2366 J-0.4405
G1 X44.2067 Y100.7107
G3 X44.157 Y100.7138 I-0.056 J-0.4969
G1 X43.2677 Y100.7249
G3 X43.2615 Y100.725 I-0.0062 J-0.5
G1 X41.6282
G3 X41.1294 Y100.1911 I0.0 J-0.5
G1 X41.1906 Y99.2894
G1 X41.1535 Y98.577
G1 X40.9225 Y98.1299
G1 F300.0 Z-2.0
G1 F800.0 X40.538 Y97.8251
G1 X40.0875 Y97.7262
G1 X39.636 Y97.826
G1 X39.228 Y98.1496
G1 X39.0878 Y98.3565
G1 X39.0201 Y98.5457
G1 X39.0037 Y98.8183
G1 X39.0518 Y99.2956
G1 X39.1869 Y100.2771
G3 X38.6741 Y100.845 I-0.4953 J0.0682
G1 X36.9597 Y100.7849
G3 X36.9535 Y100.7847 I0.0175 J-0.4997
G1 X36.0232 Y100.7405
G3 X35.977 Y100.7361 I0.0237 J-0.4994
G1 X35.4525 Y100.662
G3 X35.274 Y100.6008 I0.07 J-0.4951
G1 X35.0323 Y100.4624
G3 X34.8072 Y100.1891 I0.2485 J-0.4339
G1 X34.7664 Y100.0687
G1 X34.728 Y100.0784
G1 X34.3684 Y100.1992
G1 X33.8508 Y100.391
G1 X33.1645 Y100.6534
G1 X32.2647 Y101.0165
G1 X32.1284 Y101.0801
G1 X32.6646 Y101.304
G1 X33.3578 Y101.5884
G1 X34.0413 Y101.8641
G1 X34.6364 Y102.0987
G1 X34.7021 Y102.1237
G1 X34.7157 Y102.0572
G3 X34.9661 Y101.7188 I0.4898 J0.1006
G1 X35.1917 Y101.5958
G3 X35.3813 Y101.5372 I0.2394 J0.4389
G1 X35.9128 Y101.484
G3 X35.957 Y101.4815 I0.0498 J0.4975
G1 X36.9224 Y101.4706
G3 X36.928 I0.0056 J0.5
G1 X38.6956
G3 X39.1871 Y102.0625 I0.0 J0.5
G1 X39.0525 Y102.7819
G1 X39.0151 Y103.2398
G1 X39.069 Y103.6172
G1 X39.1934 Y103.9321
G1 X39.3733 Y104.1787
G1 X39.5952 Y104.3548
G1 X39.8517 Y104.4593
G1 X40.1455 Y104.487
G1 X40.4688 Y104.4251
G1 X40.8099 Y104.2356
G1 X41.0225 Y103.9544
G1 X41.1386 Y103.5232
G1 X41.1212 Y102.8848
G1 X41.0047 Y102.0388
G3 X41.5 Y101.4706 I0.4953 J-0.0682
G1 X43.2576
G3 X43.2633 I0.0 J0.5
G1 X44.2296 Y101.4815
G3 X44.2741 Y101.484 I-0.0056 J0.5
G1 X44.8016 Y101.5372
G3 X45.0028 Y101.6025 I-0.0502 J0.4975
G1 X45.2232 Y101.7308
G3 X45.463 Y102.0697 I-0.2514 J0.4322
G1 X45.4764 Y102.1398
G1 X45.554 Y102.1123
G1 X46.0517 Y101.9195
G1 X46.6606 Y101.6746
G1 X47.3118 Y101.4073
G1 X47.9391 Y101.1442
G1 X48.0873 Y101.0807
G1 X47.8376 Y100.971
G1 X47.0381 Y100.6439
G1 X46.3586 Y100.3777
G1 X45.8487 Y100.1827
G1 X45.4978 Y100.0615
G1 X45.4378 Y100.0461
G1 X45.3588 Y100.2263
G3 X45.1374 Y100.4661 I-0.4579 J-0.2007
G1 X44.8927 Y100.5975
G3 X44.7121 Y100.6538 I-0.2366 J-0.4405
G1 X44.2067 Y100.7107
G3 X44.157 Y100.7138 I-0.056 J-0.4969
G1 X43.2677 Y100.7249
G3 X43.2615 Y100.725 I-0.0062 J-0.5
G1 X41.6282
G3 X41.1294 Y100.1911 I0.0 J-0.5
G1 X41.1906 Y99.2894
G1 X41.1535 Y98.577
G1 X40.9225 Y98.1299
G1 F300.0 Z-3.0
G1 F800.0 X40.538 Y97.8251
G1 X40.0875 Y97.7262
G1 X39.636 Y97.826
G1 X39.228 Y98.1496
G1 X39.0878 Y98.3565
G1 X39.0201 Y98.5457
G1 X39.0037 Y98.8183
G1 X39.0518 Y99.2956
G1 X39.1869 Y100.2771
G3 X38.6741 Y100.845 I-0.4953 J0.0682
G1 X36.9597 Y100.7849
G3 X36.9535 Y100.7847 I0.0175 J-0.4997
G1 X36.0232 Y100.7405
G3 X35.977 Y100.7361 I0.0237 J-0.4994
G1 X35.4525 Y100.662
G3 X35.274 Y100.6008 I0.07 J-0.4951
G1 X35.0323 Y100.4624
G3 X34.8072 Y100.1891 I0.2485 J-0.4339
G1 X34.7664 Y100.0687
G1 X34.728 Y100.0784
G1 X34.3684 Y100.1992
G1 X33.8508 Y100.391
G1 X33.1645 Y100.6534
G1 X32.2647 Y101.0165
G1 X32.1284 Y101.0801
G1 X32.6646 Y101.304
G1 X33.3578 Y101.5884
G1 X34.0413 Y101.8641
G1 X34.6364 Y102.0987
G1 X34.7021 Y102.1237
G1 X34.7157 Y102.0572
G3 X34.9661 Y101.7188 I0.4898 J0.1006
G1 X35.1917 Y101.5958
G3 X35.3813 Y101.5372 I0.2394 J0.4389
G1 X35.9128 Y101.484
G3 X35.957 Y101.4815 I0.0498 J0.4975
G1 X36.9224 Y101.4706
G3 X36.928 I0.0056 J0.5
G1 X38.6956
G3 X39.1871 Y102.0625 I0.0 J0.5
G1 X39.0525 Y102.7819
G1 X39.0151 Y103.2398
G1 X39.069 Y103.6172
G1 X39.1934 Y103.9321
G1 X39.3733 Y104.1787
G1 X39.5952 Y104.3548
G1 X39.8517 Y104.4593
G1 X40.1455 Y104.487
G1 X40.4688 Y104.4251
G1 X40.8099 Y104.2356
G1 X41.0225 Y103.9544
G1 X41.1386 Y103.5232
G1 X41.1212 Y102.8848
G1 X41.0047 Y102.0388
G3 X41.5 Y101.4706 I0.4953 J-0.0682
G1 X43.2576
G3 X43.2633 I0.0 J0.5
G1 X44.2296 Y101.4815
G3 X44.2741 Y101.484 I-0.0056 J0.5
G1 X44.8016 Y101.5372
G3 X45.0028 Y101.6025 I-0.0502 J0.4975
G1 X45.2232 Y101.7308
G3 X45.463 Y102.0697 I-0.2514 J0.4322
G1 X45.4764 Y102.1398
G1 X45.554 Y102.1123
G1 X46.0517 Y101.9195
G1 X46.6606 Y101.6746
G1 X47.3118 Y101.4073
G1 X47.9391 Y101.1442
G1 X48.0873 Y101.0807
G1 X47.8376 Y100.971
G1 X47.0381 Y100.6439
G1 X46.3586 Y100.3777
G1 X45.8487 Y100.1827
G1 X45.4978 Y100.0615
G1 X45.4378 Y100.0461
G1 X45.3588 Y100.2263
G3 X45.1374 Y100.4661 I-0.4579 J-0.2007
G1 X44.8927 Y100.5975
G3 X44.7121 Y100.6538 I-0.2366 J-0.4405
G1 X44.2067 Y100.7107
G3 X44.157 Y100.7138 I-0.056 J-0.4969
G1 X43.2677 Y100.7249
G3 X43.2615 Y100.725 I-0.0062 J-0.5
G1 X41.6282
G3 X41.1294 Y100.1911 I0.0 J-0.5
G1 X41.1906 Y99.2894
G1 X41.1535 Y98.577
G1 X40.9225 Y98.1299
G1 F300.0 Z-4.0
G1 F800.0 X40.538 Y97.8251
G1 X40.0875 Y97.7262
G1 X39.636 Y97.826
G1 X39.228 Y98.1496
G1 X39.0878 Y98.3565
G1 X39.0201 Y98.5457
G1 X39.0037 Y98.8183
G1 X39.0518 Y99.2956
G1 X39.1869 Y100.2771
G3 X38.6741 Y100.845 I-0.4953 J0.0682
G1 X36.9597 Y100.7849
G3 X36.9535 Y100.7847 I0.0175 J-0.4997
G1 X36.0232 Y100.7405
G3 X35.977 Y100.7361 I0.0237 J-0.4994
G1 X35.4525 Y100.662
G3 X35.274 Y100.6008 I0.07 J-0.4951
G1 X35.0323 Y100.4624
G3 X34.8072 Y100.1891 I0.2485 J-0.4339
G1 X34.7664 Y100.0687
G1 X34.728 Y100.0784
G1 X34.3684 Y100.1992
G1 X33.8508 Y100.391
G1 X33.1645 Y100.6534
G1 X32.2647 Y101.0165
G1 X32.1284 Y101.0801
G1 X32.6646 Y101.304
G1 X33.3578 Y101.5884
G1 X34.0413 Y101.8641
G1 X34.6364 Y102.0987
G1 X34.7021 Y102.1237
G1 X34.7157 Y102.0572
G3 X34.9661 Y101.7188 I0.4898 J0.1006
G1 X35.1917 Y101.5958
G3 X35.3813 Y101.5372 I0.2394 J0.4389
G1 X35.9128 Y101.484
G3 X35.957 Y101.4815 I0.0498 J0.4975
G1 X36.9224 Y101.4706
G3 X36.928 I0.0056 J0.5
G1 X38.6956
G3 X39.1871 Y102.0625 I0.0 J0.5
G1 X39.0525 Y102.7819
G1 X39.0151 Y103.2398
G1 X39.069 Y103.6172
G1 X39.1934 Y103.9321
G1 X39.3733 Y104.1787
G1 X39.5952 Y104.3548
G1 X39.8517 Y104.4593
G1 X40.1455 Y104.487
G1 X40.4688 Y104.4251
G1 X40.8099 Y104.2356
G1 X41.0225 Y103.9544
G1 X41.1386 Y103.5232
G1 X41.1212 Y102.8848
G1 X41.0047 Y102.0388
G3 X41.5 Y101.4706 I0.4953 J-0.0682
G1 X43.2576
G3 X43.2633 I0.0 J0.5
G1 X44.2296 Y101.4815
G3 X44.2741 Y101.484 I-0.0056 J0.5
G1 X44.8016 Y101.5372
G3 X45.0028 Y101.6025 I-0.0502 J0.4975
G1 X45.2232 Y101.7308
G3 X45.463 Y102.0697 I-0.2514 J0.4322
G1 X45.4764 Y102.1398
G1 X45.554 Y102.1123
G1 X46.0517 Y101.9195
G1 X46.6606 Y101.6746
G1 X47.3118 Y101.4073
G1 X47.9391 Y101.1442
G1 X48.0873 Y101.0807
G1 X47.8376 Y100.971
G1 X47.0381 Y100.6439
G1 X46.3586 Y100.3777
G1 X45.8487 Y100.1827
G1 X45.4978 Y100.0615
G1 X45.4378 Y100.0461
G1 X45.3588 Y100.2263
G3 X45.1374 Y100.4661 I-0.4579 J-0.2007
G1 X44.8927 Y100.5975
G3 X44.7121 Y100.6538 I-0.2366 J-0.4405
G1 X44.2067 Y100.7107
G3 X44.157 Y100.7138 I-0.056 J-0.4969
G1 X43.2677 Y100.7249
G3 X43.2615 Y100.725 I-0.0062 J-0.5
G1 X41.6282
G3 X41.1294 Y100.1911 I0.0 J-0.5
G1 X41.1906 Y99.2894
G1 X41.1535 Y98.577
G1 X40.9225 Y98.1299
G1 F300.0 Z-5.0
G1 F800.0 X40.538 Y97.8251
G1 X40.0875 Y97.7262
G1 X39.636 Y97.826
G1 X39.228 Y98.1496
G1 X39.0878 Y98.3565
G1 X39.0201 Y98.5457
G1 X39.0037 Y98.8183
G1 X39.0518 Y99.2956
G1 X39.1869 Y100.2771
G3 X38.6741 Y100.845 I-0.4953 J0.0682
G1 X36.9597 Y100.7849
G3 X36.9535 Y100.7847 I0.0175 J-0.4997
G1 X36.0232 Y100.7405
G3 X35.977 Y100.7361 I0.0237 J-0.4994
G1 X35.4525 Y100.662
G3 X35.274 Y100.6008 I0.07 J-0.4951
G1 X35.0323 Y100.4624
G3 X34.8072 Y100.1891 I0.2485 J-0.4339
G1 X34.7664 Y100.0687
G1 X34.728 Y100.0784
G1 X34.3684 Y100.1992
G1 X33.8508 Y100.391
G1 X33.1645 Y100.6534
G1 X32.2647 Y101.0165
G1 X32.1284 Y101.0801
G1 X32.6646 Y101.304
G1 X33.3578 Y101.5884
G1 X34.0413 Y101.8641
G1 X34.6364 Y102.0987
G1 X34.7021 Y102.1237
G1 X34.7157 Y102.0572
G3 X34.9661 Y101.7188 I0.4898 J0.1006
G1 X35.1917 Y101.5958
G3 X35.3813 Y101.5372 I0.2394 J0.4389
G1 X35.9128 Y101.484
G3 X35.957 Y101.4815 I0.0498 J0.4975
G1 X36.9224 Y101.4706
G3 X36.928 I0.0056 J0.5
G1 X38.6956
G3 X39.1871 Y102.0625 I0.0 J0.5
G1 X39.0525 Y102.7819
G1 X39.0151 Y103.2398
G1 X39.069 Y103.6172
G1 X39.1934 Y103.9321
G1 X39.3733 Y104.1787
G1 X39.5952 Y104.3548
G1 X39.8517 Y104.4593
G1 X40.1455 Y104.487
G1 X40.4688 Y104.4251
G1 X40.8099 Y104.2356
G1 X41.0225 Y103.9544
G1 X41.1386 Y103.5232
G1 X41.1212 Y102.8848
G1 X41.0047 Y102.0388
G3 X41.5 Y101.4706 I0.4953 J-0.0682
G1 X43.2576
G3 X43.2633 I0.0 J0.5
G1 X44.2296 Y101.4815
G3 X44.2741 Y101.484 I-0.0056 J0.5
G1 X44.8016 Y101.5372
G3 X45.0028 Y101.6025 I-0.0502 J0.4975
G1 X45.2232 Y101.7308
G3 X45.463 Y102.0697 I-0.2514 J0.4322
G1 X45.4764 Y102.1398
G1 X45.554 Y102.1123
G1 X46.0517 Y101.9195
G1 X46.6606 Y101.6746
G1 X47.3118 Y101.4073
G1 X47.9391 Y101.1442
G1 X48.0873 Y101.0807
G1 X47.8376 Y100.971
G1 X47.0381 Y100.6439
G1 X46.3586 Y100.3777
G1 X45.8487 Y100.1827
G1 X45.4978 Y100.0615
G1 X45.4378 Y100.0461
G1 X45.3588 Y100.2263
G3 X45.1374 Y100.4661 I-0.4579 J-0.2007
G1 X44.8927 Y100.5975
G3 X44.7121 Y100.6538 I-0.2366 J-0.4405
G1 X44.2067 Y100.7107
G3 X44.157 Y100.7138 I-0.056 J-0.4969
G1 X43.2677 Y100.7249
G3 X43.2615 Y100.725 I-0.0062 J-0.5
G1 X41.6282
G3 X41.1294 Y100.1911 I0.0 J-0.5
G1 X41.1906 Y99.2894
G1 X41.1535 Y98.577
G1 X40.9225 Y98.1299
G1 F300.0 Z-5.5
G1 F800.0 X40.538 Y97.8251
G1 X40.0875 Y97.7262
G1 X39.636 Y97.826
G1 X39.228 Y98.1496
G1 X39.0878 Y98.3565
G1 X39.0201 Y98.5457
G1 X39.0037 Y98.8183
G1 X39.0518 Y99.2956
G1 X39.1869 Y100.2771
G3 X38.6741 Y100.845 I-0.4953 J0.0682
G1 X36.9597 Y100.7849
G3 X36.9535 Y100.7847 I0.0175 J-0.4997
G1 X36.0232 Y100.7405
G3 X35.977 Y100.7361 I0.0237 J-0.4994
G1 X35.4525 Y100.662
G3 X35.274 Y100.6008 I0.07 J-0.4951
G1 X35.0323 Y100.4624
G3 X34.8072 Y100.1891 I0.2485 J-0.4339
G1 X34.7664 Y100.0687
G1 X34.728 Y100.0784
G1 X34.3684 Y100.1992
G1 X33.8508 Y100.391
G1 X33.1645 Y100.6534
G1 X32.2647 Y101.0165
G1 X32.1284 Y101.0801
G1 X32.6646 Y101.304
G1 X33.3578 Y101.5884
G1 X34.0413 Y101.8641
G1 X34.6364 Y102.0987
G1 X34.7021 Y102.1237
G1 X34.7157 Y102.0572
G3 X34.9661 Y101.7188 I0.4898 J0.1006
G1 X35.1917 Y101.5958
G3 X35.3813 Y101.5372 I0.2394 J0.4389
G1 X35.9128 Y101.484
G3 X35.957 Y101.4815 I0.0498 J0.4975
G1 X36.9224 Y101.4706
G3 X36.928 I0.0056 J0.5
G1 X38.6956
G3 X39.1871 Y102.0625 I0.0 J0.5
G1 X39.0525 Y102.7819
G1 X39.0151 Y103.2398
G1 X39.069 Y103.6172
G1 X39.1934 Y103.9321
G1 X39.3733 Y104.1787
G1 X39.5952 Y104.3548
G1 X39.8517 Y104.4593
G1 X40.1455 Y104.487
G1 X40.4688 Y104.4251
G1 X40.8099 Y104.2356
G1 X41.0225 Y103.9544
G1 X41.1386 Y103.5232
G1 X41.1212 Y102.8848
G1 X41.0047 Y102.0388
G3 X41.5 Y101.4706 I0.4953 J-0.0682
G1 X43.2576
G3 X43.2633 I0.0 J0.5
G1 X44.2296 Y101.4815
G3 X44.2741 Y101.484 I-0.0056 J0.5
G1 X44.8016 Y101.5372
G3 X45.0028 Y101.6025 I-0.0502 J0.4975
G1 X45.2232 Y101.7308
G3 X45.463 Y102.0697 I-0.2514 J0.4322
G1 X45.4764 Y102.1398
G1 X45.554 Y102.1123
G1 X46.0517 Y101.9195
G1 X46.6606 Y101.6746
G1 X47.3118 Y101.4073
G1 X47.9391 Y101.1442
G1 X48.0873 Y101.0807
G1 X47.8376 Y100.971
G1 X47.0381 Y100.6439
G1 X46.3586 Y100.3777
G1 X45.8487 Y100.1827
G1 X45.4978 Y100.0615
G1 X45.4378 Y100.0461
G1 X45.3588 Y100.2263
G3 X45.1374 Y100.4661 I-0.4579 J-0.2007
G1 X44.8927 Y100.5975
G3 X44.7121 Y100.6538 I-0.2366 J-0.4405
G1 X44.2067 Y100.7107
G3 X44.157 Y100.7138 I-0.056 J-0.4969
G1 X43.2677 Y100.7249
G3 X43.2615 Y100.725 I-0.0062 J-0.5
G1 X41.6282
G3 X41.1294 Y100.1911 I0.0 J-0.5
G1 X41.1906 Y99.2894
G1 X41.1535 Y98.577
G1 X40.9225 Y98.1299
G0 Z3.0
G0 X96.9741 Y73.77
G1 F300.0 Z-1.0
G1 F800.0 X97.974
G1 X98.974
G1 Y72.7701
G1 Y71.7701
G1 X97.974
G1 X96.9741
G1 Y72.7701
G1 Y73.77
G1 F300.0 Z-2.0
G1 F800.0 X97.974
G1 X98.974
G1 Y72.7701
G1 Y71.7701
G1 X97.974
G1 X96.9741
G1 Y72.7701
G1 Y73.77
G1 F300.0 Z-3.0
G1 F800.0 X97.974
G1 X98.974
G1 Y72.7701
G1 Y71.7701
G1 X97.974
G1 X96.9741
G1 Y72.7701
G1 Y73.77
G1 F300.0 Z-4.0
G1 F800.0 X97.974
G1 X98.974
G1 Y72.7701
G1 Y71.7701
G1 X97.974
G1 X96.9741
G1 Y72.7701
G1 Y73.77
G1 F300.0 Z-5.0
G1 F800.0 X97.974
G1 X98.974
G1 Y72.7701
G1 Y71.7701
G1 X97.974
G1 X96.9741
G1 Y72.7701
G1 Y73.77
G1 F300.0 Z-5.5
G1 F800.0 X97.974
G1 X98.974
G1 Y72.7701
G1 Y71.7701
G1 X97.974
G1 X96.9741
G1 Y72.7701
G1 Y73.77
G0 Z3.0
G0 X102.3745 Y70.5699
G1 F300.0 Z-1.0
G1 F800.0 X111.0737
G1 X119.7739
G1 Y69.5699
G1 Y68.5699
G1 X111.0737
G1 X102.3745
G1 Y69.5699
G1 Y70.5699
G1 F300.0 Z-2.0
G1 F800.0 X111.0737
G1 X119.7739
G1 Y69.5699
G1 Y68.5699
G1 X111.0737
G1 X102.3745
G1 Y69.5699
G1 Y70.5699
G1 F300.0 Z-3.0
G1 F800.0 X111.0737
G1 X119.7739
G1 Y69.5699
G1 Y68.5699
G1 X111.0737
G1 X102.3745
G1 Y69.5699
G1 Y70.5699
G1 F300.0 Z-4.0
G1 F800.0 X111.0737
G1 X119.7739
G1 Y69.5699
G1 Y68.5699
G1 X111.0737
G1 X102.3745
G1 Y69.5699
G1 Y70.5699
G1 F300.0 Z-5.0
G1 F800.0 X111.0737
G1 X119.7739
G1 Y69.5699
G1 Y68.5699
G1 X111.0737
G1 X102.3745
G1 Y69.5699
G1 Y70.5699
G1 F300.0 Z-5.5
G1 F800.0 X111.0737
G1 X119.7739
G1 Y69.5699
G1 Y68.5699
G1 X111.0737
G1 X102.3745
G1 Y69.5699
G1 Y70.5699
G0 Z3.0
G0 X98.9739 Y67.1695
G1 F300.0 Z-1.0
G1 F800.0 X98.9737 Y66.1633
G1 X96.9741 Y66.1632
G1 Y67.1695
G1 X98.9739
G1 F300.0 Z-2.0
G1 F800.0 X98.9737 Y66.1633
G1 X96.9741 Y66.1632
G1 Y67.1695
G1 X98.9739
G1 F300.0 Z-3.0
G1 F800.0 X98.9737 Y66.1633
G1 X96.9741 Y66.1632
G1 Y67.1695
G1 X98.9739
G1 F300.0 Z-4.0
G1 F800.0 X98.9737 Y66.1633
G1 X96.9741 Y66.1632
G1 Y67.1695
G1 X98.9739
G1 F300.0 Z-5.0
G1 F800.0 X98.9737 Y66.1633
G1 X96.9741 Y66.1632
G1 Y67.1695
G1 X98.9739
G1 F300.0 Z-5.5
G1 F800.0 X98.9737 Y66.1633
G1 X96.9741 Y66.1632
G1 Y67.1695
G1 X98.9739
G0 Z3.0
G0 X123.3743 Y67.1693
G1 F300.0 Z-1.0
G1 F800.0 Y67.1695
G1 X125.3741
G1 X125.374 Y66.1633
G1 X123.3743 Y66.1632
G1 Y67.1693
G1 F300.0 Z-2.0
G1 F800.0 Y67.1695
G1 X125.3741
G1 X125.374 Y66.1633
G1 X123.3743 Y66.1632
G1 Y67.1693
G1 F300.0 Z-3.0
G1 F800.0 Y67.1695
G1 X125.3741
G1 X125.374 Y66.1633
G1 X123.3743 Y66.1632
G1 Y67.1693
G1 F300.0 Z-4.0
G1 F800.0 Y67.1695
G1 X125.3741
G1 X125.374 Y66.1633
G1 X123.3743 Y66.1632
G1 Y67.1693
G1 F300.0 Z-5.0
G1 F800.0 Y67.1695
G1 X125.3741
G1 X125.374 Y66.1633
G1 X123.3743 Y66.1632
G1 Y67.1693
G1 F300.0 Z-5.5
G1 F800.0 Y67.1695
G1 X125.3741
G1 X125.374 Y66.1633
G1 X123.3743 Y66.1632
G1 Y67.1693
G0 Z3.0
G0 Y71.7701
G1 F300.0 Z-1.0
G1 F800.0 Y72.7701
G1 Y73.77
G1 X124.3745
G1 X125.3744
G1 Y72.7701
G1 Y71.7701
G1 X124.3745
G1 X123.3743
G1 F300.0 Z-2.0
G1 F800.0 Y72.7701
G1 Y73.77
G1 X124.3745
G1 X125.3744
G1 Y72.7701
G1 Y71.7701
G1 X124.3745
G1 X123.3743
G1 F300.0 Z-3.0
G1 F800.0 Y72.7701
G1 Y73.77
G1 X124.3745
G1 X125.3744
G1 Y72.7701
G1 Y71.7701
G1 X124.3745
G1 X123.3743
G1 F300.0 Z-4.0
G1 F800.0 Y72.7701
G1 Y73.77
G1 X124.3745
G1 X125.3744
G1 Y72.7701
G1 Y71.7701
G1 X124.3745
G1 X123.3743
G1 F300.0 Z-5.0
G1 F800.0 Y72.7701
G1 Y73.77
G1 X124.3745
G1 X125.3744
G1 Y72.7701
G1 Y71.7701
G1 X124.3745
G1 X123.3743
G1 F300.0 Z-5.5
G1 F800.0 Y72.7701
G1 Y73.77
G1 X124.3745
G1 X125.3744
G1 Y72.7701
G1 Y71.7701
G1 X124.3745
G1 X123.3743
( Outside )
S1000
G0 Z3.0
G0 X24.6882 Y47.2627
G1 F300.0 Z-1.0
G1 F800.0 X24.884
G1 Y45.5038
G3 X25.384 Y45.0038 I0.5 J0.0
G1 X28.3838
G3 X28.8838 Y45.5038 I0.0 J0.5
G1 Y47.3607
G3 X28.8837 Y47.3709 I-0.5 J0.0
G1 X28.8647 Y48.2993
G3 X28.8626 Y48.3355 I-0.4999 J-0.0102
G1 X28.7976 Y49.0333
G3 X28.7876 Y49.0961 I-0.4978 J-0.0464
G1 X28.6662 Y49.6385
G3 X28.641 Y49.7188 I-0.4879 J-0.1092
G1 X28.4525 Y50.179
G3 X28.3978 Y50.2786 I-0.4627 J-0.1895
G1 X27.5176 Y51.5208
G3 X27.4235 Y51.6209 I-0.408 J-0.2891
G1 X26.1992 Y52.6085
G3 X26.0957 Y52.6729 I-0.3139 J-0.3892
G1 X24.5698 Y53.3807
G3 X24.469 Y53.415 I-0.2104 J-0.4536
G1 X22.6873 Y53.815
G3 X22.6322 Y53.8242 I-0.1095 J-0.4879
G1 X22.0366 Y53.8894
G3 X22.0206 Y53.8909 I-0.0544 J-0.497
G1 X21.4862 Y53.932
G3 X21.4635 Y53.9332 I-0.0383 J-0.4985
G1 X21.0474 Y53.9462
G3 X20.9939 Y53.945 I-0.0157 J-0.4998
G1 X20.7563 Y53.927
G3 X20.6752 Y53.9141 I0.0379 J-0.4986
G1 X20.289 Y53.8195
G1 X19.8494 Y53.7172
G1 Y56.1535
G1 Y58.8768
G1 X20.6764 Y59.2123
G3 X20.7126 Y59.2288 I-0.188 J0.4633
G1 X21.5037 Y59.6258
G3 X21.686 Y59.7817 I-0.2243 J0.4469
G1 X21.9407 Y60.1377
G3 X21.9233 Y60.7424 I-0.4066 J0.2909
G1 X21.6396 Y61.0944
G3 X21.4622 Y61.2334 I-0.3892 J-0.3138
G1 X20.639 Y61.6184
G3 X20.6046 Y61.633 I-0.2118 J-0.4529
G1 X19.8494 Y61.9196
G1 Y65.1939
G1 Y68.4696
G1 X20.6056 Y68.7621
G3 X20.6413 Y68.7776 I-0.1804 J0.4663
G1 X21.4655 Y69.1727
G3 X21.6363 Y69.3069 I-0.2162 J0.4509
G1 X21.929 Y69.6647
G3 X21.9539 Y70.265 I-0.387 J0.3166
G1 X21.7162 Y70.61
G3 X21.5154 Y70.7797 I-0.4118 J-0.2836
G1 X20.7504 Y71.1356
G3 X20.7086 Y71.1528 I-0.2109 J-0.4533
G1 X19.9517 Y71.4249
G1 Y74.7438
G1 Y78.0696
G1 X20.716 Y78.3599
G3 X20.7569 Y78.3776 I-0.1776 J0.4674
G1 X21.5208 Y78.7485
G3 X21.7165 Y78.918 I-0.2184 J0.4498
G1 X21.9542 Y79.2691
G3 X21.9276 Y79.8653 I-0.4141 J0.2802
G1 X21.6358 Y80.2231
G3 X21.4638 Y80.3583 I-0.3875 J-0.316
G1 X20.6406 Y80.7514
G3 X20.6055 Y80.7666 I-0.2155 J-0.4512
G1 X19.8494 Y81.0589
G1 Y84.3348
G1 Y87.6081
G1 X20.6046 Y87.8946
G3 X20.6399 Y87.9096 I-0.1774 J0.4675
G1 X21.463 Y88.2966
G3 X21.6391 Y88.4347 I-0.2127 J0.4525
G1 X21.9229 Y88.7856
G3 X21.9407 Y89.391 I-0.3888 J0.3144
G1 X21.686 Y89.7469
G3 X21.5032 Y89.903 I-0.4066 J-0.2909
G1 X20.7122 Y90.2991
G3 X20.6764 Y90.3152 I-0.2238 J-0.4471
G1 X19.8494 Y90.651
G1 Y93.4735
G1 Y96.1315
G1 X20.8321
G1 X23.2491 Y96.0719
G1 X25.8274 Y95.9038
G1 X28.4713 Y95.6424
G1 X31.0773 Y95.3017
G1 X33.5414 Y94.8985
G1 X35.7601 Y94.4478
G1 X37.6257 Y93.9672
G1 X39.0519 Y93.467
G1 X39.5699 Y93.2614
G3 X39.6795 Y93.2317 I0.1845 J0.4647
G1 X40.0715 Y93.1724
G3 X40.2595 Y93.1798 I0.0748 J0.4944
G1 X40.7049 Y93.2833
G3 X40.7757 Y93.3054 I-0.1132 J0.487
G1 X41.4461 Y93.5708
G1 X44.2265 Y94.4273
G1 X48.0449 Y95.1558
G1 X52.6517 Y95.7156
G1 X57.787 Y96.0643
G1 X60.3262 Y96.1738
G1 Y93.5056
G1 Y90.651
G1 X59.499 Y90.3153
G3 X59.4635 Y90.2992 I0.1881 J-0.4633
G1 X58.6714 Y89.9032
G3 X58.4884 Y89.7469 I0.2236 J-0.4472
G1 X58.2337 Y89.391
G3 X58.2516 Y88.7856 I0.4066 J-0.2909
G1 X58.5355 Y88.4346
G3 X58.7117 Y88.2965 I0.3888 J0.3144
G1 X59.5359 Y87.9095
G3 X59.571 Y87.8946 I0.2125 J0.4526
G1 X60.3262 Y87.6081
G1 Y84.3348
G1 Y81.0589
G1 X59.57 Y80.7666
G3 X59.535 Y80.7515 I0.1803 J-0.4664
G1 X58.7108 Y80.3584
G3 X58.5385 Y80.223 I0.2152 J-0.4513
G1 X58.2469 Y79.8653
G3 X58.2203 Y79.2693 I0.3876 J-0.3159
G1 X58.4578 Y78.9181
G3 X58.6538 Y78.7483 I0.4142 J0.2801
G1 X59.4189 Y78.3774
G3 X59.4594 Y78.3599 I0.2181 J0.4499
G1 X60.2238 Y78.0696
G1 Y74.769
G1 Y71.4604
G1 X59.4537 Y71.1487
G3 X59.4165 Y71.1319 I0.1876 J-0.4635
G1 X58.6613 Y70.752
G3 X58.4721 Y70.5859 I0.2247 J-0.4467
G1 X58.2376 Y70.2399
G3 X58.2664 Y69.6404 I0.4139 J-0.2806
G1 X58.5531 Y69.2944
G3 X58.7239 Y69.1616 I0.385 J0.319
G1 X59.5361 Y68.7766
G3 X59.5699 Y68.7621 I0.2141 J0.4518
G1 X60.3262 Y68.4696
G1 Y65.19
G1 Y61.9043
G1 X59.5091 Y61.5727
G3 X59.4919 Y61.5654 I0.188 J-0.4633
G1 X59.0528 Y61.3678
G3 X59.0122 Y61.3473 I0.2051 J-0.456
G1 X58.6534 Y61.1448
G3 X58.6006 Y61.1104 I0.2457 J-0.4354
G1 X58.3581 Y60.93
G3 X58.2352 Y60.7979 I0.2985 J-0.4011
G1 X58.1469 Y60.6596
G3 X58.1487 Y60.1187 I0.4214 J-0.2691
G1 X58.237 Y59.9823
G3 X58.357 Y59.8539 I0.4196 J0.2719
G1 X58.5995 Y59.6724
G3 X58.6543 Y59.6367 I0.2996 J0.4003
G1 X59.0132 Y59.4352
G3 X59.0511 Y59.416 I0.2448 J0.436
G1 X59.4902 Y59.2164
G3 X59.5091 Y59.2083 I0.2069 J0.4552
G1 X60.3262 Y58.8768
G1 Y56.1836
G1 Y53.7565
G1 X59.9923 Y53.8187
G3 X59.9212 Y53.8268 I-0.0916 J-0.4915
G1 X58.1827 Y53.8979
G3 X58.0726 Y53.8902 I-0.0205 J-0.4996
G1 X56.2196 Y53.5524
G3 X56.1264 Y53.5258 I0.0897 J-0.4919
G1 X54.4101 Y52.8511
G3 X54.3041 Y52.7938 I0.1829 J-0.4653
G1 X52.9745 Y51.8523
G3 X52.8852 Y51.7713 I0.2889 J-0.4081
G1 X52.1595 Y50.9322
G3 X52.0951 Y50.8376 I0.3782 J-0.3271
G1 X51.6438 Y49.9783
G3 X51.5985 Y49.855 I0.4427 J-0.2325
G1 X51.368 Y48.8243
G3 X51.3565 Y48.7388 I0.488 J-0.1091
G1 X51.2924 Y47.3843
G3 X51.2919 Y47.3607 I0.4994 J-0.0236
G1 Y45.5038
G3 X51.7919 Y45.0038 I0.5 J0.0
G1 X54.791
G3 X55.291 Y45.5038 I0.0 J0.5
G1 Y47.2627
G1 X55.4882
G1 X63.6265
G3 X63.6273 I0.0 J0.5
G1 X66.561 Y47.2677
G3 X66.5646 I-0.0009 J0.5
G1 X68.8243 Y47.2878
G3 X68.8338 Y47.288 I-0.0044 J0.5
G1 X70.5222 Y47.3351
G3 X70.5427 Y47.3361 I-0.014 J0.4998
G1 X71.7629 Y47.4203
G3 X71.8049 Y47.425 I-0.0344 J0.4988
G1 X72.66 Y47.5573
G3 X72.737 Y47.5756 I-0.0765 J0.4941
G1 X73.3308 Y47.7671
G3 X73.4343 Y47.8141 I-0.1535 J0.4759
G1 X73.8693 Y48.0747
G3 X73.9467 Y48.1319 I-0.257 J0.4289
G1 X74.3257 Y48.4727
G3 X74.3661 Y48.5135 I-0.3344 J0.3718
G1 X74.676 Y48.8645
G3 X74.7445 Y48.9641 I-0.3748 J0.331
G1 X74.924 Y49.3081
G3 X74.9722 Y49.4475 I-0.4433 J0.2313
G1 X75.0542 Y49.8866
G3 X75.0625 Y49.9619 I-0.4915 J0.0918
G1 X75.0835 Y50.5976
G3 X75.0822 Y50.6536 I-0.4997 J0.0166
G1 X75.0161 Y51.4897
G3 X74.9864 Y51.6243 I-0.4984 J-0.0394
G1 X74.7548 Y52.248
G3 X74.6562 Y52.4101 I-0.4687 J-0.174
G1 X74.2101 Y52.9013
G3 X74.1043 Y52.9896 I-0.3702 J-0.3361
G1 X73.3943 Y53.4318
G3 X73.2666 Y53.4883 I-0.2643 J-0.4244
G1 X72.5539 Y53.6908
G3 X72.4743 Y53.7066 I-0.1367 J-0.481
G1 X71.4797 Y53.8209
G3 X71.4257 Y53.8242 I-0.0571 J-0.4967
G1 X70.4681 Y53.8302
G3 X70.3653 Y53.8201 I-0.0031 J-0.5
G1 X70.2221 Y53.791
G1 X70.2069 Y53.9131
G1 X70.1689 Y54.8179
G1 X70.1561 Y56.1479
G1 Y58.8768
G1 X70.9832 Y59.2123
G3 X71.0195 Y59.2288 I-0.188 J0.4633
G1 X71.8105 Y59.6258
G3 X71.9928 Y59.7817 I-0.2243 J0.4469
G1 X72.2475 Y60.1377
G3 X72.23 Y60.7425 I-0.4066 J0.2909
G1 X71.9461 Y61.0944
G3 X71.7688 Y61.2334 I-0.3892 J-0.3139
G1 X70.9457 Y61.6184
G3 X70.9113 Y61.633 I-0.2118 J-0.4529
G1 X70.1561 Y61.9196
G1 Y65.1939
G1 Y68.4696
G1 X70.9121 Y68.7622
G3 X70.9478 Y68.7776 I-0.1804 J0.4663
G1 X71.772 Y69.1727
G3 X71.9427 Y69.3068 I-0.2161 J0.4509
G1 X72.2356 Y69.6646
G3 X72.2605 Y70.265 I-0.3869 J0.3167
G1 X72.0229 Y70.61
G3 X71.8221 Y70.7797 I-0.4118 J-0.2836
G1 X71.0572 Y71.1356
G3 X71.0154 Y71.1528 I-0.2109 J-0.4533
G1 X70.2585 Y71.4249
G1 Y74.7438
G1 Y78.0696
G1 X71.0227 Y78.3599
G3 X71.0635 Y78.3776 I-0.1776 J0.4674
G1 X71.8274 Y78.7485
G3 X72.0231 Y78.918 I-0.2184 J0.4498
G1 X72.2608 Y79.2691
G3 X72.2343 Y79.8653 I-0.4141 J0.2803
G1 X71.9427 Y80.223
G3 X71.7705 Y80.3584 I-0.3876 J-0.3159
G1 X70.947 Y80.7514
G3 X70.912 Y80.7665 I-0.2154 J-0.4512
G1 X70.1561 Y81.0589
G1 Y84.3348
G1 Y87.6081
G1 X70.9113 Y87.8946
G3 X70.9454 Y87.9091 I-0.1774 J0.4675
G1 X71.7615 Y88.2901
G3 X71.9372 Y88.4269 I-0.2115 J0.453
G1 X72.2181 Y88.7708
G3 X72.2361 Y89.3799 I-0.3872 J0.3163
G1 X71.9833 Y89.7298
G3 X71.8039 Y89.883 I-0.4053 J-0.2929
G1 X71.018 Y90.281
G3 X70.9837 Y90.2968 I-0.2259 J-0.4461
G1 X70.1561 Y90.6401
G1 Y93.5888
G1 Y96.3609
G1 X71.3381 Y96.3342
G3 X71.34 I0.0113 J0.4999
G1 X72.0177 Y96.3214
G3 X72.021 I0.0094 J0.4999
G1 X72.6148 Y96.3142
G3 X72.6186 Y96.3141 I0.0061 J0.5
G1 X73.0647 Y96.3121
G3 X73.0777 Y96.3122 I0.0023 J0.5
G1 X73.3111 Y96.3172
G3 X73.742 Y96.5827 I-0.0107 J0.4999
G1 X73.8655 Y96.8154
G3 X73.9212 Y96.9988 I-0.4417 J0.2343
G1 X73.9994 Y97.7618
G3 X74.0018 Y97.7979 I-0.4974 J0.051
G1 X74.0441 Y99.2227
G3 X74.0443 Y99.2347 I-0.4998 J0.0148
G1 X74.057 Y101.4543
G3 X74.0571 Y101.4572 I-0.5 J0.0029
G1 Y105.5772
G1 X74.0704
G3 X74.1908 Y105.5919 I0.0 J0.5
G1 X74.5909 Y105.6912
G3 X74.9608 Y106.0784 I-0.1204 J0.4853
G1 X75.031 Y106.4293
G3 X75.0048 Y106.7136 I-0.4903 J0.0981
G1 X74.729 Y107.4005
G3 X74.6981 Y107.4643 I-0.464 J-0.1863
G1 X74.0605 Y108.5688
G3 X74.0504 Y108.5855 I-0.433 J-0.25
G1 X73.3846 Y109.6415
G3 X73.3729 Y109.6591 I-0.4229 J-0.2667
G1 X72.8858 Y110.3639
G3 X72.8526 Y110.4067 I-0.4113 J-0.2843
G1 X72.5126 Y110.7998
G3 X72.3771 Y110.9099 I-0.3781 J-0.3271
G1 X72.1566 Y111.0322
G3 X71.5595 Y110.9476 I-0.2426 J-0.4372
G1 X71.39 Y110.7772
G3 X71.3391 Y110.7173 I0.3545 J-0.3526
G1 X71.0111 Y110.2629
G3 X71.0003 Y110.2472 I0.4054 J-0.2926
G1 X70.5693 Y109.5997
G3 X70.5634 Y109.5906 I0.4162 J-0.277
G1 X70.0861 Y108.8387
G3 X70.0818 Y108.8319 I0.4221 J-0.268
G1 X69.6126 Y108.0657
G3 X69.6074 Y108.057 I0.4264 J-0.2611
G1 X69.2035 Y107.3664
G3 X69.195 Y107.3514 I0.4316 J-0.2525
G1 X68.9114 Y106.8259
G3 X68.8858 Y106.7706 I0.44 J-0.2375
G1 X68.7795 Y106.4992
G3 X68.9035 Y105.9518 I0.4656 J-0.1822
G1 X69.0839 Y105.783
G3 X69.3452 Y105.6547 I0.3416 J0.3651
G1 X69.7813 Y105.5837
G3 X69.8616 Y105.5772 I0.0803 J0.4935
G1 X69.9772
G1 Y104.7749
G1 Y103.8451
G1 X69.5458 Y103.7156
G1 X68.9538 Y103.5547
G1 X68.8466 Y103.5343
G1 X68.7588 Y103.6375
G1 X68.52 Y103.9696
G1 X68.2476 Y104.3961
G3 X68.2422 Y104.4045 I-0.4214 J-0.2691
G1 X67.9465 Y104.8478
G3 X67.9202 Y104.8837 I-0.416 J-0.2774
G1 X67.6324 Y105.2415
G3 X67.5868 Y105.291 I-0.3896 J-0.3134
G1 X67.3351 Y105.5296
G3 X67.202 Y105.62 I-0.344 J-0.3629
G1 X67.0185 Y105.7054
G3 X66.5739 Y105.6941 I-0.2109 J-0.4533
G1 X66.3806 Y105.5919
G3 X66.2557 Y105.4984 I0.2337 J-0.442
G1 X65.9819 Y105.2165
G3 X65.9423 Y105.1705 I0.3586 J-0.3485
G1 X65.6194 Y104.7455
G3 X65.5966 Y104.7129 I0.3982 J-0.3024
G1 X65.2548 Y104.1795
G3 X65.2461 Y104.1656 I0.4209 J-0.2698
G1 X64.6006 Y103.0819
G1 X63.4658 Y103.1286
G1 X62.364 Y103.175
G1 X62.0254 Y104.0842
G3 X62.0195 Y104.0994 I-0.4686 J-0.1745
G1 X61.8221 Y104.5807
G3 X61.8078 Y104.6123 I-0.4626 J-0.1897
G1 X61.6073 Y105.0183
G3 X61.5833 Y105.0614 I-0.4483 J-0.2214
G1 X61.402 Y105.3523
G3 X61.321 Y105.4513 I-0.4243 J-0.2645
G1 X61.1845 Y105.5803
G3 X60.7121 Y105.6998 I-0.3433 J-0.3635
G1 X60.5247 Y105.6498
G3 X60.3838 Y105.5875 I0.1291 J-0.483
G1 X60.0666 Y105.3841
G3 X60.0235 Y105.3531 I0.27 J-0.4208
G1 X59.6216 Y105.0302
G3 X59.5948 Y105.0071 I0.3131 J-0.3898
G1 X59.1526 Y104.5972
G3 X59.141 Y104.5861 I0.3399 J-0.3667
G1 X58.244 Y103.6997
G1 X56.8007 Y103.9924
G1 X56.0391 Y104.15
G1 X55.4844 Y104.2827
G1 X55.1229 Y104.4014
G1 X54.9384 Y104.5026
G1 X54.859 Y104.5867
G1 X54.7974 Y104.7257
G1 X54.7414 Y105.0036
G1 X54.6905 Y105.4402
G3 X54.6859 Y105.4712 I-0.4966 J-0.0578
G1 X54.5287 Y106.3425
G3 X54.4902 Y106.464 I-0.492 J-0.0888
G1 X54.2816 Y106.914
G3 X53.8154 Y107.2035 I-0.4536 J-0.2103
G1 X53.624 Y107.1987
G3 X53.4409 Y107.159 I0.0125 J-0.4998
G1 X53.1079 Y107.0175
G3 X53.0526 Y106.9898 I0.1956 J-0.4602
G1 X52.6086 Y106.7322
G3 X52.5753 Y106.7111 I0.2509 J-0.4325
G1 X52.0558 Y106.3522
G3 X52.0466 Y106.3457 I0.2842 J-0.4114
G1 X51.6049 Y106.0256
G1 X51.2806 Y105.8129
G1 X51.052 Y105.7034
G1 X50.872 Y105.6645
G1 X50.6528 Y105.675
G1 X50.3205 Y105.7534
G1 X49.8434 Y105.913
G1 X49.1988 Y106.1519
G1 X48.4457 Y106.433
G1 X48.5342 Y107.4832
G3 X48.535 Y107.494 I-0.4982 J0.042
G1 X48.5751 Y108.1365
G3 X48.5761 Y108.1735 I-0.499 J0.0311
G1 X48.5709 Y108.6176
G3 X48.5617 Y108.7072 I-0.5 J-0.0058
G1 X48.5116 Y108.9648
G3 X48.3438 Y109.2511 I-0.4908 J-0.0954
G1 X48.2466 Y109.3333
G3 X47.789 Y109.4331 I-0.3229 J-0.3817
G1 X47.5775 Y109.374
G3 X47.5246 Y109.356 I0.1346 J-0.4815
G1 X47.1206 Y109.1926
G3 X47.103 Y109.1851 I0.1874 J-0.4635
G1 X46.5635 Y108.9425
G3 X46.5517 Y108.937 I0.2051 J-0.456
G1 X45.9373 Y108.6411
G3 X45.9325 Y108.6388 I0.2169 J-0.4505
G1 X44.6135 Y107.9864
G1 X43.3992 Y108.5742
G1 X42.3604 Y109.1656
G1 X42.0797 Y109.4993
G1 X42.0627 Y109.6402
G1 X42.067 Y109.6532
G1 X42.324 Y109.6885
G3 X42.3685 Y109.6967 I-0.0681 J0.4953
G1 X42.7415 Y109.783
G3 X43.0736 Y110.042 I-0.1127 J0.4871
G1 X43.2021 Y110.2924
G3 X43.2375 Y110.6594 I-0.4449 J0.2282
G1 X43.1392 Y110.9995
G3 X43.1069 Y111.0825 I-0.4803 J-0.1389
G1 X42.8452 Y111.6108
G3 X42.8293 Y111.6404 I-0.4481 J-0.2219
G1 X42.4523 Y112.2882
G3 X42.4409 Y112.3068 I-0.4321 J-0.2515
G1 X41.9969 Y112.9985
G3 X41.987 Y113.0133 I-0.4208 J-0.2701
G1 X41.5259 Y113.6782
G3 X41.512 Y113.6973 I-0.4109 J-0.2849
G1 X41.0798 Y114.2617
G3 X41.0543 Y114.2922 I-0.397 J-0.304
G1 X40.7014 Y114.6842
G3 X40.6022 Y114.7689 I-0.3716 J-0.3346
G1 X40.3765 Y114.9155
G3 X39.8357 Y114.918 I-0.2723 J-0.4193
G1 X39.5912 Y114.7624
G3 X39.4873 Y114.6742 I0.2685 J-0.4218
G1 X39.1173 Y114.2611
G3 X39.09 Y114.2279 I0.3724 J-0.3336
G1 X38.6446 Y113.6352
G3 X38.63 Y113.6146 I0.3997 J-0.3004
G1 X38.163 Y112.9229
G3 X38.1521 Y112.9062 I0.4144 J-0.2798
G1 X37.7119 Y112.1945
G3 X37.6995 Y112.1733 I0.4252 J-0.263
G1 X37.3395 Y111.5217
G3 X37.3208 Y111.4841 I0.4377 J-0.2418
G1 X37.0911 Y110.9707
G3 X37.0537 Y110.8451 I0.4564 J-0.2042
G1 X37.0068 Y110.5502
G3 X37.1705 Y110.096 I0.4938 J-0.0786
G1 X37.4009 Y109.8935
G3 X37.6266 Y109.7801 I0.3301 J0.3756
G1 X38.0258 Y109.6949
G3 X38.0891 Y109.6855 I0.1044 J0.489
G1 X38.1422 Y109.6812
G1 X38.1485 Y109.5808
G1 X38.126 Y109.3958
G1 X38.0523 Y109.2905
G1 X37.6893 Y109.0484
G1 X36.8848 Y108.6329
G1 X35.5706 Y107.9825
G1 X34.2495 Y108.6368
G3 X34.2441 Y108.6394 I-0.2219 J-0.4481
G1 X33.6263 Y108.9362
G3 X33.6155 Y108.9413 I-0.2165 J-0.4507
G1 X33.0783 Y109.1837
G3 X33.0623 Y109.1906 I-0.2057 J-0.4557
G1 X32.6611 Y109.3551
G3 X32.6097 Y109.373 I-0.1897 J-0.4626
G1 X32.4042 Y109.4321
G3 X31.7989 Y109.1301 I-0.1383 J-0.4805
G1 X31.6536 Y108.7502
G3 X31.6207 Y108.5745 I0.467 J-0.1785
G1 X31.6144 Y107.4887
G3 X31.6149 Y107.4625 I0.5 J-0.0029
G1 X31.6657 Y106.3725
G1 X30.5967 Y106.0099
G1 X30.0372 Y105.8234
G1 X29.5636 Y105.6714
G1 X29.2684 Y105.5822
G1 X29.0273 Y105.7342
G1 X28.6178 Y106.014
G1 X28.1295 Y106.3619
G3 X28.1204 Y106.3683 I-0.2901 J-0.4072
G1 X27.6172 Y106.7102
G3 X27.5854 Y106.73 I-0.281 J-0.4136
G1 X27.1402 Y106.986
G3 X27.0898 Y107.0113 I-0.2492 J-0.4335
G1 X26.75 Y107.1586
G3 X26.5859 Y107.1986 I-0.1988 J-0.4588
G1 X26.3974 Y107.2117
G3 X25.9043 Y106.9128 I-0.0347 J-0.4988
G1 X25.6988 Y106.4416
G3 X25.6645 Y106.3272 I0.4583 J-0.1999
G1 X25.503 Y105.3967
G3 X25.4983 Y105.3632 I0.4926 J-0.0855
G1 X25.404 Y104.4616
G1 X24.3929 Y104.2273
G3 X24.3928 I0.1128 J-0.4871
G1 X23.4538 Y104.0095
G1 X22.7704 Y103.861
G1 X22.309 Y103.7901
G1 X22.0361
G1 X21.8715 Y103.8377
G1 X21.6887 Y103.9563
G1 X21.4182 Y104.2042
G1 X21.0334 Y104.5867
G3 X21.0214 Y104.5983 I-0.3525 J-0.3546
G1 X20.5802 Y105.0086
G3 X20.5542 Y105.0311 I-0.3405 J-0.3661
G1 X20.1552 Y105.354
G3 X20.1129 Y105.3847 I-0.3145 J-0.3887
G1 X19.799 Y105.5883
G3 X19.6608 Y105.6507 I-0.2722 J-0.4194
G1 X19.4773 Y105.7017
G3 X18.9979 Y105.5814 I-0.1339 J-0.4817
G1 X18.8635 Y105.4529
G3 X18.7826 Y105.3526 I0.3455 J-0.3614
G1 X18.6052 Y105.0628
G3 X18.5822 Y105.021 I0.4264 J-0.2611
G1 X18.3837 Y104.614
G3 X18.37 Y104.5835 I0.4494 J-0.2192
G1 X18.1735 Y104.1011
G3 X18.1681 Y104.0872 I0.463 J-0.1887
G1 X17.8279 Y103.1752
G1 X16.7398 Y103.1297
G1 X15.6151 Y103.083
G1 X14.9484 Y104.1733
G3 X14.9399 Y104.1868 I-0.4266 J-0.2608
G1 X14.597 Y104.7094
G3 X14.5756 Y104.7395 I-0.418 J-0.2743
G1 X14.2488 Y105.1654
G3 X14.2144 Y105.2057 I-0.3967 J-0.3044
G1 X13.9407 Y105.4934
G3 X13.8273 Y105.5824 I-0.3623 J-0.3446
G1 X13.6438 Y105.6877
G3 X13.1689 Y105.7001 I-0.2489 J-0.4336
G1 X12.9924 Y105.6107
G3 X12.8714 Y105.5246 I0.2261 J-0.446
G1 X12.6188 Y105.2811
G3 X12.579 Y105.238 I0.347 J-0.36
G1 X12.2843 Y104.8782
G3 X12.2588 Y104.8443 I0.3868 J-0.3169
G1 X11.956 Y104.4032
G3 X11.9553 Y104.4021 I0.4122 J-0.283
G1 X11.5285 Y103.7768
G1 X11.3386 Y103.6276
G1 X11.0976 Y103.6335
G1 X10.4141 Y103.8666
G1 X10.2704 Y103.9385
G1 X10.2533 Y103.9624
G1 X10.2115 Y104.2093
G1 X10.1983 Y104.8452
G1 Y105.5772
G1 X10.3149
G3 X10.397 Y105.584 I0.0 J0.5
G1 X10.8542 Y105.6602
G3 X11.1776 Y105.8608 I-0.0821 J0.4932
G1 X11.336 Y106.0803
G3 X11.4005 Y106.5435 I-0.4055 J0.2926
G1 X11.2942 Y106.8364
G3 X11.2656 Y106.9008 I-0.47 J-0.1706
G1 X10.9839 Y107.4299
G3 X10.9736 Y107.4482 I-0.4413 J-0.235
G1 X10.5715 Y108.1324
G3 X10.5646 Y108.1439 I-0.4311 J-0.2533
G1 X10.0963 Y108.8936
G3 X10.0906 Y108.9026 I-0.4241 J-0.2649
G1 X9.6113 Y109.6346
G3 X9.6037 Y109.6459 I-0.4183 J-0.2739
G1 X9.1666 Y110.2755
G3 X9.1521 Y110.2953 I-0.4107 J-0.2852
G1 X8.8143 Y110.7344
G3 X8.75 Y110.8033 I-0.3963 J-0.3049
G1 X8.5635 Y110.9689
G3 X7.9105 Y110.9783 I-0.332 J-0.3739
G1 X7.719 Y110.8179
G3 X7.6462 Y110.7426 I0.3211 J-0.3833
G1 X7.3113 Y110.3145
G3 X7.2944 Y110.2916 I0.3939 J-0.308
G1 X6.8683 Y109.6779
G3 X6.8603 Y109.666 I0.4107 J-0.2852
G1 X6.3931 Y108.9503
G3 X6.3862 Y108.9394 I0.4187 J-0.2733
G1 X5.933 Y108.2045
G3 X5.9259 Y108.1926 I0.4256 J-0.2624
G1 X5.5359 Y107.519
G3 X5.524 Y107.497 I0.4327 J-0.2505
G1 X5.2522 Y106.9685
G3 X5.2232 Y106.8999 I0.4447 J-0.2286
G1 X5.1209 Y106.597
G3 X5.1382 Y106.233 I0.4737 J-0.1599
G1 X5.2595 Y105.9616
G3 X5.6042 Y105.6782 I0.4565 J0.204
G1 X5.9892 Y105.5899
G3 X6.101 Y105.5772 I0.1118 J0.4873
G1 X6.1163
G1 X6.1655 Y101.5022
G3 Y101.5021 I0.5 J0.006
G1 X6.2216 Y96.9342
G3 X6.6952 Y96.441 I0.5 J0.0061
G1 X8.6452 Y96.3379
G3 X8.6455 I0.0264 J0.4993
G1 X10.131 Y96.2601
G1 X10.1789 Y93.5417
G1 X10.229 Y90.7035
G1 X9.3132 Y90.3398
G3 X9.2979 Y90.3334 I0.1846 J-0.4647
G1 X8.8177 Y90.124
G3 X8.7831 Y90.1073 I0.1998 J-0.4583
G1 X8.3901 Y89.8987
G3 X8.3404 Y89.8684 I0.2344 J-0.4416
G1 X8.0747 Y89.6849
G3 X7.955 Y89.5684 I0.2842 J-0.4114
G1 X7.8578 Y89.4351
G3 X7.8543 Y88.8502 I0.4038 J-0.2948
G1 X7.9516 Y88.7136
G3 X8.0665 Y88.5981 I0.4072 J0.2901
G1 X8.3322 Y88.4066
G3 X8.3782 Y88.3772 I0.2923 J0.4056
G1 X8.7712 Y88.1547
G3 X8.8041 Y88.1376 I0.2463 J0.4351
G1 X9.2843 Y87.9109
G3 X9.2996 Y87.904 I0.2135 J0.4521
G1 X10.2298 Y87.5023
G1 X10.1789 Y84.2946
G1 X10.1281 Y81.0837
G1 X9.3067 Y80.7543
G3 X9.2719 Y80.7388 I0.1861 J-0.4641
G1 X8.4577 Y80.3378
G3 X8.3464 Y80.2628 I0.2209 J-0.4485
G1 X7.9754 Y79.933
G3 X7.9311 Y79.2304 I0.3323 J-0.3736
G1 X8.2209 Y78.8987
G3 X8.3819 Y78.7765 I0.3766 J0.3289
G1 X9.2722 Y78.3511
G3 X9.3076 Y78.3358 I0.2156 J0.4511
G1 X10.225 Y77.9813
G1 Y74.7638
G1 Y71.5472
G1 X9.3071 Y71.1916
G3 X9.2759 Y71.1782 I0.1806 J-0.4662
G1 X8.4207 Y70.7781
G3 X8.2433 Y70.6391 I0.2119 J-0.4529
G1 X7.9596 Y70.2873
G3 X7.9591 Y69.6602 I0.3892 J-0.3139
G1 X8.2458 Y69.3034
G3 X8.4183 Y69.1662 I0.3898 J0.3132
G1 X9.2765 Y68.7521
G3 X9.3071 Y68.7386 I0.2173 J0.4503
G1 X10.1281 Y68.4082
G1 X10.1789 Y65.2161
G1 X10.2297 Y62.0256
G1 X9.2998 Y61.6247
G3 X9.2852 Y61.6181 I0.198 J-0.4591
G1 X8.805 Y61.3925
G3 X8.772 Y61.3755 I0.2126 J-0.4526
G1 X8.379 Y61.1539
G3 X8.3321 Y61.124 I0.2455 J-0.4356
G1 X8.0665 Y60.9325
G3 X7.9519 Y60.8173 I0.2924 J-0.4056
G1 X7.8546 Y60.6809
G3 X7.8541 Y60.1008 I0.407 J-0.2904
G1 X7.9503 Y59.9654
G3 X8.0658 Y59.8493 I0.4075 J0.2898
G1 X8.3305 Y59.6588
G3 X8.3769 Y59.6292 I0.2921 J0.4058
G1 X8.7679 Y59.4086
G3 X8.8006 Y59.3917 I0.2457 J0.4355
G1 X9.2799 Y59.1661
G3 X9.2948 Y59.1594 I0.2129 J0.4524
G1 X10.225 Y58.7582
G1 Y56.1355
G1 Y53.7175
G1 X9.4271 Y53.768
G3 X9.4096 Y53.7688 I-0.0316 J-0.499
G1 X8.3439 Y53.7989
G3 X8.2665 Y53.7951 I-0.0141 J-0.4998
G1 X7.4965 Y53.6968
G3 X7.365 Y53.6613 I0.0633 J-0.496
G1 X6.7464 Y53.3997
G3 X6.6388 Y53.3373 I0.1948 J-0.4605
G1 X6.0262 Y52.8721
G3 X5.9351 Y52.7824 I0.3024 J-0.3982
G1 X5.2654 Y51.9282
G3 X5.1743 Y51.7432 I0.3935 J-0.3085
G1 X4.9317 Y50.7907
G3 X4.9254 Y50.5716 I0.4845 J-0.1234
G1 X5.1119 Y49.6151
G3 X5.1962 Y49.4196 I0.4908 J0.0957
G1 X5.8168 Y48.5533
G3 X5.8935 Y48.4687 I0.4065 J0.2912
G1 X6.2785 Y48.1308
G3 X6.3476 Y48.08 I0.3298 J0.3758
G1 X6.7677 Y47.8233
G3 X6.8715 Y47.7752 I0.2607 J0.4267
G1 X7.436 Y47.5887
G3 X7.5154 Y47.5695 I0.1568 J0.4748
G1 X8.3335 Y47.4412
G3 X8.3767 Y47.4363 I0.0775 J0.494
G1 X9.5588 Y47.3551
G3 X9.5794 Y47.3541 I0.0343 J0.4988
G1 X11.2357 Y47.309
G3 X11.2446 Y47.3089 I0.0136 J0.4998
G1 X13.4845 Y47.2878
G3 X13.4876 I0.0047 J0.5
G1 X16.4213 Y47.2788
G3 X16.4218 I0.0015 J0.5
G1 X24.6872 Y47.2627
G3 X24.6882 I0.001 J0.5
G1 F300.0 Z-2.0
G1 F800.0 X24.884
G1 Y45.5038
G3 X25.384 Y45.0038 I0.5 J0.0
G1 X28.3838
G3 X28.8838 Y45.5038 I0.0 J0.5
G1 Y47.3607
G3 X28.8837 Y47.3709 I-0.5 J0.0
G1 X28.8647 Y48.2993
G3 X28.8626 Y48.3355 I-0.4999 J-0.0102
G1 X28.7976 Y49.0333
G3 X28.7876 Y49.0961 I-0.4978 J-0.0464
G1 X28.6662 Y49.6385
G3 X28.641 Y49.7188 I-0.4879 J-0.1092
G1 X28.4525 Y50.179
G3 X28.3978 Y50.2786 I-0.4627 J-0.1895
G1 X27.5176 Y51.5208
G3 X27.4235 Y51.6209 I-0.408 J-0.2891
G1 X26.1992 Y52.6085
G3 X26.0957 Y52.6729 I-0.3139 J-0.3892
G1 X24.5698 Y53.3807
G3 X24.469 Y53.415 I-0.2104 J-0.4536
G1 X22.6873 Y53.815
G3 X22.6322 Y53.8242 I-0.1095 J-0.4879
G1 X22.0366 Y53.8894
G3 X22.0206 Y53.8909 I-0.0544 J-0.497
G1 X21.4862 Y53.932
G3 X21.4635 Y53.9332 I-0.0383 J-0.4985
G1 X21.0474 Y53.9462
G3 X20.9939 Y53.945 I-0.0157 J-0.4998
G1 X20.7563 Y53.927
G3 X20.6752 Y53.9141 I0.0379 J-0.4986
G1 X20.289 Y53.8195
G1 X19.8494 Y53.7172
G1 Y56.1535
G1 Y58.8768
G1 X20.6764 Y59.2123
G3 X20.7126 Y59.2288 I-0.188 J0.4633
G1 X21.5037 Y59.6258
G3 X21.686 Y59.7817 I-0.2243 J0.4469
G1 X21.9407 Y60.1377
G3 X21.9233 Y60.7424 I-0.4066 J0.2909
G1 X21.6396 Y61.0944
G3 X21.4622 Y61.2334 I-0.3892 J-0.3138
G1 X20.639 Y61.6184
G3 X20.6046 Y61.633 I-0.2118 J-0.4529
G1 X19.8494 Y61.9196
G1 Y65.1939
G1 Y68.4696
G1 X20.6056 Y68.7621
G3 X20.6413 Y68.7776 I-0.1804 J0.4663
G1 X21.4655 Y69.1727
G3 X21.6363 Y69.3069 I-0.2162 J0.4509
G1 X21.929 Y69.6647
G3 X21.9539 Y70.265 I-0.387 J0.3166
G1 X21.7162 Y70.61
G3 X21.5154 Y70.7797 I-0.4118 J-0.2836
G1 X20.7504 Y71.1356
G3 X20.7086 Y71.1528 I-0.2109 J-0.4533
G1 X19.9517 Y71.4249
G1 Y74.7438
G1 Y78.0696
G1 X20.716 Y78.3599
G3 X20.7569 Y78.3776 I-0.1776 J0.4674
G1 X21.5208 Y78.7485
G3 X21.7165 Y78.918 I-0.2184 J0.4498
G1 X21.9542 Y79.2691
G3 X21.9276 Y79.8653 I-0.4141 J0.2802
G1 X21.6358 Y80.2231
G3 X21.4638 Y80.3583 I-0.3875 J-0.316
G1 X20.6406 Y80.7514
G3 X20.6055 Y80.7666 I-0.2155 J-0.4512
G1 X19.8494 Y81.0589
G1 Y84.3348
G1 Y87.6081
G1 X20.6046 Y87.8946
G3 X20.6399 Y87.9096 I-0.1774 J0.4675
G1 X21.463 Y88.2966
G3 X21.6391 Y88.4347 I-0.2127 J0.4525
G1 X21.9229 Y88.7856
G3 X21.9407 Y89.391 I-0.3888 J0.3144
G1 X21.686 Y89.7469
G3 X21.5032 Y89.903 I-0.4066 J-0.2909
G1 X20.7122 Y90.2991
G3 X20.6764 Y90.3152 I-0.2238 J-0.4471
G1 X19.8494 Y90.651
G1 Y93.4735
G1 Y96.1315
G1 X20.8321
G1 X23.2491 Y96.0719
G1 X25.8274 Y95.9038
G1 X28.4713 Y95.6424
G1 X31.0773 Y95.3017
G1 X33.5414 Y94.8985
G1 X35.7601 Y94.4478
G1 X37.6257 Y93.9672
G1 X39.0519 Y93.467
G1 X39.5699 Y93.2614
G3 X39.6795 Y93.2317 I0.1845 J0.4647
G1 X40.0715 Y93.1724
G3 X40.2595 Y93.1798 I0.0748 J0.4944
G1 X40.7049 Y93.2833
G3 X40.7757 Y93.3054 I-0.1132 J0.487
G1 X41.4461 Y93.5708
G1 X44.2265 Y94.4273
G1 X48.0449 Y95.1558
G1 X52.6517 Y95.7156
G1 X57.787 Y96.0643
G1 X60.3262 Y96.1738
G1 Y93.5056
G1 Y90.651
G1 X59.499 Y90.3153
G3 X59.4635 Y90.2992 I0.1881 J-0.4633
G1 X58.6714 Y89.9032
G3 X58.4884 Y89.7469 I0.2236 J-0.4472
G1 X58.2337 Y89.391
G3 X58.2516 Y88.7856 I0.4066 J-0.2909
G1 X58.5355 Y88.4346
G3 X58.7117 Y88.2965 I0.3888 J0.3144
G1 X59.5359 Y87.9095
G3 X59.571 Y87.8946 I0.2125 J0.4526
G1 X60.3262 Y87.6081
G1 Y84.3348
G1 Y81.0589
G1 X59.57 Y80.7666
G3 X59.535 Y80.7515 I0.1803 J-0.4664
G1 X58.7108 Y80.3584
G3 X58.5385 Y80.223 I0.2152 J-0.4513
G1 X58.2469 Y79.8653
G3 X58.2203 Y79.2693 I0.3876 J-0.3159
G1 X58.4578 Y78.9181
G3 X58.6538 Y78.7483 I0.4142 J0.2801
G1 X59.4189 Y78.3774
G3 X59.4594 Y78.3599 I0.2181 J0.4499
G1 X60.2238 Y78.0696
G1 Y74.769
G1 Y71.4604
G1 X59.4537 Y71.1487
G3 X59.4165 Y71.1319 I0.1876 J-0.4635
G1 X58.6613 Y70.752
G3 X58.4721 Y70.5859 I0.2247 J-0.4467
G1 X58.2376 Y70.2399
G3 X58.2664 Y69.6404 I0.4139 J-0.2806
G1 X58.5531 Y69.2944
G3 X58.7239 Y69.1616 I0.385 J0.319
G1 X59.5361 Y68.7766
G3 X59.5699 Y68.7621 I0.2141 J0.4518
G1 X60.3262 Y68.4696
G1 Y65.19
G1 Y61.9043
G1 X59.5091 Y61.5727
G3 X59.4919 Y61.5654 I0.188 J-0.4633
G1 X59.0528 Y61.3678
G3 X59.0122 Y61.3473 I0.2051 J-0.456
G1 X58.6534 Y61.1448
G3 X58.6006 Y61.1104 I0.2457 J-0.4354
G1 X58.3581 Y60.93
G3 X58.2352 Y60.7979 I0.2985 J-0.4011
G1 X58.1469 Y60.6596
G3 X58.1487 Y60.1187 I0.4214 J-0.2691
G1 X58.237 Y59.9823
G3 X58.357 Y59.8539 I0.4196 J0.2719
G1 X58.5995 Y59.6724
G3 X58.6543 Y59.6367 I0.2996 J0.4003
G1 X59.0132 Y59.4352
G3 X59.0511 Y59.416 I0.2448 J0.436
G1 X59.4902 Y59.2164
G3 X59.5091 Y59.2083 I0.2069 J0.4552
G1 X60.3262 Y58.8768
G1 Y56.1836
G1 Y53.7565
G1 X59.9923 Y53.8187
G3 X59.9212 Y53.8268 I-0.0916 J-0.4915
G1 X58.1827 Y53.8979
G3 X58.0726 Y53.8902 I-0.0205 J-0.4996
G1 X56.2196 Y53.5524
G3 X56.1264 Y53.5258 I0.0897 J-0.4919
G1 X54.4101 Y52.8511
G3 X54.3041 Y52.7938 I0.1829 J-0.4653
G1 X52.9745 Y51.8523
G3 X52.8852 Y51.7713 I0.2889 J-0.4081
G1 X52.1595 Y50.9322
G3 X52.0951 Y50.8376 I0.3782 J-0.3271
G1 X51.6438 Y49.9783
G3 X51.5985 Y49.855 I0.4427 J-0.2325
G1 X51.368 Y48.8243
G3 X51.3565 Y48.7388 I0.488 J-0.1091
G1 X51.2924 Y47.3843
G3 X51.2919 Y47.3607 I0.4994 J-0.0236
G1 Y45.5038
G3 X51.7919 Y45.0038 I0.5 J0.0
G1 X54.791
G3 X55.291 Y45.5038 I0.0 J0.5
G1 Y47.2627
G1 X55.4882
G1 X63.6265
G3 X63.6273 I0.0 J0.5
G1 X66.561 Y47.2677
G3 X66.5646 I-0.0009 J0.5
G1 X68.8243 Y47.2878
G3 X68.8338 Y47.288 I-0.0044 J0.5
G1 X70.5222 Y47.3351
G3 X70.5427 Y47.3361 I-0.014 J0.4998
G1 X71.7629 Y47.4203
G3 X71.8049 Y47.425 I-0.0344 J0.4988
G1 X72.66 Y47.5573
G3 X72.737 Y47.5756 I-0.0765 J0.4941
G1 X73.3308 Y47.7671
G3 X73.4343 Y47.8141 I-0.1535 J0.4759
G1 X73.8693 Y48.0747
G3 X73.9467 Y48.1319 I-0.257 J0.4289
G1 X74.3257 Y48.4727
G3 X74.3661 Y48.5135 I-0.3344 J0.3718
G1 X74.676 Y48.8645
G3 X74.7445 Y48.9641 I-0.3748 J0.331
G1 X74.924 Y49.3081
G3 X74.9722 Y49.4475 I-0.4433 J0.2313
G1 X75.0542 Y49.8866
G3 X75.0625 Y49.9619 I-0.4915 J0.0918
G1 X75.0835 Y50.5976
G3 X75.0822 Y50.6536 I-0.4997 J0.0166
G1 X75.0161 Y51.4897
G3 X74.9864 Y51.6243 I-0.4984 J-0.0394
G1 X74.7548 Y52.248
G3 X74.6562 Y52.4101 I-0.4687 J-0.174
G1 X74.2101 Y52.9013
G3 X74.1043 Y52.9896 I-0.3702 J-0.3361
G1 X73.3943 Y53.4318
G3 X73.2666 Y53.4883 I-0.2643 J-0.4244
G1 X72.5539 Y53.6908
G3 X72.4743 Y53.7066 I-0.1367 J-0.481
G1 X71.4797 Y53.8209
G3 X71.4257 Y53.8242 I-0.0571 J-0.4967
G1 X70.4681 Y53.8302
G3 X70.3653 Y53.8201 I-0.0031 J-0.5
G1 X70.2221 Y53.791
G1 X70.2069 Y53.9131
G1 X70.1689 Y54.8179
G1 X70.1561 Y56.1479
G1 Y58.8768
G1 X70.9832 Y59.2123
G3 X71.0195 Y59.2288 I-0.188 J0.4633
G1 X71.8105 Y59.6258
G3 X71.9928 Y59.7817 I-0.2243 J0.4469
G1 X72.2475 Y60.1377
G3 X72.23 Y60.7425 I-0.4066 J0.2909
G1 X71.9461 Y61.0944
G3 X71.7688 Y61.2334 I-0.3892 J-0.3139
G1 X70.9457 Y61.6184
G3 X70.9113 Y61.633 I-0.2118 J-0.4529
G1 X70.1561 Y61.9196
G1 Y65.1939
G1 Y68.4696
G1 X70.9121 Y68.7622
G3 X70.9478 Y68.7776 I-0.1804 J0.4663
G1 X71.772 Y69.1727
G3 X71.9427 Y69.3068 I-0.2161 J0.4509
G1 X72.2356 Y69.6646
G3 X72.2605 Y70.265 I-0.3869 J0.3167
G1 X72.0229 Y70.61
G3 X71.8221 Y70.7797 I-0.4118 J-0.2836
G1 X71.0572 Y71.1356
G3 X71.0154 Y71.1528 I-0.2109 J-0.4533
G1 X70.2585 Y71.4249
G1 Y74.7438
G1 Y78.0696
G1 X71.0227 Y78.3599
G3 X71.0635 Y78.3776 I-0.1776 J0.4674
G1 X71.8274 Y78.7485
G3 X72.0231 Y78.918 I-0.2184 J0.4498
G1 X72.2608 Y79.2691
G3 X72.2343 Y79.8653 I-0.4141 J0.2803
G1 X71.9427 Y80.223
G3 X71.7705 Y80.3584 I-0.3876 J-0.3159
G1 X70.947 Y80.7514
G3 X70.912 Y80.7665 I-0.2154 J-0.4512
G1 X70.1561 Y81.0589
G1 Y84.3348
G1 Y87.6081
G1 X70.9113 Y87.8946
G3 X70.9454 Y87.9091 I-0.1774 J0.4675
G1 X71.7615 Y88.2901
G3 X71.9372 Y88.4269 I-0.2115 J0.453
G1 X72.2181 Y88.7708
G3 X72.2361 Y89.3799 I-0.3872 J0.3163
G1 X71.9833 Y89.7298
G3 X71.8039 Y89.883 I-0.4053 J-0.2929
G1 X71.018 Y90.281
G3 X70.9837 Y90.2968 I-0.2259 J-0.4461
G1 X70.1561 Y90.6401
G1 Y93.5888
G1 Y96.3609
G1 X71.3381 Y96.3342
G3 X71.34 I0.0113 J0.4999
G1 X72.0177 Y96.3214
G3 X72.021 I0.0094 J0.4999
G1 X72.6148 Y96.3142
G3 X72.6186 Y96.3141 I0.0061 J0.5
G1 X73.0647 Y96.3121
G3 X73.0777 Y96.3122 I0.0023 J0.5
G1 X73.3111 Y96.3172
G3 X73.742 Y96.5827 I-0.0107 J0.4999
G1 X73.8655 Y96.8154
G3 X73.9212 Y96.9988 I-0.4417 J0.2343
G1 X73.9994 Y97.7618
G3 X74.0018 Y97.7979 I-0.4974 J0.051
G1 X74.0441 Y99.2227
G3 X74.0443 Y99.2347 I-0.4998 J0.0148
G1 X74.057 Y101.4543
G3 X74.0571 Y101.4572 I-0.5 J0.0029
G1 Y105.5772
G1 X74.0704
G3 X74.1908 Y105.5919 I0.0 J0.5
G1 X74.5909 Y105.6912
G3 X74.9608 Y106.0784 I-0.1204 J0.4853
G1 X75.031 Y106.4293
G3 X75.0048 Y106.7136 I-0.4903 J0.0981
G1 X74.729 Y107.4005
G3 X74.6981 Y107.4643 I-0.464 J-0.1863
G1 X74.0605 Y108.5688
G3 X74.0504 Y108.5855 I-0.433 J-0.25
G1 X73.3846 Y109.6415
G3 X73.3729 Y109.6591 I-0.4229 J-0.2667
G1 X72.8858 Y110.3639
G3 X72.8526 Y110.4067 I-0.4113 J-0.2843
G1 X72.5126 Y110.7998
G3 X72.3771 Y110.9099 I-0.3781 J-0.3271
G1 X72.1566 Y111.0322
G3 X71.5595 Y110.9476 I-0.2426 J-0.4372
G1 X71.39 Y110.7772
G3 X71.3391 Y110.7173 I0.3545 J-0.3526
G1 X71.0111 Y110.2629
G3 X71.0003 Y110.2472 I0.4054 J-0.2926
G1 X70.5693 Y109.5997
G3 X70.5634 Y109.5906 I0.4162 J-0.277
G1 X70.0861 Y108.8387
G3 X70.0818 Y108.8319 I0.4221 J-0.268
G1 X69.6126 Y108.0657
G3 X69.6074 Y108.057 I0.4264 J-0.2611
G1 X69.2035 Y107.3664
G3 X69.195 Y107.3514 I0.4316 J-0.2525
G1 X68.9114 Y106.8259
G3 X68.8858 Y106.7706 I0.44 J-0.2375
G1 X68.7795 Y106.4992
G3 X68.9035 Y105.9518 I0.4656 J-0.1822
G1 X69.0839 Y105.783
G3 X69.3452 Y105.6547 I0.3416 J0.3651
G1 X69.7813 Y105.5837
G3 X69.8616 Y105.5772 I0.0803 J0.4935
G1 X69.9772
G1 Y104.7749
G1 Y103.8451
G1 X69.5458 Y103.7156
G1 X68.9538 Y103.5547
G1 X68.8466 Y103.5343
G1 X68.7588 Y103.6375
G1 X68.52 Y103.9696
G1 X68.2476 Y104.3961
G3 X68.2422 Y104.4045 I-0.4214 J-0.2691
G1 X67.9465 Y104.8478
G3 X67.9202 Y104.8837 I-0.416 J-0.2774
G1 X67.6324 Y105.2415
G3 X67.5868 Y105.291 I-0.3896 J-0.3134
G1 X67.3351 Y105.5296
G3 X67.202 Y105.62 I-0.344 J-0.3629
G1 X67.0185 Y105.7054
G3 X66.5739 Y105.6941 I-0.2109 J-0.4533
G1 X66.3806 Y105.5919
G3 X66.2557 Y105.4984 I0.2337 J-0.442
G1 X65.9819 Y105.2165
G3 X65.9423 Y105.1705 I0.3586 J-0.3485
G1 X65.6194 Y104.7455
G3 X65.5966 Y104.7129 I0.3982 J-0.3024
G1 X65.2548 Y104.1795
G3 X65.2461 Y104.1656 I0.4209 J-0.2698
G1 X64.6006 Y103.0819
G1 X63.4658 Y103.1286
G1 X62.364 Y103.175
G1 X62.0254 Y104.0842
G3 X62.0195 Y104.0994 I-0.4686 J-0.1745
G1 X61.8221 Y104.5807
G3 X61.8078 Y104.6123 I-0.4626 J-0.1897
G1 X61.6073 Y105.0183
G3 X61.5833 Y105.0614 I-0.4483 J-0.2214
G1 X61.402 Y105.3523
G3 X61.321 Y105.4513 I-0.4243 J-0.2645
G1 X61.1845 Y105.5803
G3 X60.7121 Y105.6998 I-0.3433 J-0.3635
G1 X60.5247 Y105.6498
G3 X60.3838 Y105.5875 I0.1291 J-0.483
G1 X60.0666 Y105.3841
G3 X60.0235 Y105.3531 I0.27 J-0.4208
G1 X59.6216 Y105.0302
G3 X59.5948 Y105.0071 I0.3131 J-0.3898
G1 X59.1526 Y104.5972
G3 X59.141 Y104.5861 I0.3399 J-0.3667
G1 X58.244 Y103.6997
G1 X56.8007 Y103.9924
G1 X56.0391 Y104.15
G1 X55.4844 Y104.2827
G1 X55.1229 Y104.4014
G1 X54.9384 Y104.5026
G1 X54.859 Y104.5867
G1 X54.7974 Y104.7257
G1 X54.7414 Y105.0036
G1 X54.6905 Y105.4402
G3 X54.6859 Y105.4712 I-0.4966 J-0.0578
G1 X54.5287 Y106.3425
G3 X54.4902 Y106.464 I-0.492 J-0.0888
G1 X54.2816 Y106.914
G3 X53.8154 Y107.2035 I-0.4536 J-0.2103
G1 X53.624 Y107.1987
G3 X53.4409 Y107.159 I0.0125 J-0.4998
G1 X53.1079 Y107.0175
G3 X53.0526 Y106.9898 I0.1956 J-0.4602
G1 X52.6086 Y106.7322
G3 X52.5753 Y106.7111 I0.2509 J-0.4325
G1 X52.0558 Y106.3522
G3 X52.0466 Y106.3457 I0.2842 J-0.4114
G1 X51.6049 Y106.0256
G1 X51.2806 Y105.8129
G1 X51.052 Y105.7034
G1 X50.872 Y105.6645
G1 X50.6528 Y105.675
G1 X50.3205 Y105.7534
G1 X49.8434 Y105.913
G1 X49.1988 Y106.1519
G1 X48.4457 Y106.433
G1 X48.5342 Y107.4832
G3 X48.535 Y107.494 I-0.4982 J0.042
G1 X48.5751 Y108.1365
G3 X48.5761 Y108.1735 I-0.499 J0.0311
G1 X48.5709 Y108.6176
G3 X48.5617 Y108.7072 I-0.5 J-0.0058
G1 X48.5116 Y108.9648
G3 X48.3438 Y109.2511 I-0.4908 J-0.0954
G1 X48.2466 Y109.3333
G3 X47.789 Y109.4331 I-0.3229 J-0.3817
G1 X47.5775 Y109.374
G3 X47.5246 Y109.356 I0.1346 J-0.4815
G1 X47.1206 Y109.1926
G3 X47.103 Y109.1851 I0.1874 J-0.4635
G1 X46.5635 Y108.9425
G3 X46.5517 Y108.937 I0.2051 J-0.456
G1 X45.9373 Y108.6411
G3 X45.9325 Y108.6388 I0.2169 J-0.4505
G1 X44.6135 Y107.9864
G1 X43.3992 Y108.5742
G1 X42.3604 Y109.1656
G1 X42.0797 Y109.4993
G1 X42.0627 Y109.6402
G1 X42.067 Y109.6532
G1 X42.324 Y109.6885
G3 X42.3685 Y109.6967 I-0.0681 J0.4953
G1 X42.7415 Y109.783
G3 X43.0736 Y110.042 I-0.1127 J0.4871
G1 X43.2021 Y110.2924
G3 X43.2375 Y110.6594 I-0.4449 J0.2282
G1 X43.1392 Y110.9995
G3 X43.1069 Y111.0825 I-0.4803 J-0.1389
G1 X42.8452 Y111.6108
G3 X42.8293 Y111.6404 I-0.4481 J-0.2219
G1 X42.4523 Y112.2882
G3 X42.4409 Y112.3068 I-0.4321 J-0.2515
G1 X41.9969 Y112.9985
G3 X41.987 Y113.0133 I-0.4208 J-0.2701
G1 X41.5259 Y113.6782
G3 X41.512 Y113.6973 I-0.4109 J-0.2849
G1 X41.0798 Y114.2617
G3 X41.0543 Y114.2922 I-0.397 J-0.304
G1 X40.7014 Y114.6842
G3 X40.6022 Y114.7689 I-0.3716 J-0.3346
G1 X40.3765 Y114.9155
G3 X39.8357 Y114.918 I-0.2723 J-0.4193
G1 X39.5912 Y114.7624
G3 X39.4873 Y114.6742 I0.2685 J-0.4218
G1 X39.1173 Y114.2611
G3 X39.09 Y114.2279 I0.3724 J-0.3336
G1 X38.6446 Y113.6352
G3 X38.63 Y113.6146 I0.3997 J-0.3004
G1 X38.163 Y112.9229
G3 X38.1521 Y112.9062 I0.4144 J-0.2798
G1 X37.7119 Y112.1945
G3 X37.6995 Y112.1733 I0.4252 J-0.263
G1 X37.3395 Y111.5217
G3 X37.3208 Y111.4841 I0.4377 J-0.2418
G1 X37.0911 Y110.9707
G3 X37.0537 Y110.8451 I0.4564 J-0.2042
G1 X37.0068 Y110.5502
G3 X37.1705 Y110.096 I0.4938 J-0.0786
G1 X37.4009 Y109.8935
G3 X37.6266 Y109.7801 I0.3301 J0.3756
G1 X38.0258 Y109.6949
G3 X38.0891 Y109.6855 I0.1044 J0.489
G1 X38.1422 Y109.6812
G1 X38.1485 Y109.5808
G1 X38.126 Y109.3958
G1 X38.0523 Y109.2905
G1 X37.6893 Y109.0484
G1 X36.8848 Y108.6329
G1 X35.5706 Y107.9825
G1 X34.2495 Y108.6368
G3 X34.2441 Y108.6394 I-0.2219 J-0.4481
G1 X33.6263 Y108.9362
G3 X33.6155 Y108.9413 I-0.2165 J-0.4507
G1 X33.0783 Y109.1837
G3 X33.0623 Y109.1906 I-0.2057 J-0.4557
G1 X32.6611 Y109.3551
G3 X32.6097 Y109.373 I-0.1897 J-0.4626
G1 X32.4042 Y109.4321
G3 X31.7989 Y109.1301 I-0.1383 J-0.4805
G1 X31.6536 Y108.7502
G3 X31.6207 Y108.5745 I0.467 J-0.1785
G1 X31.6144 Y107.4887
G3 X31.6149 Y107.4625 I0.5 J-0.0029
G1 X31.6657 Y106.3725
G1 X30.5967 Y106.0099
G1 X30.0372 Y105.8234
G1 X29.5636 Y105.6714
G1 X29.2684 Y105.5822
G1 X29.0273 Y105.7342
G1 X28.6178 Y106.014
G1 X28.1295 Y106.3619
G3 X28.1204 Y106.3683 I-0.2901 J-0.4072
G1 X27.6172 Y106.7102
G3 X27.5854 Y106.73 I-0.281 J-0.4136
G1 X27.1402 Y106.986
G3 X27.0898 Y107.0113 I-0.2492 J-0.4335
G1 X26.75 Y107.1586
G3 X26.5859 Y107.1986 I-0.1988 J-0.4588
G1 X26.3974 Y107.2117
G3 X25.9043 Y106.9128 I-0.0347 J-0.4988
G1 X25.6988 Y106.4416
G3 X25.6645 Y106.3272 I0.4583 J-0.1999
G1 X25.503 Y105.3967
G3 X25.4983 Y105.3632 I0.4926 J-0.0855
G1 X25.404 Y104.4616
G1 X24.3929 Y104.2273
G3 X24.3928 I0.1128 J-0.4871
G1 X23.4538 Y104.0095
G1 X22.7704 Y103.861
G1 X22.309 Y103.7901
G1 X22.0361
G1 X21.8715 Y103.8377
G1 X21.6887 Y103.9563
G1 X21.4182 Y104.2042
G1 X21.0334 Y104.5867
G3 X21.0214 Y104.5983 I-0.3525 J-0.3546
G1 X20.5802 Y105.0086
G3 X20.5542 Y105.0311 I-0.3405 J-0.3661
G1 X20.1552 Y105.354
G3 X20.1129 Y105.3847 I-0.3145 J-0.3887
G1 X19.799 Y105.5883
G3 X19.6608 Y105.6507 I-0.2722 J-0.4194
G1 X19.4773 Y105.7017
G3 X18.9979 Y105.5814 I-0.1339 J-0.4817
G1 X18.8635 Y105.4529
G3 X18.7826 Y105.3526 I0.3455 J-0.3614
G1 X18.6052 Y105.0628
G3 X18.5822 Y105.021 I0.4264 J-0.2611
G1 X18.3837 Y104.614
G3 X18.37 Y104.5835 I0.4494 J-0.2192
G1 X18.1735 Y104.1011
G3 X18.1681 Y104.0872 I0.463 J-0.1887
G1 X17.8279 Y103.1752
G1 X16.7398 Y103.1297
G1 X15.6151 Y103.083
G1 X14.9484 Y104.1733
G3 X14.9399 Y104.1868 I-0.4266 J-0.2608
G1 X14.597 Y104.7094
G3 X14.5756 Y104.7395 I-0.418 J-0.2743
G1 X14.2488 Y105.1654
G3 X14.2144 Y105.2057 I-0.3967 J-0.3044
G1 X13.9407 Y105.4934
G3 X13.8273 Y105.5824 I-0.3623 J-0.3446
G1 X13.6438 Y105.6877
G3 X13.1689 Y105.7001 I-0.2489 J-0.4336
G1 X12.9924 Y105.6107
G3 X12.8714 Y105.5246 I0.2261 J-0.446
G1 X12.6188 Y105.2811
G3 X12.579 Y105.238 I0.347 J-0.36
G1 X12.2843 Y104.8782
G3 X12.2588 Y104.8443 I0.3868 J-0.3169
G1 X11.956 Y104.4032
G3 X11.9553 Y104.4021 I0.4122 J-0.283
G1 X11.5285 Y103.7768
G1 X11.3386 Y103.6276
G1 X11.0976 Y103.6335
G1 X10.4141 Y103.8666
G1 X10.2704 Y103.9385
G1 X10.2533 Y103.9624
G1 X10.2115 Y104.2093
G1 X10.1983 Y104.8452
G1 Y105.5772
G1 X10.3149
G3 X10.397 Y105.584 I0.0 J0.5
G1 X10.8542 Y105.6602
G3 X11.1776 Y105.8608 I-0.0821 J0.4932
G1 X11.336 Y106.0803
G3 X11.4005 Y106.5435 I-0.4055 J0.2926
G1 X11.2942 Y106.8364
G3 X11.2656 Y106.9008 I-0.47 J-0.1706
G1 X10.9839 Y107.4299
G3 X10.9736 Y107.4482 I-0.4413 J-0.235
G1 X10.5715 Y108.1324
G3 X10.5646 Y108.1439 I-0.4311 J-0.2533
G1 X10.0963 Y108.8936
G3 X10.0906 Y108.9026 I-0.4241 J-0.2649
G1 X9.6113 Y109.6346
G3 X9.6037 Y109.6459 I-0.4183 J-0.2739
G1 X9.1666 Y110.2755
G3 X9.1521 Y110.2953 I-0.4107 J-0.2852
G1 X8.8143 Y110.7344
G3 X8.75 Y110.8033 I-0.3963 J-0.3049
G1 X8.5635 Y110.9689
G3 X7.9105 Y110.9783 I-0.332 J-0.3739
G1 X7.719 Y110.8179
G3 X7.6462 Y110.7426 I0.3211 J-0.3833
G1 X7.3113 Y110.3145
G3 X7.2944 Y110.2916 I0.3939 J-0.308
G1 X6.8683 Y109.6779
G3 X6.8603 Y109.666 I0.4107 J-0.2852
G1 X6.3931 Y108.9503
G3 X6.3862 Y108.9394 I0.4187 J-0.2733
G1 X5.933 Y108.2045
G3 X5.9259 Y108.1926 I0.4256 J-0.2624
G1 X5.5359 Y107.519
G3 X5.524 Y107.497 I0.4327 J-0.2505
G1 X5.2522 Y106.9685
G3 X5.2232 Y106.8999 I0.4447 J-0.2286
G1 X5.1209 Y106.597
G3 X5.1382 Y106.233 I0.4737 J-0.1599
G1 X5.2595 Y105.9616
G3 X5.6042 Y105.6782 I0.4565 J0.204
G1 X5.9892 Y105.5899
G3 X6.101 Y105.5772 I0.1118 J0.4873
G1 X6.1163
G1 X6.1655 Y101.5022
G3 Y101.5021 I0.5 J0.006
G1 X6.2216 Y96.9342
G3 X6.6952 Y96.441 I0.5 J0.0061
G1 X8.6452 Y96.3379
G3 X8.6455 I0.0264 J0.4993
G1 X10.131 Y96.2601
G1 X10.1789 Y93.5417
G1 X10.229 Y90.7035
G1 X9.3132 Y90.3398
G3 X9.2979 Y90.3334 I0.1846 J-0.4647
G1 X8.8177 Y90.124
G3 X8.7831 Y90.1073 I0.1998 J-0.4583
G1 X8.3901 Y89.8987
G3 X8.3404 Y89.8684 I0.2344 J-0.4416
G1 X8.0747 Y89.6849
G3 X7.955 Y89.5684 I0.2842 J-0.4114
G1 X7.8578 Y89.4351
G3 X7.8543 Y88.8502 I0.4038 J-0.2948
G1 X7.9516 Y88.7136
G3 X8.0665 Y88.5981 I0.4072 J0.2901
G1 X8.3322 Y88.4066
G3 X8.3782 Y88.3772 I0.2923 J0.4056
G1 X8.7712 Y88.1547
G3 X8.8041 Y88.1376 I0.2463 J0.4351
G1 X9.2843 Y87.9109
G3 X9.2996 Y87.904 I0.2135 J0.4521
G1 X10.2298 Y87.5023
G1 X10.1789 Y84.2946
G1 X10.1281 Y81.0837
G1 X9.3067 Y80.7543
G3 X9.2719 Y80.7388 I0.1861 J-0.4641
G1 X8.4577 Y80.3378
G3 X8.3464 Y80.2628 I0.2209 J-0.4485
G1 X7.9754 Y79.933
G3 X7.9311 Y79.2304 I0.3323 J-0.3736
G1 X8.2209 Y78.8987
G3 X8.3819 Y78.7765 I0.3766 J0.3289
G1 X9.2722 Y78.3511
G3 X9.3076 Y78.3358 I0.2156 J0.4511
G1 X10.225 Y77.9813
G1 Y74.7638
G1 Y71.5472
G1 X9.3071 Y71.1916
G3 X9.2759 Y71.1782 I0.1806 J-0.4662
G1 X8.4207 Y70.7781
G3 X8.2433 Y70.6391 I0.2119 J-0.4529
G1 X7.9596 Y70.2873
G3 X7.9591 Y69.6602 I0.3892 J-0.3139
G1 X8.2458 Y69.3034
G3 X8.4183 Y69.1662 I0.3898 J0.3132
G1 X9.2765 Y68.7521
G3 X9.3071 Y68.7386 I0.2173 J0.4503
G1 X10.1281 Y68.4082
G1 X10.1789 Y65.2161
G1 X10.2297 Y62.0256
G1 X9.2998 Y61.6247
G3 X9.2852 Y61.6181 I0.198 J-0.4591
G1 X8.805 Y61.3925
G3 X8.772 Y61.3755 I0.2126 J-0.4526
G1 X8.379 Y61.1539
G3 X8.3321 Y61.124 I0.2455 J-0.4356
G1 X8.0665 Y60.9325
G3 X7.9519 Y60.8173 I0.2924 J-0.4056
G1 X7.8546 Y60.6809
G3 X7.8541 Y60.1008 I0.407 J-0.2904
G1 X7.9503 Y59.9654
G3 X8.0658 Y59.8493 I0.4075 J0.2898
G1 X8.3305 Y59.6588
G3 X8.3769 Y59.6292 I0.2921 J0.4058
G1 X8.7679 Y59.4086
G3 X8.8006 Y59.3917 I0.2457 J0.4355
G1 X9.2799 Y59.1661
G3 X9.2948 Y59.1594 I0.2129 J0.4524
G1 X10.225 Y58.7582
G1 Y56.1355
G1 Y53.7175
G1 X9.4271 Y53.768
G3 X9.4096 Y53.7688 I-0.0316 J-0.499
G1 X8.3439 Y53.7989
G3 X8.2665 Y53.7951 I-0.0141 J-0.4998
G1 X7.4965 Y53.6968
G3 X7.365 Y53.6613 I0.0633 J-0.496
G1 X6.7464 Y53.3997
G3 X6.6388 Y53.3373 I0.1948 J-0.4605
G1 X6.0262 Y52.8721
G3 X5.9351 Y52.7824 I0.3024 J-0.3982
G1 X5.2654 Y51.9282
G3 X5.1743 Y51.7432 I0.3935 J-0.3085
G1 X4.9317 Y50.7907
G3 X4.9254 Y50.5716 I0.4845 J-0.1234
G1 X5.1119 Y49.6151
G3 X5.1962 Y49.4196 I0.4908 J0.0957
G1 X5.8168 Y48.5533
G3 X5.8935 Y48.4687 I0.4065 J0.2912
G1 X6.2785 Y48.1308
G3 X6.3476 Y48.08 I0.3298 J0.3758
G1 X6.7677 Y47.8233
G3 X6.8715 Y47.7752 I0.2607 J0.4267
G1 X7.436 Y47.5887
G3 X7.5154 Y47.5695 I0.1568 J0.4748
G1 X8.3335 Y47.4412
G3 X8.3767 Y47.4363 I0.0775 J0.494
G1 X9.5588 Y47.3551
G3 X9.5794 Y47.3541 I0.0343 J0.4988
G1 X11.2357 Y47.309
G3 X11.2446 Y47.3089 I0.0136 J0.4998
G1 X13.4845 Y47.2878
G3 X13.4876 I0.0047 J0.5
G1 X16.4213 Y47.2788
G3 X16.4218 I0.0015 J0.5
G1 X24.6872 Y47.2627
G3 X24.6882 I0.001 J0.5
G1 F300.0 Z-3.0
G1 F800.0 X24.884
G1 Y45.5038
G3 X25.384 Y45.0038 I0.5 J0.0
G1 X28.3838
G3 X28.8838 Y45.5038 I0.0 J0.5
G1 Y47.3607
G3 X28.8837 Y47.3709 I-0.5 J0.0
G1 X28.8647 Y48.2993
G3 X28.8626 Y48.3355 I-0.4999 J-0.0102
G1 X28.7976 Y49.0333
G3 X28.7876 Y49.0961 I-0.4978 J-0.0464
G1 X28.6662 Y49.6385
G3 X28.641 Y49.7188 I-0.4879 J-0.1092
G1 X28.4525 Y50.179
G3 X28.3978 Y50.2786 I-0.4627 J-0.1895
G1 X27.5176 Y51.5208
G3 X27.4235 Y51.6209 I-0.408 J-0.2891
G1 X26.1992 Y52.6085
G3 X26.0957 Y52.6729 I-0.3139 J-0.3892
G1 X24.5698 Y53.3807
G3 X24.469 Y53.415 I-0.2104 J-0.4536
G1 X22.6873 Y53.815
G3 X22.6322 Y53.8242 I-0.1095 J-0.4879
G1 X22.0366 Y53.8894
G3 X22.0206 Y53.8909 I-0.0544 J-0.497
G1 X21.4862 Y53.932
G3 X21.4635 Y53.9332 I-0.0383 J-0.4985
G1 X21.0474 Y53.9462
G3 X20.9939 Y53.945 I-0.0157 J-0.4998
G1 X20.7563 Y53.927
G3 X20.6752 Y53.9141 I0.0379 J-0.4986
G1 X20.289 Y53.8195
G1 X19.8494 Y53.7172
G1 Y56.1535
G1 Y58.8768
G1 X20.6764 Y59.2123
G3 X20.7126 Y59.2288 I-0.188 J0.4633
G1 X21.5037 Y59.6258
G3 X21.686 Y59.7817 I-0.2243 J0.4469
G1 X21.9407 Y60.1377
G3 X21.9233 Y60.7424 I-0.4066 J0.2909
G1 X21.6396 Y61.0944
G3 X21.4622 Y61.2334 I-0.3892 J-0.3138
G1 X20.639 Y61.6184
G3 X20.6046 Y61.633 I-0.2118 J-0.4529
G1 X19.8494 Y61.9196
G1 Y65.1939
G1 Y68.4696
G1 X20.6056 Y68.7621
G3 X20.6413 Y68.7776 I-0.1804 J0.4663
G1 X21.4655 Y69.1727
G3 X21.6363 Y69.3069 I-0.2162 J0.4509
G1 X21.929 Y69.6647
G3 X21.9539 Y70.265 I-0.387 J0.3166
G1 X21.7162 Y70.61
G3 X21.5154 Y70.7797 I-0.4118 J-0.2836
G1 X20.7504 Y71.1356
G3 X20.7086 Y71.1528 I-0.2109 J-0.4533
G1 X19.9517 Y71.4249
G1 Y74.7438
G1 Y78.0696
G1 X20.716 Y78.3599
G3 X20.7569 Y78.3776 I-0.1776 J0.4674
G1 X21.5208 Y78.7485
G3 X21.7165 Y78.918 I-0.2184 J0.4498
G1 X21.9542 Y79.2691
G3 X21.9276 Y79.8653 I-0.4141 J0.2802
G1 X21.6358 Y80.2231
G3 X21.4638 Y80.3583 I-0.3875 J-0.316
G1 X20.6406 Y80.7514
G3 X20.6055 Y80.7666 I-0.2155 J-0.4512
G1 X19.8494 Y81.0589
G1 Y84.3348
G1 Y87.6081
G1 X20.6046 Y87.8946
G3 X20.6399 Y87.9096 I-0.1774 J0.4675
G1 X21.463 Y88.2966
G3 X21.6391 Y88.4347 I-0.2127 J0.4525
G1 X21.9229 Y88.7856
G3 X21.9407 Y89.391 I-0.3888 J0.3144
G1 X21.686 Y89.7469
G3 X21.5032 Y89.903 I-0.4066 J-0.2909
G1 X20.7122 Y90.2991
G3 X20.6764 Y90.3152 I-0.2238 J-0.4471
G1 X19.8494 Y90.651
G1 Y93.4735
G1 Y96.1315
G1 X20.8321
G1 X23.2491 Y96.0719
G1 X23.8222 Y96.0345
G1 X25.8191 Y95.9043 Z-2.5002
G1 X25.8274 Y95.9038 Z-2.5023
G1 X27.8094 Y95.7079 Z-3.0
G1 X28.4713 Y95.6424
G1 X31.0773 Y95.3017
G1 X33.5414 Y94.8985
G1 X35.7601 Y94.4478
G1 X37.6257 Y93.9672
G1 X39.0519 Y93.467
G1 X39.5699 Y93.2614
G3 X39.6795 Y93.2317 I0.1845 J0.4647
G1 X40.0715 Y93.1724
G3 X40.2595 Y93.1798 I0.0748 J0.4944
G1 X40.7049 Y93.2833
G3 X40.7757 Y93.3054 I-0.1132 J0.487
G1 X41.4461 Y93.5708
G1 X44.2265 Y94.4273
G1 X48.0449 Y95.1558
G1 X50.9608 Y95.5101
G1 X52.6517 Y95.7156 Z-2.5743
G1 X52.95 Y95.7358 Z-2.5004
G1 X54.9454 Y95.8713 Z-3.0
G1 X57.787 Y96.0643
G1 X60.3262 Y96.1738
G1 Y93.5056
G1 Y90.651
G1 X59.499 Y90.3153
G3 X59.4635 Y90.2992 I0.1881 J-0.4633
G1 X58.6714 Y89.9032
G3 X58.4884 Y89.7469 I0.2236 J-0.4472
G1 X58.2337 Y89.391
G3 X58.2516 Y88.7856 I0.4066 J-0.2909
G1 X58.5355 Y88.4346
G3 X58.7117 Y88.2965 I0.3888 J0.3144
G1 X59.5359 Y87.9095
G3 X59.571 Y87.8946 I0.2125 J0.4526
G1 X60.3262 Y87.6081
G1 Y84.3348
G1 Y81.0589
G1 X59.57 Y80.7666
G3 X59.535 Y80.7515 I0.1803 J-0.4664
G1 X58.7108 Y80.3584
G3 X58.5385 Y80.223 I0.2152 J-0.4513
G1 X58.2469 Y79.8653
G3 X58.2203 Y79.2693 I0.3876 J-0.3159
G1 X58.4578 Y78.9181
G3 X58.6538 Y78.7483 I0.4142 J0.2801
G1 X59.4189 Y78.3774
G3 X59.4594 Y78.3599 I0.2181 J0.4499
G1 X60.2238 Y78.0696
G1 Y74.769
G1 Y71.4604
G1 X59.4537 Y71.1487
G3 X59.4165 Y71.1319 I0.1876 J-0.4635
G1 X58.6613 Y70.752
G3 X58.4721 Y70.5859 I0.2247 J-0.4467
G1 X58.2376 Y70.2399
G3 X58.2664 Y69.6404 I0.4139 J-0.2806
G1 X58.5531 Y69.2944
G3 X58.7239 Y69.1616 I0.385 J0.319
G1 X59.5361 Y68.7766
G3 X59.5699 Y68.7621 I0.2141 J0.4518
G1 X60.3262 Y68.4696
G1 Y65.19
G1 Y61.9043
G1 X59.5091 Y61.5727
G3 X59.4919 Y61.5654 I0.188 J-0.4633
G1 X59.0528 Y61.3678
G3 X59.0122 Y61.3473 I0.2051 J-0.456
G1 X58.6534 Y61.1448
G3 X58.6006 Y61.1104 I0.2457 J-0.4354
G1 X58.3581 Y60.93
G3 X58.2352 Y60.7979 I0.2985 J-0.4011
G1 X58.1469 Y60.6596
G3 X58.1487 Y60.1187 I0.4214 J-0.2691
G1 X58.237 Y59.9823
G3 X58.357 Y59.8539 I0.4196 J0.2719
G1 X58.5995 Y59.6724
G3 X58.6543 Y59.6367 I0.2996 J0.4003
G1 X59.0132 Y59.4352
G3 X59.0511 Y59.416 I0.2448 J0.436
G1 X59.4902 Y59.2164
G3 X59.5091 Y59.2083 I0.2069 J0.4552
G1 X60.3262 Y58.8768
G1 Y56.1836
G1 Y53.7565
G1 X59.9923 Y53.8187
G3 X59.9212 Y53.8268 I-0.0916 J-0.4915
G1 X58.1827 Y53.8979
G3 X58.0726 Y53.8902 I-0.0205 J-0.4996
G1 X56.2196 Y53.5524
G3 X56.1264 Y53.5258 I0.0897 J-0.4919
G1 X54.4101 Y52.8511
G3 X54.3041 Y52.7938 I0.1829 J-0.4653
G1 X52.9745 Y51.8523
G3 X52.8852 Y51.7713 I0.2889 J-0.4081
G1 X52.1595 Y50.9322
G3 X52.0951 Y50.8376 I0.3782 J-0.3271
G1 X51.6438 Y49.9783
G3 X51.5985 Y49.855 I0.4427 J-0.2325
G1 X51.368 Y48.8243
G3 X51.3565 Y48.7388 I0.488 J-0.1091
G1 X51.2924 Y47.3843
G3 X51.2919 Y47.3607 I0.4994 J-0.0236
G1 Y45.5038
G3 X51.7919 Y45.0038 I0.5 J0.0
G1 X54.791
G3 X55.291 Y45.5038 I0.0 J0.5
G1 Y47.2627
G1 X55.4882
G1 X63.6265
G3 X63.6273 I0.0 J0.5
G1 X66.561 Y47.2677
G3 X66.5646 I-0.0009 J0.5
G1 X68.8243 Y47.2878
G3 X68.8338 Y47.288 I-0.0044 J0.5
G1 X70.5222 Y47.3351
G3 X70.5427 Y47.3361 I-0.014 J0.4998
G1 X71.7629 Y47.4203
G3 X71.8049 Y47.425 I-0.0344 J0.4988
G1 X72.66 Y47.5573
G3 X72.737 Y47.5756 I-0.0765 J0.4941
G1 X73.3308 Y47.7671
G3 X73.4343 Y47.8141 I-0.1535 J0.4759
G1 X73.8693 Y48.0747
G3 X73.9467 Y48.1319 I-0.257 J0.4289
G1 X74.3257 Y48.4727
G3 X74.3661 Y48.5135 I-0.3344 J0.3718
G1 X74.676 Y48.8645
G3 X74.7445 Y48.9641 I-0.3748 J0.331
G1 X74.924 Y49.3081
G3 X74.9722 Y49.4475 I-0.4433 J0.2313
G1 X75.0542 Y49.8866
G3 X75.0625 Y49.9619 I-0.4915 J0.0918
G1 X75.0835 Y50.5976
G3 X75.0822 Y50.6536 I-0.4997 J0.0166
G1 X75.0161 Y51.4897
G3 X74.9864 Y51.6243 I-0.4984 J-0.0394
G1 X74.7548 Y52.248
G3 X74.6562 Y52.4101 I-0.4687 J-0.174
G1 X74.2101 Y52.9013
G3 X74.1043 Y52.9896 I-0.3702 J-0.3361
G1 X73.3943 Y53.4318
G3 X73.2666 Y53.4883 I-0.2643 J-0.4244
G1 X72.5539 Y53.6908
G3 X72.4743 Y53.7066 I-0.1367 J-0.481
G1 X71.4797 Y53.8209
G3 X71.4257 Y53.8242 I-0.0571 J-0.4967
G1 X70.4681 Y53.8302
G3 X70.3653 Y53.8201 I-0.0031 J-0.5
G1 X70.2221 Y53.791
G1 X70.2069 Y53.9131
G1 X70.1689 Y54.8179
G1 X70.1561 Y56.1479
G1 Y58.8768
G1 X70.9832 Y59.2123
G3 X71.0195 Y59.2288 I-0.188 J0.4633
G1 X71.8105 Y59.6258
G3 X71.9928 Y59.7817 I-0.2243 J0.4469
G1 X72.2475 Y60.1377
G3 X72.23 Y60.7425 I-0.4066 J0.2909
G1 X71.9461 Y61.0944
G3 X71.7688 Y61.2334 I-0.3892 J-0.3139
G1 X70.9457 Y61.6184
G3 X70.9113 Y61.633 I-0.2118 J-0.4529
G1 X70.1561 Y61.9196
G1 Y65.1939
G1 Y68.4696
G1 X70.9121 Y68.7622
G3 X70.9478 Y68.7776 I-0.1804 J0.4663
G1 X71.772 Y69.1727
G3 X71.9427 Y69.3068 I-0.2161 J0.4509
G1 X72.2356 Y69.6646
G3 X72.2605 Y70.265 I-0.3869 J0.3167
G1 X72.0229 Y70.61
G3 X71.8221 Y70.7797 I-0.4118 J-0.2836
G1 X71.0572 Y71.1356
G3 X71.0154 Y71.1528 I-0.2109 J-0.4533
G1 X70.2585 Y71.4249
G1 Y74.7438
G1 Y78.0696
G1 X71.0227 Y78.3599
G3 X71.0635 Y78.3776 I-0.1776 J0.4674
G1 X71.8274 Y78.7485
G3 X72.0231 Y78.918 I-0.2184 J0.4498
G1 X72.2608 Y79.2691
G3 X72.2343 Y79.8653 I-0.4141 J0.2803
G1 X71.9427 Y80.223
G3 X71.7705 Y80.3584 I-0.3876 J-0.3159
G1 X70.947 Y80.7514
G3 X70.912 Y80.7665 I-0.2154 J-0.4512
G1 X70.1561 Y81.0589
G1 Y84.3348
G1 Y87.6081
G1 X70.9113 Y87.8946
G3 X70.9454 Y87.9091 I-0.1774 J0.4675
G1 X71.7615 Y88.2901
G3 X71.9372 Y88.4269 I-0.2115 J0.453
G1 X72.2181 Y88.7708
G3 X72.2361 Y89.3799 I-0.3872 J0.3163
G1 X71.9833 Y89.7298
G3 X71.8039 Y89.883 I-0.4053 J-0.2929
G1 X71.018 Y90.281
G3 X70.9837 Y90.2968 I-0.2259 J-0.4461
G1 X70.1561 Y90.6401
G1 Y93.5888
G1 Y96.3609
G1 X71.3381 Y96.3342
G3 X71.34 I0.0113 J0.4999
G1 X72.0177 Y96.3214
G3 X72.021 I0.0094 J0.4999
G1 X72.6148 Y96.3142
G3 X72.6186 Y96.3141 I0.0061 J0.5
G1 X73.0647 Y96.3121
G3 X73.0777 Y96.3122 I0.0023 J0.5
G1 X73.3111 Y96.3172
G3 X73.742 Y96.5827 I-0.0107 J0.4999
G1 X73.8655 Y96.8154
G3 X73.9212 Y96.9988 I-0.4417 J0.2343
G1 X73.9994 Y97.7618
G3 X74.0018 Y97.7979 I-0.4974 J0.051
G1 X74.0441 Y99.2227
G3 X74.0443 Y99.2347 I-0.4998 J0.0148
G1 X74.057 Y101.4543
G3 X74.0571 Y101.4572 I-0.5 J0.0029
G1 Y105.5772
G1 X74.0704
G3 X74.1908 Y105.5919 I0.0 J0.5
G1 X74.5909 Y105.6912
G3 X74.9608 Y106.0784 I-0.1204 J0.4853
G1 X75.031 Y106.4293
G3 X75.0048 Y106.7136 I-0.4903 J0.0981
G1 X74.729 Y107.4005
G3 X74.6981 Y107.4643 I-0.464 J-0.1863
G1 X74.0605 Y108.5688
G3 X74.0504 Y108.5855 I-0.433 J-0.25
G1 X73.3846 Y109.6415
G3 X73.3729 Y109.6591 I-0.4229 J-0.2667
G1 X72.8858 Y110.3639
G3 X72.8526 Y110.4067 I-0.4113 J-0.2843
G1 X72.5126 Y110.7998
G3 X72.3771 Y110.9099 I-0.3781 J-0.3271
G1 X72.1566 Y111.0322
G3 X71.5595 Y110.9476 I-0.2426 J-0.4372
G1 X71.39 Y110.7772
G3 X71.3391 Y110.7173 I0.3545 J-0.3526
G1 X71.0111 Y110.2629
G3 X71.0003 Y110.2472 I0.4054 J-0.2926
G1 X70.5693 Y109.5997
G3 X70.5634 Y109.5906 I0.4162 J-0.277
G1 X70.0861 Y108.8387
G3 X70.0818 Y108.8319 I0.4221 J-0.268
G1 X69.6126 Y108.0657
G3 X69.6074 Y108.057 I0.4264 J-0.2611
G1 X69.2035 Y107.3664
G3 X69.195 Y107.3514 I0.4316 J-0.2525
G1 X68.9114 Y106.8259
G3 X68.8858 Y106.7706 I0.44 J-0.2375
G1 X68.7795 Y106.4992
G3 X68.9035 Y105.9518 I0.4656 J-0.1822
G1 X69.0839 Y105.783
G3 X69.3452 Y105.6547 I0.3416 J0.3651
G1 X69.7813 Y105.5837
G3 X69.8616 Y105.5772 I0.0803 J0.4935
G1 X69.9772
G1 Y104.7749
G1 Y103.8451
G1 X69.5458 Y103.7156
G1 X68.9538 Y103.5547
G1 X68.8466 Y103.5343
G1 X68.7588 Y103.6375
G1 X68.52 Y103.9696
G1 X68.2476 Y104.3961
G3 X68.2422 Y104.4045 I-0.4214 J-0.2691
G1 X67.9465 Y104.8478
G3 X67.9202 Y104.8837 I-0.416 J-0.2774
G1 X67.6324 Y105.2415
G3 X67.5868 Y105.291 I-0.3896 J-0.3134
G1 X67.3351 Y105.5296
G3 X67.202 Y105.62 I-0.344 J-0.3629
G1 X67.0185 Y105.7054
G3 X66.5739 Y105.6941 I-0.2109 J-0.4533
G1 X66.3806 Y105.5919
G3 X66.2557 Y105.4984 I0.2337 J-0.442
G1 X65.9819 Y105.2165
G3 X65.9423 Y105.1705 I0.3586 J-0.3485
G1 X65.6194 Y104.7455
G3 X65.5966 Y104.7129 I0.3982 J-0.3024
G1 X65.2548 Y104.1795
G3 X65.2461 Y104.1656 I0.4209 J-0.2698
G1 X64.6006 Y103.0819
G1 X63.4658 Y103.1286
G1 X62.364 Y103.175
G1 X62.0254 Y104.0842
G3 X62.0195 Y104.0994 I-0.4686 J-0.1745
G1 X61.8221 Y104.5807
G3 X61.8078 Y104.6123 I-0.4626 J-0.1897
G1 X61.6073 Y105.0183
G3 X61.5833 Y105.0614 I-0.4483 J-0.2214
G1 X61.402 Y105.3523
G3 X61.321 Y105.4513 I-0.4243 J-0.2645
G1 X61.1845 Y105.5803
G3 X60.7121 Y105.6998 I-0.3433 J-0.3635
G1 X60.5247 Y105.6498
G3 X60.3838 Y105.5875 I0.1291 J-0.483
G1 X60.0666 Y105.3841
G3 X60.0235 Y105.3531 I0.27 J-0.4208
G1 X59.6216 Y105.0302
G3 X59.5948 Y105.0071 I0.3131 J-0.3898
G1 X59.1526 Y104.5972
G3 X59.141 Y104.5861 I0.3399 J-0.3667
G1 X58.244 Y103.6997
G1 X56.8007 Y103.9924
G1 X56.0391 Y104.15
G1 X55.4844 Y104.2827
G1 X55.1229 Y104.4014
G1 X54.9384 Y104.5026
G1 X54.859 Y104.5867
G1 X54.7974 Y104.7257
G1 X54.7414 Y105.0036
G1 X54.6905 Y105.4402
G3 X54.6859 Y105.4712 I-0.4966 J-0.0578
G1 X54.5287 Y106.3425
G3 X54.4902 Y106.464 I-0.492 J-0.0888
G1 X54.2816 Y106.914
G3 X53.8154 Y107.2035 I-0.4536 J-0.2103
G1 X53.624 Y107.1987
G3 X53.4409 Y107.159 I0.0125 J-0.4998
G1 X53.1079 Y107.0175
G3 X53.0526 Y106.9898 I0.1956 J-0.4602
G1 X52.6086 Y106.7322
G3 X52.5753 Y106.7111 I0.2509 J-0.4325
G1 X52.0558 Y106.3522
G3 X52.0466 Y106.3457 I0.2842 J-0.4114
G1 X51.6049 Y106.0256
G1 X51.2806 Y105.8129
G1 X51.052 Y105.7034
G1 X50.872 Y105.6645
G1 X50.6528 Y105.675
G1 X50.3205 Y105.7534
G1 X49.8434 Y105.913
G1 X49.1988 Y106.1519
G1 X48.4457 Y106.433
G1 X48.5342 Y107.4832
G3 X48.535 Y107.494 I-0.4982 J0.042
G1 X48.5751 Y108.1365
G3 X48.5761 Y108.1735 I-0.499 J0.0311
G1 X48.5709 Y108.6176
G3 X48.5617 Y108.7072 I-0.5 J-0.0058
G1 X48.5116 Y108.9648
G3 X48.3438 Y109.2511 I-0.4908 J-0.0954
G1 X48.2466 Y109.3333
G3 X47.789 Y109.4331 I-0.3229 J-0.3817
G1 X47.5775 Y109.374
G3 X47.5246 Y109.356 I0.1346 J-0.4815
G1 X47.1206 Y109.1926
G3 X47.103 Y109.1851 I0.1874 J-0.4635
G1 X46.5635 Y108.9425
G3 X46.5517 Y108.937 I0.2051 J-0.456
G1 X45.9373 Y108.6411
G3 X45.9325 Y108.6388 I0.2169 J-0.4505
G1 X44.6135 Y107.9864
G1 X43.3992 Y108.5742
G1 X42.3604 Y109.1656
G1 X42.0797 Y109.4993
G1 X42.0627 Y109.6402
G1 X42.067 Y109.6532
G1 X42.324 Y109.6885
G3 X42.3685 Y109.6967 I-0.0681 J0.4953
G1 X42.7415 Y109.783
G3 X43.0736 Y110.042 I-0.1127 J0.4871
G1 X43.2021 Y110.2924
G3 X43.2375 Y110.6594 I-0.4449 J0.2282
G1 X43.1392 Y110.9995
G3 X43.1069 Y111.0825 I-0.4803 J-0.1389
G1 X42.8452 Y111.6108
G3 X42.8293 Y111.6404 I-0.4481 J-0.2219
G1 X42.4523 Y112.2882
G3 X42.4409 Y112.3068 I-0.4321 J-0.2515
G1 X41.9969 Y112.9985
G3 X41.987 Y113.0133 I-0.4208 J-0.2701
G1 X41.5259 Y113.6782
G3 X41.512 Y113.6973 I-0.4109 J-0.2849
G1 X41.0798 Y114.2617
G3 X41.0543 Y114.2922 I-0.397 J-0.304
G1 X40.7014 Y114.6842
G3 X40.6022 Y114.7689 I-0.3716 J-0.3346
G1 X40.3765 Y114.9155
G3 X39.8357 Y114.918 I-0.2723 J-0.4193
G1 X39.5912 Y114.7624
G3 X39.4873 Y114.6742 I0.2685 J-0.4218
G1 X39.1173 Y114.2611
G3 X39.09 Y114.2279 I0.3724 J-0.3336
G1 X38.6446 Y113.6352
G3 X38.63 Y113.6146 I0.3997 J-0.3004
G1 X38.163 Y112.9229
G3 X38.1521 Y112.9062 I0.4144 J-0.2798
G1 X37.7119 Y112.1945
G3 X37.6995 Y112.1733 I0.4252 J-0.263
G1 X37.3395 Y111.5217
G3 X37.3208 Y111.4841 I0.4377 J-0.2418
G1 X37.0911 Y110.9707
G3 X37.0537 Y110.8451 I0.4564 J-0.2042
G1 X37.0068 Y110.5502
G3 X37.1705 Y110.096 I0.4938 J-0.0786
G1 X37.4009 Y109.8935
G3 X37.6266 Y109.7801 I0.3301 J0.3756
G1 X38.0258 Y109.6949
G3 X38.0891 Y109.6855 I0.1044 J0.489
G1 X38.1422 Y109.6812
G1 X38.1485 Y109.5808
G1 X38.126 Y109.3958
G1 X38.0523 Y109.2905
G1 X37.6893 Y109.0484
G1 X36.8848 Y108.6329
G1 X35.5706 Y107.9825
G1 X34.2495 Y108.6368
G3 X34.2441 Y108.6394 I-0.2219 J-0.4481
G1 X33.6263 Y108.9362
G3 X33.6155 Y108.9413 I-0.2165 J-0.4507
G1 X33.0783 Y109.1837
G3 X33.0623 Y109.1906 I-0.2057 J-0.4557
G1 X32.6611 Y109.3551
G3 X32.6097 Y109.373 I-0.1897 J-0.4626
G1 X32.4042 Y109.4321
G3 X31.7989 Y109.1301 I-0.1383 J-0.4805
G1 X31.6536 Y108.7502
G3 X31.6207 Y108.5745 I0.467 J-0.1785
G1 X31.6144 Y107.4887
G3 X31.6149 Y107.4625 I0.5 J-0.0029
G1 X31.6657 Y106.3725
G1 X30.5967 Y106.0099
G1 X30.0372 Y105.8234
G1 X29.5636 Y105.6714
G1 X29.2684 Y105.5822
G1 X29.0273 Y105.7342
G1 X28.6178 Y106.014
G1 X28.1295 Y106.3619
G3 X28.1204 Y106.3683 I-0.2901 J-0.4072
G1 X27.6172 Y106.7102
G3 X27.5854 Y106.73 I-0.281 J-0.4136
G1 X27.1402 Y106.986
G3 X27.0898 Y107.0113 I-0.2492 J-0.4335
G1 X26.75 Y107.1586
G3 X26.5859 Y107.1986 I-0.1988 J-0.4588
G1 X26.3974 Y107.2117
G3 X25.9043 Y106.9128 I-0.0347 J-0.4988
G1 X25.6988 Y106.4416
G3 X25.6645 Y106.3272 I0.4583 J-0.1999
G1 X25.503 Y105.3967
G3 X25.4983 Y105.3632 I0.4926 J-0.0855
G1 X25.404 Y104.4616
G1 X24.3929 Y104.2273
G3 X24.3928 I0.1128 J-0.4871
G1 X23.4538 Y104.0095
G1 X22.7704 Y103.861
G1 X22.309 Y103.7901
G1 X22.0361
G1 X21.8715 Y103.8377
G1 X21.6887 Y103.9563
G1 X21.4182 Y104.2042
G1 X21.0334 Y104.5867
G3 X21.0214 Y104.5983 I-0.3525 J-0.3546
G1 X20.5802 Y105.0086
G3 X20.5542 Y105.0311 I-0.3405 J-0.3661
G1 X20.1552 Y105.354
G3 X20.1129 Y105.3847 I-0.3145 J-0.3887
G1 X19.799 Y105.5883
G3 X19.6608 Y105.6507 I-0.2722 J-0.4194
G1 X19.4773 Y105.7017
G3 X18.9979 Y105.5814 I-0.1339 J-0.4817
G1 X18.8635 Y105.4529
G3 X18.7826 Y105.3526 I0.3455 J-0.3614
G1 X18.6052 Y105.0628
G3 X18.5822 Y105.021 I0.4264 J-0.2611
G1 X18.3837 Y104.614
G3 X18.37 Y104.5835 I0.4494 J-0.2192
G1 X18.1735 Y104.1011
G3 X18.1681 Y104.0872 I0.463 J-0.1887
G1 X17.8279 Y103.1752
G1 X16.7398 Y103.1297
G1 X15.6151 Y103.083
G1 X14.9484 Y104.1733
G3 X14.9399 Y104.1868 I-0.4266 J-0.2608
G1 X14.597 Y104.7094
G3 X14.5756 Y104.7395 I-0.418 J-0.2743
G1 X14.2488 Y105.1654
G3 X14.2144 Y105.2057 I-0.3967 J-0.3044
G1 X13.9407 Y105.4934
G3 X13.8273 Y105.5824 I-0.3623 J-0.3446
G1 X13.6438 Y105.6877
G3 X13.1689 Y105.7001 I-0.2489 J-0.4336
G1 X12.9924 Y105.6107
G3 X12.8714 Y105.5246 I0.2261 J-0.446
G1 X12.6188 Y105.2811
G3 X12.579 Y105.238 I0.347 J-0.36
G1 X12.2843 Y104.8782
G3 X12.2588 Y104.8443 I0.3868 J-0.3169
G1 X11.956 Y104.4032
G3 X11.9553 Y104.4021 I0.4122 J-0.283
G1 X11.5285 Y103.7768
G1 X11.3386 Y103.6276
G1 X11.0976 Y103.6335
G1 X10.4141 Y103.8666
G1 X10.2704 Y103.9385
G1 X10.2533 Y103.9624
G1 X10.2115 Y104.2093
G1 X10.1983 Y104.8452
G1 Y105.5772
G1 X10.3149
G3 X10.397 Y105.584 I0.0 J0.5
G1 X10.8542 Y105.6602
G3 X11.1776 Y105.8608 I-0.0821 J0.4932
G1 X11.336 Y106.0803
G3 X11.4005 Y106.5435 I-0.4055 J0.2926
G1 X11.2942 Y106.8364
G3 X11.2656 Y106.9008 I-0.47 J-0.1706
G1 X10.9839 Y107.4299
G3 X10.9736 Y107.4482 I-0.4413 J-0.235
G1 X10.5715 Y108.1324
G3 X10.5646 Y108.1439 I-0.4311 J-0.2533
G1 X10.0963 Y108.8936
G3 X10.0906 Y108.9026 I-0.4241 J-0.2649
G1 X9.6113 Y109.6346
G3 X9.6037 Y109.6459 I-0.4183 J-0.2739
G1 X9.1666 Y110.2755
G3 X9.1521 Y110.2953 I-0.4107 J-0.2852
G1 X8.8143 Y110.7344
G3 X8.75 Y110.8033 I-0.3963 J-0.3049
G1 X8.5635 Y110.9689
G3 X7.9105 Y110.9783 I-0.332 J-0.3739
G1 X7.719 Y110.8179
G3 X7.6462 Y110.7426 I0.3211 J-0.3833
G1 X7.3113 Y110.3145
G3 X7.2944 Y110.2916 I0.3939 J-0.308
G1 X6.8683 Y109.6779
G3 X6.8603 Y109.666 I0.4107 J-0.2852
G1 X6.3931 Y108.9503
G3 X6.3862 Y108.9394 I0.4187 J-0.2733
G1 X5.933 Y108.2045
G3 X5.9259 Y108.1926 I0.4256 J-0.2624
G1 X5.5359 Y107.519
G3 X5.524 Y107.497 I0.4327 J-0.2505
G1 X5.2522 Y106.9685
G3 X5.2232 Y106.8999 I0.4447 J-0.2286
G1 X5.1209 Y106.597
G3 X5.1382 Y106.233 I0.4737 J-0.1599
G1 X5.2595 Y105.9616
G3 X5.6042 Y105.6782 I0.4565 J0.204
G1 X5.9892 Y105.5899
G3 X6.101 Y105.5772 I0.1118 J0.4873
G1 X6.1163
G1 X6.1655 Y101.5022
G3 Y101.5021 I0.5 J0.006
G1 X6.2216 Y96.9342
G3 X6.6952 Y96.441 I0.5 J0.0061
G1 X8.6452 Y96.3379
G3 X8.6455 I0.0264 J0.4993
G1 X10.131 Y96.2601
G1 X10.1789 Y93.5417
G1 X10.229 Y90.7035
G1 X9.3132 Y90.3398
G3 X9.2979 Y90.3334 I0.1846 J-0.4647
G1 X8.8177 Y90.124
G3 X8.7831 Y90.1073 I0.1998 J-0.4583
G1 X8.3901 Y89.8987
G3 X8.3404 Y89.8684 I0.2344 J-0.4416
G1 X8.0747 Y89.6849
G3 X7.955 Y89.5684 I0.2842 J-0.4114
G1 X7.8578 Y89.4351
G3 X7.8543 Y88.8502 I0.4038 J-0.2948
G1 X7.9516 Y88.7136
G3 X8.0665 Y88.5981 I0.4072 J0.2901
G1 X8.3322 Y88.4066
G3 X8.3782 Y88.3772 I0.2923 J0.4056
G1 X8.7712 Y88.1547
G3 X8.8041 Y88.1376 I0.2463 J0.4351
G1 X9.2843 Y87.9109
G3 X9.2996 Y87.904 I0.2135 J0.4521
G1 X10.2298 Y87.5023
G1 X10.1789 Y84.2946
G1 X10.1281 Y81.0837
G1 X9.3067 Y80.7543
G3 X9.2719 Y80.7388 I0.1861 J-0.4641
G1 X8.4577 Y80.3378
G3 X8.3464 Y80.2628 I0.2209 J-0.4485
G1 X7.9754 Y79.933
G3 X7.9311 Y79.2304 I0.3323 J-0.3736
G1 X8.2209 Y78.8987
G3 X8.3819 Y78.7765 I0.3766 J0.3289
G1 X9.2722 Y78.3511
G3 X9.3076 Y78.3358 I0.2156 J0.4511
G1 X10.225 Y77.9813
G1 Y74.7638
G1 Y71.5472
G1 X9.3071 Y71.1916
G3 X9.2759 Y71.1782 I0.1806 J-0.4662
G1 X8.4207 Y70.7781
G3 X8.2433 Y70.6391 I0.2119 J-0.4529
G1 X7.9596 Y70.2873
G3 X7.9591 Y69.6602 I0.3892 J-0.3139
G1 X8.2458 Y69.3034
G3 X8.4183 Y69.1662 I0.3898 J0.3132
G1 X9.2765 Y68.7521
G3 X9.3071 Y68.7386 I0.2173 J0.4503
G1 X10.1281 Y68.4082
G1 X10.1789 Y65.2161
G1 X10.2297 Y62.0256
G1 X9.2998 Y61.6247
G3 X9.2852 Y61.6181 I0.198 J-0.4591
G1 X8.805 Y61.3925
G3 X8.772 Y61.3755 I0.2126 J-0.4526
G1 X8.379 Y61.1539
G3 X8.3321 Y61.124 I0.2455 J-0.4356
G1 X8.0665 Y60.9325
G3 X7.9519 Y60.8173 I0.2924 J-0.4056
G1 X7.8546 Y60.6809
G3 X7.8541 Y60.1008 I0.407 J-0.2904
G1 X7.9503 Y59.9654
G3 X8.0658 Y59.8493 I0.4075 J0.2898
G1 X8.3305 Y59.6588
G3 X8.3769 Y59.6292 I0.2921 J0.4058
G1 X8.7679 Y59.4086
G3 X8.8006 Y59.3917 I0.2457 J0.4355
G1 X9.2799 Y59.1661
G3 X9.2948 Y59.1594 I0.2129 J0.4524
G1 X10.225 Y58.7582
G1 Y56.1355
G1 Y53.7175
G1 X9.4271 Y53.768
G3 X9.4096 Y53.7688 I-0.0316 J-0.499
G1 X8.3439 Y53.7989
G3 X8.2665 Y53.7951 I-0.0141 J-0.4998
G1 X7.4965 Y53.6968
G3 X7.365 Y53.6613 I0.0633 J-0.496
G1 X6.7464 Y53.3997
G3 X6.6388 Y53.3373 I0.1948 J-0.4605
G1 X6.0262 Y52.8721
G3 X5.9351 Y52.7824 I0.3024 J-0.3982
G1 X5.2654 Y51.9282
G3 X5.1743 Y51.7432 I0.3935 J-0.3085
G1 X4.9317 Y50.7907
G3 X4.9254 Y50.5716 I0.4845 J-0.1234
G1 X5.1119 Y49.6151
G3 X5.1962 Y49.4196 I0.4908 J0.0957
G1 X5.8168 Y48.5533
G3 X5.8935 Y48.4687 I0.4065 J0.2912
G1 X6.2785 Y48.1308
G3 X6.3476 Y48.08 I0.3298 J0.3758
G1 X6.7677 Y47.8233
G3 X6.8715 Y47.7752 I0.2607 J0.4267
G1 X7.436 Y47.5887
G3 X7.5154 Y47.5695 I0.1568 J0.4748
G1 X8.3335 Y47.4412
G3 X8.3767 Y47.4363 I0.0775 J0.494
G1 X9.5588 Y47.3551
G3 X9.5794 Y47.3541 I0.0343 J0.4988
G1 X11.2357 Y47.309
G3 X11.2446 Y47.3089 I0.0136 J0.4998
G1 X13.4845 Y47.2878
G3 X13.4876 I0.0047 J0.5
G1 X16.4213 Y47.2788
G3 X16.4218 I0.0015 J0.5
G1 X24.6872 Y47.2627
G3 X24.6882 I0.001 J0.5
G1 F300.0 Z-4.0
G1 F800.0 X24.884
G1 Y45.5038
G3 X25.384 Y45.0038 I0.5 J0.0
G1 X28.3838
G3 X28.8838 Y45.5038 I0.0 J0.5
G1 Y47.3607
G3 X28.8837 Y47.3709 I-0.5 J0.0
G1 X28.8647 Y48.2993
G3 X28.8626 Y48.3355 I-0.4999 J-0.0102
G1 X28.7976 Y49.0333
G3 X28.7876 Y49.0961 I-0.4978 J-0.0464
G1 X28.6662 Y49.6385
G3 X28.641 Y49.7188 I-0.4879 J-0.1092
G1 X28.4525 Y50.179
G3 X28.3978 Y50.2786 I-0.4627 J-0.1895
G1 X27.5176 Y51.5208
G3 X27.4235 Y51.6209 I-0.408 J-0.2891
G1 X26.1992 Y52.6085
G3 X26.0957 Y52.6729 I-0.3139 J-0.3892
G1 X24.5698 Y53.3807
G3 X24.469 Y53.415 I-0.2104 J-0.4536
G1 X22.6873 Y53.815
G3 X22.6322 Y53.8242 I-0.1095 J-0.4879
G1 X22.0366 Y53.8894
G3 X22.0206 Y53.8909 I-0.0544 J-0.497
G1 X21.4862 Y53.932
G3 X21.4635 Y53.9332 I-0.0383 J-0.4985
G1 X21.0474 Y53.9462
G3 X20.9939 Y53.945 I-0.0157 J-0.4998
G1 X20.7563 Y53.927
G3 X20.6752 Y53.9141 I0.0379 J-0.4986
G1 X20.289 Y53.8195
G1 X19.8494 Y53.7172
G1 Y56.1535
G1 Y58.8768
G1 X20.6764 Y59.2123
G3 X20.7126 Y59.2288 I-0.188 J0.4633
G1 X21.5037 Y59.6258
G3 X21.686 Y59.7817 I-0.2243 J0.4469
G1 X21.9407 Y60.1377
G3 X21.9233 Y60.7424 I-0.4066 J0.2909
G1 X21.6396 Y61.0944
G3 X21.4622 Y61.2334 I-0.3892 J-0.3138
G1 X20.639 Y61.6184
G3 X20.6046 Y61.633 I-0.2118 J-0.4529
G1 X19.8494 Y61.9196
G1 Y65.1939
G1 Y68.4696
G1 X20.6056 Y68.7621
G3 X20.6413 Y68.7776 I-0.1804 J0.4663
G1 X21.4655 Y69.1727
G3 X21.6363 Y69.3069 I-0.2162 J0.4509
G1 X21.929 Y69.6647
G3 X21.9539 Y70.265 I-0.387 J0.3166
G1 X21.7162 Y70.61
G3 X21.5154 Y70.7797 I-0.4118 J-0.2836
G1 X20.7504 Y71.1356
G3 X20.7086 Y71.1528 I-0.2109 J-0.4533
G1 X19.9517 Y71.4249
G1 Y74.7438
G1 Y78.0696
G1 X20.716 Y78.3599
G3 X20.7569 Y78.3776 I-0.1776 J0.4674
G1 X21.5208 Y78.7485
G3 X21.7165 Y78.918 I-0.2184 J0.4498
G1 X21.9542 Y79.2691
G3 X21.9276 Y79.8653 I-0.4141 J0.2802
G1 X21.6358 Y80.2231
G3 X21.4638 Y80.3583 I-0.3875 J-0.316
G1 X20.6406 Y80.7514
G3 X20.6055 Y80.7666 I-0.2155 J-0.4512
G1 X19.8494 Y81.0589
G1 Y84.3348
G1 Y87.6081
G1 X20.6046 Y87.8946
G3 X20.6399 Y87.9096 I-0.1774 J0.4675
G1 X21.463 Y88.2966
G3 X21.6391 Y88.4347 I-0.2127 J0.4525
G1 X21.9229 Y88.7856
G3 X21.9407 Y89.391 I-0.3888 J0.3144
G1 X21.686 Y89.7469
G3 X21.5032 Y89.903 I-0.4066 J-0.2909
G1 X20.7122 Y90.2991
G3 X20.6764 Y90.3152 I-0.2238 J-0.4471
G1 X19.8494 Y90.651
G1 Y93.4735
G1 Y96.1315
G1 X20.8321
G1 X23.2491 Y96.0719
G1 X23.8222 Y96.0345
G1 X25.8191 Y95.9043 Z-2.5006
G1 X25.8274 Y95.9038 Z-2.5069
G1 X27.8094 Y95.7079 Z-4.0
G1 X28.4713 Y95.6424
G1 X31.0773 Y95.3017
G1 X33.5414 Y94.8985
G1 X35.7601 Y94.4478
G1 X37.6257 Y93.9672
G1 X39.0519 Y93.467
G1 X39.5699 Y93.2614
G3 X39.6795 Y93.2317 I0.1845 J0.4647
G1 X40.0715 Y93.1724
G3 X40.2595 Y93.1798 I0.0748 J0.4944
G1 X40.7049 Y93.2833
G3 X40.7757 Y93.3054 I-0.1132 J0.487
G1 X41.4461 Y93.5708
G1 X44.2265 Y94.4273
G1 X48.0449 Y95.1558
G1 X50.9608 Y95.5101
G1 X52.6517 Y95.7156 Z-2.723
G1 X52.95 Y95.7358 Z-2.5012
G1 X54.9454 Y95.8713 Z-4.0
G1 X57.787 Y96.0643
G1 X60.3262 Y96.1738
G1 Y93.5056
G1 Y90.651
G1 X59.499 Y90.3153
G3 X59.4635 Y90.2992 I0.1881 J-0.4633
G1 X58.6714 Y89.9032
G3 X58.4884 Y89.7469 I0.2236 J-0.4472
G1 X58.2337 Y89.391
G3 X58.2516 Y88.7856 I0.4066 J-0.2909
G1 X58.5355 Y88.4346
G3 X58.7117 Y88.2965 I0.3888 J0.3144
G1 X59.5359 Y87.9095
G3 X59.571 Y87.8946 I0.2125 J0.4526
G1 X60.3262 Y87.6081
G1 Y84.3348
G1 Y81.0589
G1 X59.57 Y80.7666
G3 X59.535 Y80.7515 I0.1803 J-0.4664
G1 X58.7108 Y80.3584
G3 X58.5385 Y80.223 I0.2152 J-0.4513
G1 X58.2469 Y79.8653
G3 X58.2203 Y79.2693 I0.3876 J-0.3159
G1 X58.4578 Y78.9181
G3 X58.6538 Y78.7483 I0.4142 J0.2801
G1 X59.4189 Y78.3774
G3 X59.4594 Y78.3599 I0.2181 J0.4499
G1 X60.2238 Y78.0696
G1 Y74.769
G1 Y71.4604
G1 X59.4537 Y71.1487
G3 X59.4165 Y71.1319 I0.1876 J-0.4635
G1 X58.6613 Y70.752
G3 X58.4721 Y70.5859 I0.2247 J-0.4467
G1 X58.2376 Y70.2399
G3 X58.2664 Y69.6404 I0.4139 J-0.2806
G1 X58.5531 Y69.2944
G3 X58.7239 Y69.1616 I0.385 J0.319
G1 X59.5361 Y68.7766
G3 X59.5699 Y68.7621 I0.2141 J0.4518
G1 X60.3262 Y68.4696
G1 Y65.19
G1 Y61.9043
G1 X59.5091 Y61.5727
G3 X59.4919 Y61.5654 I0.188 J-0.4633
G1 X59.0528 Y61.3678
G3 X59.0122 Y61.3473 I0.2051 J-0.456
G1 X58.6534 Y61.1448
G3 X58.6006 Y61.1104 I0.2457 J-0.4354
G1 X58.3581 Y60.93
G3 X58.2352 Y60.7979 I0.2985 J-0.4011
G1 X58.1469 Y60.6596
G3 X58.1487 Y60.1187 I0.4214 J-0.2691
G1 X58.237 Y59.9823
G3 X58.357 Y59.8539 I0.4196 J0.2719
G1 X58.5995 Y59.6724
G3 X58.6543 Y59.6367 I0.2996 J0.4003
G1 X59.0132 Y59.4352
G3 X59.0511 Y59.416 I0.2448 J0.436
G1 X59.4902 Y59.2164
G3 X59.5091 Y59.2083 I0.2069 J0.4552
G1 X60.3262 Y58.8768
G1 Y56.1836
G1 Y53.7565
G1 X59.9923 Y53.8187
G3 X59.9212 Y53.8268 I-0.0916 J-0.4915
G1 X58.1827 Y53.8979
G3 X58.0726 Y53.8902 I-0.0205 J-0.4996
G1 X56.2196 Y53.5524
G3 X56.1264 Y53.5258 I0.0897 J-0.4919
G1 X54.4101 Y52.8511
G3 X54.3041 Y52.7938 I0.1829 J-0.4653
G1 X52.9745 Y51.8523
G3 X52.8852 Y51.7713 I0.2889 J-0.4081
G1 X52.1595 Y50.9322
G3 X52.0951 Y50.8376 I0.3782 J-0.3271
G1 X51.6438 Y49.9783
G3 X51.5985 Y49.855 I0.4427 J-0.2325
G1 X51.368 Y48.8243
G3 X51.3565 Y48.7388 I0.488 J-0.1091
G1 X51.2924 Y47.3843
G3 X51.2919 Y47.3607 I0.4994 J-0.0236
G1 Y45.5038
G3 X51.7919 Y45.0038 I0.5 J0.0
G1 X54.791
G3 X55.291 Y45.5038 I0.0 J0.5
G1 Y47.2627
G1 X55.4882
G1 X63.6265
G3 X63.6273 I0.0 J0.5
G1 X66.561 Y47.2677
G3 X66.5646 I-0.0009 J0.5
G1 X68.8243 Y47.2878
G3 X68.8338 Y47.288 I-0.0044 J0.5
G1 X70.5222 Y47.3351
G3 X70.5427 Y47.3361 I-0.014 J0.4998
G1 X71.7629 Y47.4203
G3 X71.8049 Y47.425 I-0.0344 J0.4988
G1 X72.66 Y47.5573
G3 X72.737 Y47.5756 I-0.0765 J0.4941
G1 X73.3308 Y47.7671
G3 X73.4343 Y47.8141 I-0.1535 J0.4759
G1 X73.8693 Y48.0747
G3 X73.9467 Y48.1319 I-0.257 J0.4289
G1 X74.3257 Y48.4727
G3 X74.3661 Y48.5135 I-0.3344 J0.3718
G1 X74.676 Y48.8645
G3 X74.7445 Y48.9641 I-0.3748 J0.331
G1 X74.924 Y49.3081
G3 X74.9722 Y49.4475 I-0.4433 J0.2313
G1 X75.0542 Y49.8866
G3 X75.0625 Y49.9619 I-0.4915 J0.0918
G1 X75.0835 Y50.5976
G3 X75.0822 Y50.6536 I-0.4997 J0.0166
G1 X75.0161 Y51.4897
G3 X74.9864 Y51.6243 I-0.4984 J-0.0394
G1 X74.7548 Y52.248
G3 X74.6562 Y52.4101 I-0.4687 J-0.174
G1 X74.2101 Y52.9013
G3 X74.1043 Y52.9896 I-0.3702 J-0.3361
G1 X73.3943 Y53.4318
G3 X73.2666 Y53.4883 I-0.2643 J-0.4244
G1 X72.5539 Y53.6908
G3 X72.4743 Y53.7066 I-0.1367 J-0.481
G1 X71.4797 Y53.8209
G3 X71.4257 Y53.8242 I-0.0571 J-0.4967
G1 X70.4681 Y53.8302
G3 X70.3653 Y53.8201 I-0.0031 J-0.5
G1 X70.2221 Y53.791
G1 X70.2069 Y53.9131
G1 X70.1689 Y54.8179
G1 X70.1561 Y56.1479
G1 Y58.8768
G1 X70.9832 Y59.2123
G3 X71.0195 Y59.2288 I-0.188 J0.4633
G1 X71.8105 Y59.6258
G3 X71.9928 Y59.7817 I-0.2243 J0.4469
G1 X72.2475 Y60.1377
G3 X72.23 Y60.7425 I-0.4066 J0.2909
G1 X71.9461 Y61.0944
G3 X71.7688 Y61.2334 I-0.3892 J-0.3139
G1 X70.9457 Y61.6184
G3 X70.9113 Y61.633 I-0.2118 J-0.4529
G1 X70.1561 Y61.9196
G1 Y65.1939
G1 Y68.4696
G1 X70.9121 Y68.7622
G3 X70.9478 Y68.7776 I-0.1804 J0.4663
G1 X71.772 Y69.1727
G3 X71.9427 Y69.3068 I-0.2161 J0.4509
G1 X72.2356 Y69.6646
G3 X72.2605 Y70.265 I-0.3869 J0.3167
G1 X72.0229 Y70.61
G3 X71.8221 Y70.7797 I-0.4118 J-0.2836
G1 X71.0572 Y71.1356
G3 X71.0154 Y71.1528 I-0.2109 J-0.4533
G1 X70.2585 Y71.4249
G1 Y74.7438
G1 Y78.0696
G1 X71.0227 Y78.3599
G3 X71.0635 Y78.3776 I-0.1776 J0.4674
G1 X71.8274 Y78.7485
G3 X72.0231 Y78.918 I-0.2184 J0.4498
G1 X72.2608 Y79.2691
G3 X72.2343 Y79.8653 I-0.4141 J0.2803
G1 X71.9427 Y80.223
G3 X71.7705 Y80.3584 I-0.3876 J-0.3159
G1 X70.947 Y80.7514
G3 X70.912 Y80.7665 I-0.2154 J-0.4512
G1 X70.1561 Y81.0589
G1 Y84.3348
G1 Y87.6081
G1 X70.9113 Y87.8946
G3 X70.9454 Y87.9091 I-0.1774 J0.4675
G1 X71.7615 Y88.2901
G3 X71.9372 Y88.4269 I-0.2115 J0.453
G1 X72.2181 Y88.7708
G3 X72.2361 Y89.3799 I-0.3872 J0.3163
G1 X71.9833 Y89.7298
G3 X71.8039 Y89.883 I-0.4053 J-0.2929
G1 X71.018 Y90.281
G3 X70.9837 Y90.2968 I-0.2259 J-0.4461
G1 X70.1561 Y90.6401
G1 Y93.5888
G1 Y96.3609
G1 X71.3381 Y96.3342
G3 X71.34 I0.0113 J0.4999
G1 X72.0177 Y96.3214
G3 X72.021 I0.0094 J0.4999
G1 X72.6148 Y96.3142
G3 X72.6186 Y96.3141 I0.0061 J0.5
G1 X73.0647 Y96.3121
G3 X73.0777 Y96.3122 I0.0023 J0.5
G1 X73.3111 Y96.3172
G3 X73.742 Y96.5827 I-0.0107 J0.4999
G1 X73.8655 Y96.8154
G3 X73.9212 Y96.9988 I-0.4417 J0.2343
G1 X73.9994 Y97.7618
G3 X74.0018 Y97.7979 I-0.4974 J0.051
G1 X74.0441 Y99.2227
G3 X74.0443 Y99.2347 I-0.4998 J0.0148
G1 X74.057 Y101.4543
G3 X74.0571 Y101.4572 I-0.5 J0.0029
G1 Y105.5772
G1 X74.0704
G3 X74.1908 Y105.5919 I0.0 J0.5
G1 X74.5909 Y105.6912
G3 X74.9608 Y106.0784 I-0.1204 J0.4853
G1 X75.031 Y106.4293
G3 X75.0048 Y106.7136 I-0.4903 J0.0981
G1 X74.729 Y107.4005
G3 X74.6981 Y107.4643 I-0.464 J-0.1863
G1 X74.0605 Y108.5688
G3 X74.0504 Y108.5855 I-0.433 J-0.25
G1 X73.3846 Y109.6415
G3 X73.3729 Y109.6591 I-0.4229 J-0.2667
G1 X72.8858 Y110.3639
G3 X72.8526 Y110.4067 I-0.4113 J-0.2843
G1 X72.5126 Y110.7998
G3 X72.3771 Y110.9099 I-0.3781 J-0.3271
G1 X72.1566 Y111.0322
G3 X71.5595 Y110.9476 I-0.2426 J-0.4372
G1 X71.39 Y110.7772
G3 X71.3391 Y110.7173 I0.3545 J-0.3526
G1 X71.0111 Y110.2629
G3 X71.0003 Y110.2472 I0.4054 J-0.2926
G1 X70.5693 Y109.5997
G3 X70.5634 Y109.5906 I0.4162 J-0.277
G1 X70.0861 Y108.8387
G3 X70.0818 Y108.8319 I0.4221 J-0.268
G1 X69.6126 Y108.0657
G3 X69.6074 Y108.057 I0.4264 J-0.2611
G1 X69.2035 Y107.3664
G3 X69.195 Y107.3514 I0.4316 J-0.2525
G1 X68.9114 Y106.8259
G3 X68.8858 Y106.7706 I0.44 J-0.2375
G1 X68.7795 Y106.4992
G3 X68.9035 Y105.9518 I0.4656 J-0.1822
G1 X69.0839 Y105.783
G3 X69.3452 Y105.6547 I0.3416 J0.3651
G1 X69.7813 Y105.5837
G3 X69.8616 Y105.5772 I0.0803 J0.4935
G1 X69.9772
G1 Y104.7749
G1 Y103.8451
G1 X69.5458 Y103.7156
G1 X68.9538 Y103.5547
G1 X68.8466 Y103.5343
G1 X68.7588 Y103.6375
G1 X68.52 Y103.9696
G1 X68.2476 Y104.3961
G3 X68.2422 Y104.4045 I-0.4214 J-0.2691
G1 X67.9465 Y104.8478
G3 X67.9202 Y104.8837 I-0.416 J-0.2774
G1 X67.6324 Y105.2415
G3 X67.5868 Y105.291 I-0.3896 J-0.3134
G1 X67.3351 Y105.5296
G3 X67.202 Y105.62 I-0.344 J-0.3629
G1 X67.0185 Y105.7054
G3 X66.5739 Y105.6941 I-0.2109 J-0.4533
G1 X66.3806 Y105.5919
G3 X66.2557 Y105.4984 I0.2337 J-0.442
G1 X65.9819 Y105.2165
G3 X65.9423 Y105.1705 I0.3586 J-0.3485
G1 X65.6194 Y104.7455
G3 X65.5966 Y104.7129 I0.3982 J-0.3024
G1 X65.2548 Y104.1795
G3 X65.2461 Y104.1656 I0.4209 J-0.2698
G1 X64.6006 Y103.0819
G1 X63.4658 Y103.1286
G1 X62.364 Y103.175
G1 X62.0254 Y104.0842
G3 X62.0195 Y104.0994 I-0.4686 J-0.1745
G1 X61.8221 Y104.5807
G3 X61.8078 Y104.6123 I-0.4626 J-0.1897
G1 X61.6073 Y105.0183
G3 X61.5833 Y105.0614 I-0.4483 J-0.2214
G1 X61.402 Y105.3523
G3 X61.321 Y105.4513 I-0.4243 J-0.2645
G1 X61.1845 Y105.5803
G3 X60.7121 Y105.6998 I-0.3433 J-0.3635
G1 X60.5247 Y105.6498
G3 X60.3838 Y105.5875 I0.1291 J-0.483
G1 X60.0666 Y105.3841
G3 X60.0235 Y105.3531 I0.27 J-0.4208
G1 X59.6216 Y105.0302
G3 X59.5948 Y105.0071 I0.3131 J-0.3898
G1 X59.1526 Y104.5972
G3 X59.141 Y104.5861 I0.3399 J-0.3667
G1 X58.244 Y103.6997
G1 X56.8007 Y103.9924
G1 X56.0391 Y104.15
G1 X55.4844 Y104.2827
G1 X55.1229 Y104.4014
G1 X54.9384 Y104.5026
G1 X54.859 Y104.5867
G1 X54.7974 Y104.7257
G1 X54.7414 Y105.0036
G1 X54.6905 Y105.4402
G3 X54.6859 Y105.4712 I-0.4966 J-0.0578
G1 X54.5287 Y106.3425
G3 X54.4902 Y106.464 I-0.492 J-0.0888
G1 X54.2816 Y106.914
G3 X53.8154 Y107.2035 I-0.4536 J-0.2103
G1 X53.624 Y107.1987
G3 X53.4409 Y107.159 I0.0125 J-0.4998
G1 X53.1079 Y107.0175
G3 X53.0526 Y106.9898 I0.1956 J-0.4602
G1 X52.6086 Y106.7322
G3 X52.5753 Y106.7111 I0.2509 J-0.4325
G1 X52.0558 Y106.3522
G3 X52.0466 Y106.3457 I0.2842 J-0.4114
G1 X51.6049 Y106.0256
G1 X51.2806 Y105.8129
G1 X51.052 Y105.7034
G1 X50.872 Y105.6645
G1 X50.6528 Y105.675
G1 X50.3205 Y105.7534
G1 X49.8434 Y105.913
G1 X49.1988 Y106.1519
G1 X48.4457 Y106.433
G1 X48.5342 Y107.4832
G3 X48.535 Y107.494 I-0.4982 J0.042
G1 X48.5751 Y108.1365
G3 X48.5761 Y108.1735 I-0.499 J0.0311
G1 X48.5709 Y108.6176
G3 X48.5617 Y108.7072 I-0.5 J-0.0058
G1 X48.5116 Y108.9648
G3 X48.3438 Y109.2511 I-0.4908 J-0.0954
G1 X48.2466 Y109.3333
G3 X47.789 Y109.4331 I-0.3229 J-0.3817
G1 X47.5775 Y109.374
G3 X47.5246 Y109.356 I0.1346 J-0.4815
G1 X47.1206 Y109.1926
G3 X47.103 Y109.1851 I0.1874 J-0.4635
G1 X46.5635 Y108.9425
G3 X46.5517 Y108.937 I0.2051 J-0.456
G1 X45.9373 Y108.6411
G3 X45.9325 Y108.6388 I0.2169 J-0.4505
G1 X44.6135 Y107.9864
G1 X43.3992 Y108.5742
G1 X42.3604 Y109.1656
G1 X42.0797 Y109.4993
G1 X42.0627 Y109.6402
G1 X42.067 Y109.6532
G1 X42.324 Y109.6885
G3 X42.3685 Y109.6967 I-0.0681 J0.4953
G1 X42.7415 Y109.783
G3 X43.0736 Y110.042 I-0.1127 J0.4871
G1 X43.2021 Y110.2924
G3 X43.2375 Y110.6594 I-0.4449 J0.2282
G1 X43.1392 Y110.9995
G3 X43.1069 Y111.0825 I-0.4803 J-0.1389
G1 X42.8452 Y111.6108
G3 X42.8293 Y111.6404 I-0.4481 J-0.2219
G1 X42.4523 Y112.2882
G3 X42.4409 Y112.3068 I-0.4321 J-0.2515
G1 X41.9969 Y112.9985
G3 X41.987 Y113.0133 I-0.4208 J-0.2701
G1 X41.5259 Y113.6782
G3 X41.512 Y113.6973 I-0.4109 J-0.2849
G1 X41.0798 Y114.2617
G3 X41.0543 Y114.2922 I-0.397 J-0.304
G1 X40.7014 Y114.6842
G3 X40.6022 Y114.7689 I-0.3716 J-0.3346
G1 X40.3765 Y114.9155
G3 X39.8357 Y114.918 I-0.2723 J-0.4193
G1 X39.5912 Y114.7624
G3 X39.4873 Y114.6742 I0.2685 J-0.4218
G1 X39.1173 Y114.2611
G3 X39.09 Y114.2279 I0.3724 J-0.3336
G1 X38.6446 Y113.6352
G3 X38.63 Y113.6146 I0.3997 J-0.3004
G1 X38.163 Y112.9229
G3 X38.1521 Y112.9062 I0.4144 J-0.2798
G1 X37.7119 Y112.1945
G3 X37.6995 Y112.1733 I0.4252 J-0.263
G1 X37.3395 Y111.5217
G3 X37.3208 Y111.4841 I0.4377 J-0.2418
G1 X37.0911 Y110.9707
G3 X37.0537 Y110.8451 I0.4564 J-0.2042
G1 X37.0068 Y110.5502
G3 X37.1705 Y110.096 I0.4938 J-0.0786
G1 X37.4009 Y109.8935
G3 X37.6266 Y109.7801 I0.3301 J0.3756
G1 X38.0258 Y109.6949
G3 X38.0891 Y109.6855 I0.1044 J0.489
G1 X38.1422 Y109.6812
G1 X38.1485 Y109.5808
G1 X38.126 Y109.3958
G1 X38.0523 Y109.2905
G1 X37.6893 Y109.0484
G1 X36.8848 Y108.6329
G1 X35.5706 Y107.9825
G1 X34.2495 Y108.6368
G3 X34.2441 Y108.6394 I-0.2219 J-0.4481
G1 X33.6263 Y108.9362
G3 X33.6155 Y108.9413 I-0.2165 J-0.4507
G1 X33.0783 Y109.1837
G3 X33.0623 Y109.1906 I-0.2057 J-0.4557
G1 X32.6611 Y109.3551
G3 X32.6097 Y109.373 I-0.1897 J-0.4626
G1 X32.4042 Y109.4321
G3 X31.7989 Y109.1301 I-0.1383 J-0.4805
G1 X31.6536 Y108.7502
G3 X31.6207 Y108.5745 I0.467 J-0.1785
G1 X31.6144 Y107.4887
G3 X31.6149 Y107.4625 I0.5 J-0.0029
G1 X31.6657 Y106.3725
G1 X30.5967 Y106.0099
G1 X30.0372 Y105.8234
G1 X29.5636 Y105.6714
G1 X29.2684 Y105.5822
G1 X29.0273 Y105.7342
G1 X28.6178 Y106.014
G1 X28.1295 Y106.3619
G3 X28.1204 Y106.3683 I-0.2901 J-0.4072
G1 X27.6172 Y106.7102
G3 X27.5854 Y106.73 I-0.281 J-0.4136
G1 X27.1402 Y106.986
G3 X27.0898 Y107.0113 I-0.2492 J-0.4335
G1 X26.75 Y107.1586
G3 X26.5859 Y107.1986 I-0.1988 J-0.4588
G1 X26.3974 Y107.2117
G3 X25.9043 Y106.9128 I-0.0347 J-0.4988
G1 X25.6988 Y106.4416
G3 X25.6645 Y106.3272 I0.4583 J-0.1999
G1 X25.503 Y105.3967
G3 X25.4983 Y105.3632 I0.4926 J-0.0855
G1 X25.404 Y104.4616
G1 X24.3929 Y104.2273
G3 X24.3928 I0.1128 J-0.4871
G1 X23.4538 Y104.0095
G1 X22.7704 Y103.861
G1 X22.309 Y103.7901
G1 X22.0361
G1 X21.8715 Y103.8377
G1 X21.6887 Y103.9563
G1 X21.4182 Y104.2042
G1 X21.0334 Y104.5867
G3 X21.0214 Y104.5983 I-0.3525 J-0.3546
G1 X20.5802 Y105.0086
G3 X20.5542 Y105.0311 I-0.3405 J-0.3661
G1 X20.1552 Y105.354
G3 X20.1129 Y105.3847 I-0.3145 J-0.3887
G1 X19.799 Y105.5883
G3 X19.6608 Y105.6507 I-0.2722 J-0.4194
G1 X19.4773 Y105.7017
G3 X18.9979 Y105.5814 I-0.1339 J-0.4817
G1 X18.8635 Y105.4529
G3 X18.7826 Y105.3526 I0.3455 J-0.3614
G1 X18.6052 Y105.0628
G3 X18.5822 Y105.021 I0.4264 J-0.2611
G1 X18.3837 Y104.614
G3 X18.37 Y104.5835 I0.4494 J-0.2192
G1 X18.1735 Y104.1011
G3 X18.1681 Y104.0872 I0.463 J-0.1887
G1 X17.8279 Y103.1752
G1 X16.7398 Y103.1297
G1 X15.6151 Y103.083
G1 X14.9484 Y104.1733
G3 X14.9399 Y104.1868 I-0.4266 J-0.2608
G1 X14.597 Y104.7094
G3 X14.5756 Y104.7395 I-0.418 J-0.2743
G1 X14.2488 Y105.1654
G3 X14.2144 Y105.2057 I-0.3967 J-0.3044
G1 X13.9407 Y105.4934
G3 X13.8273 Y105.5824 I-0.3623 J-0.3446
G1 X13.6438 Y105.6877
G3 X13.1689 Y105.7001 I-0.2489 J-0.4336
G1 X12.9924 Y105.6107
G3 X12.8714 Y105.5246 I0.2261 J-0.446
G1 X12.6188 Y105.2811
G3 X12.579 Y105.238 I0.347 J-0.36
G1 X12.2843 Y104.8782
G3 X12.2588 Y104.8443 I0.3868 J-0.3169
G1 X11.956 Y104.4032
G3 X11.9553 Y104.4021 I0.4122 J-0.283
G1 X11.5285 Y103.7768
G1 X11.3386 Y103.6276
G1 X11.0976 Y103.6335
G1 X10.4141 Y103.8666
G1 X10.2704 Y103.9385
G1 X10.2533 Y103.9624
G1 X10.2115 Y104.2093
G1 X10.1983 Y104.8452
G1 Y105.5772
G1 X10.3149
G3 X10.397 Y105.584 I0.0 J0.5
G1 X10.8542 Y105.6602
G3 X11.1776 Y105.8608 I-0.0821 J0.4932
G1 X11.336 Y106.0803
G3 X11.4005 Y106.5435 I-0.4055 J0.2926
G1 X11.2942 Y106.8364
G3 X11.2656 Y106.9008 I-0.47 J-0.1706
G1 X10.9839 Y107.4299
G3 X10.9736 Y107.4482 I-0.4413 J-0.235
G1 X10.5715 Y108.1324
G3 X10.5646 Y108.1439 I-0.4311 J-0.2533
G1 X10.0963 Y108.8936
G3 X10.0906 Y108.9026 I-0.4241 J-0.2649
G1 X9.6113 Y109.6346
G3 X9.6037 Y109.6459 I-0.4183 J-0.2739
G1 X9.1666 Y110.2755
G3 X9.1521 Y110.2953 I-0.4107 J-0.2852
G1 X8.8143 Y110.7344
G3 X8.75 Y110.8033 I-0.3963 J-0.3049
G1 X8.5635 Y110.9689
G3 X7.9105 Y110.9783 I-0.332 J-0.3739
G1 X7.719 Y110.8179
G3 X7.6462 Y110.7426 I0.3211 J-0.3833
G1 X7.3113 Y110.3145
G3 X7.2944 Y110.2916 I0.3939 J-0.308
G1 X6.8683 Y109.6779
G3 X6.8603 Y109.666 I0.4107 J-0.2852
G1 X6.3931 Y108.9503
G3 X6.3862 Y108.9394 I0.4187 J-0.2733
G1 X5.933 Y108.2045
G3 X5.9259 Y108.1926 I0.4256 J-0.2624
G1 X5.5359 Y107.519
G3 X5.524 Y107.497 I0.4327 J-0.2505
G1 X5.2522 Y106.9685
G3 X5.2232 Y106.8999 I0.4447 J-0.2286
G1 X5.1209 Y106.597
G3 X5.1382 Y106.233 I0.4737 J-0.1599
G1 X5.2595 Y105.9616
G3 X5.6042 Y105.6782 I0.4565 J0.204
G1 X5.9892 Y105.5899
G3 X6.101 Y105.5772 I0.1118 J0.4873
G1 X6.1163
G1 X6.1655 Y101.5022
G3 Y101.5021 I0.5 J0.006
G1 X6.2216 Y96.9342
G3 X6.6952 Y96.441 I0.5 J0.0061
G1 X8.6452 Y96.3379
G3 X8.6455 I0.0264 J0.4993
G1 X10.131 Y96.2601
G1 X10.1789 Y93.5417
G1 X10.229 Y90.7035
G1 X9.3132 Y90.3398
G3 X9.2979 Y90.3334 I0.1846 J-0.4647
G1 X8.8177 Y90.124
G3 X8.7831 Y90.1073 I0.1998 J-0.4583
G1 X8.3901 Y89.8987
G3 X8.3404 Y89.8684 I0.2344 J-0.4416
G1 X8.0747 Y89.6849
G3 X7.955 Y89.5684 I0.2842 J-0.4114
G1 X7.8578 Y89.4351
G3 X7.8543 Y88.8502 I0.4038 J-0.2948
G1 X7.9516 Y88.7136
G3 X8.0665 Y88.5981 I0.4072 J0.2901
G1 X8.3322 Y88.4066
G3 X8.3782 Y88.3772 I0.2923 J0.4056
G1 X8.7712 Y88.1547
G3 X8.8041 Y88.1376 I0.2463 J0.4351
G1 X9.2843 Y87.9109
G3 X9.2996 Y87.904 I0.2135 J0.4521
G1 X10.2298 Y87.5023
G1 X10.1789 Y84.2946
G1 X10.1281 Y81.0837
G1 X9.3067 Y80.7543
G3 X9.2719 Y80.7388 I0.1861 J-0.4641
G1 X8.4577 Y80.3378
G3 X8.3464 Y80.2628 I0.2209 J-0.4485
G1 X7.9754 Y79.933
G3 X7.9311 Y79.2304 I0.3323 J-0.3736
G1 X8.2209 Y78.8987
G3 X8.3819 Y78.7765 I0.3766 J0.3289
G1 X9.2722 Y78.3511
G3 X9.3076 Y78.3358 I0.2156 J0.4511
G1 X10.225 Y77.9813
G1 Y74.7638
G1 Y71.5472
G1 X9.3071 Y71.1916
G3 X9.2759 Y71.1782 I0.1806 J-0.4662
G1 X8.4207 Y70.7781
G3 X8.2433 Y70.6391 I0.2119 J-0.4529
G1 X7.9596 Y70.2873
