( Made using CamBam - http://www.cambam.co.uk )
( c17056_rev_3-controller plate 1/16/2013 1:34:50 PM )
( T0 : 3.175 )
G21 G90 G64 G40
G0 Z3.0
( T0 : 3.175 )
T0 M6
( Corner Circles )
G17
M3 S1000
G0 X91.0125 Y320.0
G1 F15.0 Z0.0
G2 F450.0 X89.4938 Y319.1231 Z-0.1 I-1.0125 J0.0
G2 Y320.8769 Z-0.2 I0.5063 J0.8769
G2 X91.0125 Y320.0 Z-0.3 I0.5063 J-0.8769
G2 X89.4938 Y319.1231 Z-0.4 I-1.0125 J0.0
G2 Y320.8769 Z-0.5 I0.5063 J0.8769
G2 X91.0125 Y320.0 Z-0.6 I0.5063 J-0.8769
G2 X89.4938 Y319.1231 Z-0.7 I-1.0125 J0.0
G2 Y320.8769 Z-0.8 I0.5063 J0.8769
G2 X91.0125 Y320.0 Z-0.9 I0.5063 J-0.8769
G2 X89.4938 Y319.1231 Z-1.0 I-1.0125 J0.0
G2 Y320.8769 Z-1.1 I0.5063 J0.8769
G2 X91.0125 Y320.0 Z-1.2 I0.5063 J-0.8769
G2 X89.4938 Y319.1231 Z-1.3 I-1.0125 J0.0
G2 Y320.8769 Z-1.4 I0.5063 J0.8769
G2 X91.0125 Y320.0 Z-1.5 I0.5063 J-0.8769
G2 X89.4938 Y319.1231 Z-1.6 I-1.0125 J0.0
G2 Y320.8769 Z-1.7 I0.5063 J0.8769
G2 X91.0125 Y320.0 Z-1.8 I0.5063 J-0.8769
G2 X89.4938 Y319.1231 Z-1.9 I-1.0125 J0.0
G2 Y320.8769 Z-2.0 I0.5063 J0.8769
G2 X91.0125 Y320.0 Z-2.1 I0.5063 J-0.8769
G2 X89.4938 Y319.1231 Z-2.2 I-1.0125 J0.0
G2 Y320.8769 Z-2.3 I0.5063 J0.8769
G2 X91.0125 Y320.0 Z-2.4 I0.5063 J-0.8769
G2 X89.4938 Y319.1231 Z-2.5 I-1.0125 J0.0
G2 Y320.8769 Z-2.6 I0.5063 J0.8769
G2 X91.0125 Y320.0 Z-2.7 I0.5063 J-0.8769
G2 X89.4938 Y319.1231 Z-2.8 I-1.0125 J0.0
G2 Y320.8769 Z-2.9 I0.5063 J0.8769
G2 X91.0125 Y320.0 Z-3.0 I0.5063 J-0.8769
G2 X89.4938 Y319.1231 Z-3.1 I-1.0125 J0.0
G2 Y320.8769 Z-3.2 I0.5063 J0.8769
G2 X91.0125 Y320.0 Z-3.3 I0.5063 J-0.8769
G2 X89.4938 Y319.1231 Z-3.4 I-1.0125 J0.0
G2 Y320.8769 Z-3.5 I0.5063 J0.8769
G2 X91.0125 Y320.0 Z-3.6 I0.5063 J-0.8769
G2 X89.4938 Y319.1231 I-1.0125 J0.0
G2 Y320.8769 I0.5063 J0.8769
G2 X91.0125 Y320.0 I0.5063 J-0.8769
G0 Z3.0
G0 X11.0125
G1 F15.0 Z0.0
G2 F450.0 X9.4938 Y319.1231 Z-0.1 I-1.0125 J0.0
G2 Y320.8769 Z-0.2 I0.5063 J0.8769
G2 X11.0125 Y320.0 Z-0.3 I0.5063 J-0.8769
G2 X9.4938 Y319.1231 Z-0.4 I-1.0125 J0.0
G2 Y320.8769 Z-0.5 I0.5063 J0.8769
G2 X11.0125 Y320.0 Z-0.6 I0.5063 J-0.8769
G2 X9.4938 Y319.1231 Z-0.7 I-1.0125 J0.0
G2 Y320.8769 Z-0.8 I0.5063 J0.8769
G2 X11.0125 Y320.0 Z-0.9 I0.5063 J-0.8769
G2 X9.4938 Y319.1231 Z-1.0 I-1.0125 J0.0
G2 Y320.8769 Z-1.1 I0.5063 J0.8769
G2 X11.0125 Y320.0 Z-1.2 I0.5063 J-0.8769
G2 X9.4938 Y319.1231 Z-1.3 I-1.0125 J0.0
G2 Y320.8769 Z-1.4 I0.5063 J0.8769
G2 X11.0125 Y320.0 Z-1.5 I0.5063 J-0.8769
G2 X9.4938 Y319.1231 Z-1.6 I-1.0125 J0.0
G2 Y320.8769 Z-1.7 I0.5063 J0.8769
G2 X11.0125 Y320.0 Z-1.8 I0.5063 J-0.8769
G2 X9.4938 Y319.1231 Z-1.9 I-1.0125 J0.0
G2 Y320.8769 Z-2.0 I0.5063 J0.8769
G2 X11.0125 Y320.0 Z-2.1 I0.5063 J-0.8769
G2 X9.4938 Y319.1231 Z-2.2 I-1.0125 J0.0
G2 Y320.8769 Z-2.3 I0.5063 J0.8769
G2 X11.0125 Y320.0 Z-2.4 I0.5063 J-0.8769
G2 X9.4938 Y319.1231 Z-2.5 I-1.0125 J0.0
G2 Y320.8769 Z-2.6 I0.5063 J0.8769
G2 X11.0125 Y320.0 Z-2.7 I0.5063 J-0.8769
G2 X9.4938 Y319.1231 Z-2.8 I-1.0125 J0.0
G2 Y320.8769 Z-2.9 I0.5063 J0.8769
G2 X11.0125 Y320.0 Z-3.0 I0.5063 J-0.8769
G2 X9.4938 Y319.1231 Z-3.1 I-1.0125 J0.0
G2 Y320.8769 Z-3.2 I0.5063 J0.8769
G2 X11.0125 Y320.0 Z-3.3 I0.5063 J-0.8769
G2 X9.4938 Y319.1231 Z-3.4 I-1.0125 J0.0
G2 Y320.8769 Z-3.5 I0.5063 J0.8769
G2 X11.0125 Y320.0 Z-3.6 I0.5063 J-0.8769
G2 X9.4938 Y319.1231 I-1.0125 J0.0
G2 Y320.8769 I0.5063 J0.8769
G2 X11.0125 Y320.0 I0.5063 J-0.8769
G0 Z3.0
G0 X10.0033 Y11.0125
G1 F15.0 Z0.0
G2 F450.0 X11.0125 Y10.0 Z-0.0748 I-0.0033 J-1.0125
G2 X9.4938 Y9.1231 Z-0.1748 I-1.0125 J0.0
G2 Y10.8769 Z-0.2748 I0.5063 J0.8769
G2 X10.0033 Y11.0125 Z-0.3 I0.5063 J-0.8769
G2 X11.0125 Y10.0 Z-0.3748 I-0.0033 J-1.0125
G2 X9.4938 Y9.1231 Z-0.4748 I-1.0125 J0.0
G2 Y10.8769 Z-0.5748 I0.5063 J0.8769
G2 X10.0033 Y11.0125 Z-0.6 I0.5063 J-0.8769
G2 X11.0125 Y10.0 Z-0.6748 I-0.0033 J-1.0125
G2 X9.4938 Y9.1231 Z-0.7748 I-1.0125 J0.0
G2 Y10.8769 Z-0.8748 I0.5063 J0.8769
G2 X10.0033 Y11.0125 Z-0.9 I0.5063 J-0.8769
G2 X11.0125 Y10.0 Z-0.9748 I-0.0033 J-1.0125
G2 X9.4938 Y9.1231 Z-1.0748 I-1.0125 J0.0
G2 Y10.8769 Z-1.1748 I0.5063 J0.8769
G2 X10.0033 Y11.0125 Z-1.2 I0.5063 J-0.8769
G2 X11.0125 Y10.0 Z-1.2748 I-0.0033 J-1.0125
G2 X9.4938 Y9.1231 Z-1.3748 I-1.0125 J0.0
G2 Y10.8769 Z-1.4748 I0.5063 J0.8769
G2 X10.0033 Y11.0125 Z-1.5 I0.5063 J-0.8769
G2 X11.0125 Y10.0 Z-1.5748 I-0.0033 J-1.0125
G2 X9.4938 Y9.1231 Z-1.6748 I-1.0125 J0.0
G2 Y10.8769 Z-1.7748 I0.5063 J0.8769
G2 X10.0033 Y11.0125 Z-1.8 I0.5063 J-0.8769
G2 X11.0125 Y10.0 Z-1.8748 I-0.0033 J-1.0125
G2 X9.4938 Y9.1231 Z-1.9748 I-1.0125 J0.0
G2 Y10.8769 Z-2.0748 I0.5063 J0.8769
G2 X10.0033 Y11.0125 Z-2.1 I0.5063 J-0.8769
G2 X11.0125 Y10.0 Z-2.1748 I-0.0033 J-1.0125
G2 X9.4938 Y9.1231 Z-2.2748 I-1.0125 J0.0
G2 Y10.8769 Z-2.3748 I0.5063 J0.8769
G2 X10.0033 Y11.0125 Z-2.4 I0.5063 J-0.8769
G2 X11.0125 Y10.0 Z-2.4748 I-0.0033 J-1.0125
G2 X9.4938 Y9.1231 Z-2.5748 I-1.0125 J0.0
G2 Y10.8769 Z-2.6748 I0.5063 J0.8769
G2 X10.0033 Y11.0125 Z-2.7 I0.5063 J-0.8769
G2 X11.0125 Y10.0 Z-2.7748 I-0.0033 J-1.0125
G2 X9.4938 Y9.1231 Z-2.8748 I-1.0125 J0.0
G2 Y10.8769 Z-2.9748 I0.5063 J0.8769
G2 X10.0033 Y11.0125 Z-3.0 I0.5063 J-0.8769
G2 X11.0125 Y10.0 Z-3.0748 I-0.0033 J-1.0125
G2 X9.4938 Y9.1231 Z-3.1748 I-1.0125 J0.0
G2 Y10.8769 Z-3.2748 I0.5063 J0.8769
G2 X10.0033 Y11.0125 Z-3.3 I0.5063 J-0.8769
G2 X11.0125 Y10.0 Z-3.3748 I-0.0033 J-1.0125
G2 X9.4938 Y9.1231 Z-3.4748 I-1.0125 J0.0
G2 Y10.8769 Z-3.5748 I0.5063 J0.8769
G2 X10.0033 Y11.0125 Z-3.6 I0.5063 J-0.8769
G2 X11.0125 Y10.0 I-0.0033 J-1.0125
G2 X9.4938 Y9.1231 I-1.0125 J0.0
G2 Y10.8769 I0.5063 J0.8769
G2 X10.0033 Y11.0125 I0.5063 J-0.8769
G0 Z3.0
G0 X88.9876 Y10.0128
G1 F15.0 Z0.0
G2 F450.0 X89.4938 Y10.8769 Z-0.0494 I1.0124 J-0.0128
G2 X91.0125 Y10.0 Z-0.1494 I0.5063 J-0.8769
G2 X89.4938 Y9.1231 Z-0.2494 I-1.0125 J0.0
G2 X88.9876 Y10.0128 Z-0.3 I0.5063 J0.8769
G2 X89.4938 Y10.8769 Z-0.3494 I1.0124 J-0.0128
G2 X91.0125 Y10.0 Z-0.4494 I0.5063 J-0.8769
G2 X89.4938 Y9.1231 Z-0.5494 I-1.0125 J0.0
G2 X88.9876 Y10.0128 Z-0.6 I0.5063 J0.8769
G2 X89.4938 Y10.8769 Z-0.6494 I1.0124 J-0.0128
G2 X91.0125 Y10.0 Z-0.7494 I0.5063 J-0.8769
G2 X89.4938 Y9.1231 Z-0.8494 I-1.0125 J0.0
G2 X88.9876 Y10.0128 Z-0.9 I0.5063 J0.8769
G2 X89.4938 Y10.8769 Z-0.9494 I1.0124 J-0.0128
G2 X91.0125 Y10.0 Z-1.0494 I0.5063 J-0.8769
G2 X89.4938 Y9.1231 Z-1.1494 I-1.0125 J0.0
G2 X88.9876 Y10.0128 Z-1.2 I0.5063 J0.8769
G2 X89.4938 Y10.8769 Z-1.2494 I1.0124 J-0.0128
G2 X91.0125 Y10.0 Z-1.3494 I0.5063 J-0.8769
G2 X89.4938 Y9.1231 Z-1.4494 I-1.0125 J0.0
G2 X88.9876 Y10.0128 Z-1.5 I0.5063 J0.8769
G2 X89.4938 Y10.8769 Z-1.5494 I1.0124 J-0.0128
G2 X91.0125 Y10.0 Z-1.6494 I0.5063 J-0.8769
G2 X89.4938 Y9.1231 Z-1.7494 I-1.0125 J0.0
G2 X88.9876 Y10.0128 Z-1.8 I0.5063 J0.8769
G2 X89.4938 Y10.8769 Z-1.8494 I1.0124 J-0.0128
G2 X91.0125 Y10.0 Z-1.9494 I0.5063 J-0.8769
G2 X89.4938 Y9.1231 Z-2.0494 I-1.0125 J0.0
G2 X88.9876 Y10.0128 Z-2.1 I0.5063 J0.8769
G2 X89.4938 Y10.8769 Z-2.1494 I1.0124 J-0.0128
G2 X91.0125 Y10.0 Z-2.2494 I0.5063 J-0.8769
G2 X89.4938 Y9.1231 Z-2.3494 I-1.0125 J0.0
G2 X88.9876 Y10.0128 Z-2.4 I0.5063 J0.8769
G2 X89.4938 Y10.8769 Z-2.4494 I1.0124 J-0.0128
G2 X91.0125 Y10.0 Z-2.5494 I0.5063 J-0.8769
G2 X89.4938 Y9.1231 Z-2.6494 I-1.0125 J0.0
G2 X88.9876 Y10.0128 Z-2.7 I0.5063 J0.8769
G2 X89.4938 Y10.8769 Z-2.7494 I1.0124 J-0.0128
G2 X91.0125 Y10.0 Z-2.8494 I0.5063 J-0.8769
G2 X89.4938 Y9.1231 Z-2.9494 I-1.0125 J0.0
G2 X88.9876 Y10.0128 Z-3.0 I0.5063 J0.8769
G2 X89.4938 Y10.8769 Z-3.0494 I1.0124 J-0.0128
G2 X91.0125 Y10.0 Z-3.1494 I0.5063 J-0.8769
G2 X89.4938 Y9.1231 Z-3.2494 I-1.0125 J0.0
G2 X88.9876 Y10.0128 Z-3.3 I0.5063 J0.8769
G2 X89.4938 Y10.8769 Z-3.3494 I1.0124 J-0.0128
G2 X91.0125 Y10.0 Z-3.4494 I0.5063 J-0.8769
G2 X89.4938 Y9.1231 Z-3.5494 I-1.0125 J0.0
G2 X88.9876 Y10.0128 Z-3.6 I0.5063 J0.8769
G2 X89.4938 Y10.8769 I1.0124 J-0.0128
G2 X91.0125 Y10.0 I0.5063 J-0.8769
G2 X89.4938 Y9.1231 I-1.0125 J0.0
G2 X88.9876 Y10.0128 I0.5063 J0.8769
( Little Circles )
S1000
G0 Z3.0
G0 X24.325 Y236.0
G1 F15.0 Z0.0
G2 F450.0 X23.8375 Y235.7185 Z-0.1 I-0.325 J0.0
G2 Y236.2815 Z-0.2 I0.1625 J0.2815
G2 X24.325 Y236.0 Z-0.3 I0.1625 J-0.2815
G2 X23.8375 Y235.7185 Z-0.4 I-0.325 J0.0
G2 Y236.2815 Z-0.5 I0.1625 J0.2815
G2 X24.325 Y236.0 Z-0.6 I0.1625 J-0.2815
G2 X23.8375 Y235.7185 Z-0.7 I-0.325 J0.0
G2 Y236.2815 Z-0.8 I0.1625 J0.2815
G2 X24.325 Y236.0 Z-0.9 I0.1625 J-0.2815
G2 X23.8375 Y235.7185 Z-1.0 I-0.325 J0.0
G2 Y236.2815 Z-1.1 I0.1625 J0.2815
G2 X24.325 Y236.0 Z-1.2 I0.1625 J-0.2815
G2 X23.8375 Y235.7185 Z-1.3 I-0.325 J0.0
G2 Y236.2815 Z-1.4 I0.1625 J0.2815
G2 X24.325 Y236.0 Z-1.5 I0.1625 J-0.2815
G2 X23.8375 Y235.7185 Z-1.6 I-0.325 J0.0
G2 Y236.2815 Z-1.7 I0.1625 J0.2815
G2 X24.325 Y236.0 Z-1.8 I0.1625 J-0.2815
G2 X23.8375 Y235.7185 Z-1.9 I-0.325 J0.0
G2 Y236.2815 Z-2.0 I0.1625 J0.2815
G2 X24.325 Y236.0 Z-2.1 I0.1625 J-0.2815
G2 X23.8375 Y235.7185 Z-2.2 I-0.325 J0.0
G2 Y236.2815 Z-2.3 I0.1625 J0.2815
G2 X24.325 Y236.0 Z-2.4 I0.1625 J-0.2815
G2 X23.8375 Y235.7185 Z-2.5 I-0.325 J0.0
G2 Y236.2815 Z-2.6 I0.1625 J0.2815
G2 X24.325 Y236.0 Z-2.7 I0.1625 J-0.2815
G2 X23.8375 Y235.7185 Z-2.8 I-0.325 J0.0
G2 Y236.2815 Z-2.9 I0.1625 J0.2815
G2 X24.325 Y236.0 Z-3.0 I0.1625 J-0.2815
G2 X23.8375 Y235.7185 Z-3.1 I-0.325 J0.0
G2 Y236.2815 Z-3.2 I0.1625 J0.2815
G2 X24.325 Y236.0 Z-3.3 I0.1625 J-0.2815
G2 X23.8375 Y235.7185 Z-3.4 I-0.325 J0.0
G2 Y236.2815 Z-3.5 I0.1625 J0.2815
G2 X24.325 Y236.0 Z-3.6 I0.1625 J-0.2815
G2 X23.8375 Y235.7185 I-0.325 J0.0
G2 Y236.2815 I0.1625 J0.2815
G2 X24.325 Y236.0 I0.1625 J-0.2815
G0 Z3.0
G0 X14.245 Y244.7864
G1 F15.0 Z0.0
G2 F450.0 X13.8375 Y244.7185 Z-0.0658 I-0.245 J0.2136
G2 Y245.2815 Z-0.1658 I0.1625 J0.2815
G2 X14.325 Y245.0 Z-0.2658 I0.1625 J-0.2815
G2 X14.245 Y244.7864 Z-0.3 I-0.325 J0.0
G2 X13.8375 Y244.7185 Z-0.3658 I-0.245 J0.2136
G2 Y245.2815 Z-0.4658 I0.1625 J0.2815
G2 X14.325 Y245.0 Z-0.5658 I0.1625 J-0.2815
G2 X14.245 Y244.7864 Z-0.6 I-0.325 J0.0
G2 X13.8375 Y244.7185 Z-0.6658 I-0.245 J0.2136
G2 Y245.2815 Z-0.7658 I0.1625 J0.2815
G2 X14.325 Y245.0 Z-0.8658 I0.1625 J-0.2815
G2 X14.245 Y244.7864 Z-0.9 I-0.325 J0.0
G2 X13.8375 Y244.7185 Z-0.9658 I-0.245 J0.2136
G2 Y245.2815 Z-1.0658 I0.1625 J0.2815
G2 X14.325 Y245.0 Z-1.1658 I0.1625 J-0.2815
G2 X14.245 Y244.7864 Z-1.2 I-0.325 J0.0
G2 X13.8375 Y244.7185 Z-1.2658 I-0.245 J0.2136
G2 Y245.2815 Z-1.3658 I0.1625 J0.2815
G2 X14.325 Y245.0 Z-1.4658 I0.1625 J-0.2815
G2 X14.245 Y244.7864 Z-1.5 I-0.325 J0.0
G2 X13.8375 Y244.7185 Z-1.5658 I-0.245 J0.2136
G2 Y245.2815 Z-1.6658 I0.1625 J0.2815
G2 X14.325 Y245.0 Z-1.7658 I0.1625 J-0.2815
G2 X14.245 Y244.7864 Z-1.8 I-0.325 J0.0
G2 X13.8375 Y244.7185 Z-1.8658 I-0.245 J0.2136
G2 Y245.2815 Z-1.9658 I0.1625 J0.2815
G2 X14.325 Y245.0 Z-2.0658 I0.1625 J-0.2815
G2 X14.245 Y244.7864 Z-2.1 I-0.325 J0.0
G2 X13.8375 Y244.7185 Z-2.1658 I-0.245 J0.2136
G2 Y245.2815 Z-2.2658 I0.1625 J0.2815
G2 X14.325 Y245.0 Z-2.3658 I0.1625 J-0.2815
G2 X14.245 Y244.7864 Z-2.4 I-0.325 J0.0
G2 X13.8375 Y244.7185 Z-2.4658 I-0.245 J0.2136
G2 Y245.2815 Z-2.5658 I0.1625 J0.2815
G2 X14.325 Y245.0 Z-2.6658 I0.1625 J-0.2815
G2 X14.245 Y244.7864 Z-2.7 I-0.325 J0.0
G2 X13.8375 Y244.7185 Z-2.7658 I-0.245 J0.2136
G2 Y245.2815 Z-2.8658 I0.1625 J0.2815
G2 X14.325 Y245.0 Z-2.9658 I0.1625 J-0.2815
G2 X14.245 Y244.7864 Z-3.0 I-0.325 J0.0
G2 X13.8375 Y244.7185 Z-3.0658 I-0.245 J0.2136
G2 Y245.2815 Z-3.1658 I0.1625 J0.2815
G2 X14.325 Y245.0 Z-3.2658 I0.1625 J-0.2815
G2 X14.245 Y244.7864 Z-3.3 I-0.325 J0.0
G2 X13.8375 Y244.7185 Z-3.3658 I-0.245 J0.2136
G2 Y245.2815 Z-3.4658 I0.1625 J0.2815
G2 X14.325 Y245.0 Z-3.5658 I0.1625 J-0.2815
G2 X14.245 Y244.7864 Z-3.6 I-0.325 J0.0
G2 X13.8375 Y244.7185 I-0.245 J0.2136
G2 Y245.2815 I0.1625 J0.2815
G2 X14.325 Y245.0 I0.1625 J-0.2815
G2 X14.245 Y244.7864 I-0.325 J0.0
G0 Z3.0
G0 X6.3249 Y244.9916
G1 F15.0 Z0.0
G2 F450.0 X5.8375 Y244.7185 Z-0.0988 I-0.3249 J0.0084
G2 Y245.2815 Z-0.1988 I0.1625 J0.2815
G2 X6.325 Y245.0 Z-0.2988 I0.1625 J-0.2815
G2 X6.3249 Y244.9916 Z-0.3 I-0.325 J0.0
G2 X5.8375 Y244.7185 Z-0.3988 I-0.3249 J0.0084
G2 Y245.2815 Z-0.4988 I0.1625 J0.2815
G2 X6.325 Y245.0 Z-0.5988 I0.1625 J-0.2815
G2 X6.3249 Y244.9916 Z-0.6 I-0.325 J0.0
G2 X5.8375 Y244.7185 Z-0.6988 I-0.3249 J0.0084
G2 Y245.2815 Z-0.7988 I0.1625 J0.2815
G2 X6.325 Y245.0 Z-0.8988 I0.1625 J-0.2815
G2 X6.3249 Y244.9916 Z-0.9 I-0.325 J0.0
G2 X5.8375 Y244.7185 Z-0.9988 I-0.3249 J0.0084
G2 Y245.2815 Z-1.0988 I0.1625 J0.2815
G2 X6.325 Y245.0 Z-1.1988 I0.1625 J-0.2815
G2 X6.3249 Y244.9916 Z-1.2 I-0.325 J0.0
G2 X5.8375 Y244.7185 Z-1.2988 I-0.3249 J0.0084
G2 Y245.2815 Z-1.3988 I0.1625 J0.2815
G2 X6.325 Y245.0 Z-1.4988 I0.1625 J-0.2815
G2 X6.3249 Y244.9916 Z-1.5 I-0.325 J0.0
G2 X5.8375 Y244.7185 Z-1.5988 I-0.3249 J0.0084
G2 Y245.2815 Z-1.6988 I0.1625 J0.2815
G2 X6.325 Y245.0 Z-1.7988 I0.1625 J-0.2815
G2 X6.3249 Y244.9916 Z-1.8 I-0.325 J0.0
G2 X5.8375 Y244.7185 Z-1.8988 I-0.3249 J0.0084
G2 Y245.2815 Z-1.9988 I0.1625 J0.2815
G2 X6.325 Y245.0 Z-2.0988 I0.1625 J-0.2815
G2 X6.3249 Y244.9916 Z-2.1 I-0.325 J0.0
G2 X5.8375 Y244.7185 Z-2.1988 I-0.3249 J0.0084
G2 Y245.2815 Z-2.2988 I0.1625 J0.2815
G2 X6.325 Y245.0 Z-2.3988 I0.1625 J-0.2815
G2 X6.3249 Y244.9916 Z-2.4 I-0.325 J0.0
G2 X5.8375 Y244.7185 Z-2.4988 I-0.3249 J0.0084
G2 Y245.2815 Z-2.5988 I0.1625 J0.2815
G2 X6.325 Y245.0 Z-2.6988 I0.1625 J-0.2815
G2 X6.3249 Y244.9916 Z-2.7 I-0.325 J0.0
G2 X5.8375 Y244.7185 Z-2.7988 I-0.3249 J0.0084
G2 Y245.2815 Z-2.8988 I0.1625 J0.2815
G2 X6.325 Y245.0 Z-2.9988 I0.1625 J-0.2815
G2 X6.3249 Y244.9916 Z-3.0 I-0.325 J0.0
G2 X5.8375 Y244.7185 Z-3.0988 I-0.3249 J0.0084
G2 Y245.2815 Z-3.1988 I0.1625 J0.2815
G2 X6.325 Y245.0 Z-3.2988 I0.1625 J-0.2815
G2 X6.3249 Y244.9916 Z-3.3 I-0.325 J0.0
G2 X5.8375 Y244.7185 Z-3.3988 I-0.3249 J0.0084
G2 Y245.2815 Z-3.4988 I0.1625 J0.2815
G2 X6.325 Y245.0 Z-3.5988 I0.1625 J-0.2815
G2 X6.3249 Y244.9916 Z-3.6 I-0.325 J0.0
G2 X5.8375 Y244.7185 I-0.3249 J0.0084
G2 Y245.2815 I0.1625 J0.2815
G2 X6.325 Y245.0 I0.1625 J-0.2815
G2 X6.3249 Y244.9916 I-0.325 J0.0
G0 Z3.0
G0 X6.0035 Y215.325
G1 F15.0 Z0.0
G2 F450.0 X6.325 Y215.0 Z-0.0745 I-0.0035 J-0.325
G2 X5.8375 Y214.7185 Z-0.1745 I-0.325 J0.0
G2 Y215.2815 Z-0.2745 I0.1625 J0.2815
G2 X6.0035 Y215.325 Z-0.3 I0.1625 J-0.2815
G2 X6.325 Y215.0 Z-0.3745 I-0.0035 J-0.325
G2 X5.8375 Y214.7185 Z-0.4745 I-0.325 J0.0
G2 Y215.2815 Z-0.5745 I0.1625 J0.2815
G2 X6.0035 Y215.325 Z-0.6 I0.1625 J-0.2815
G2 X6.325 Y215.0 Z-0.6745 I-0.0035 J-0.325
G2 X5.8375 Y214.7185 Z-0.7745 I-0.325 J0.0
G2 Y215.2815 Z-0.8745 I0.1625 J0.2815
G2 X6.0035 Y215.325 Z-0.9 I0.1625 J-0.2815
G2 X6.325 Y215.0 Z-0.9745 I-0.0035 J-0.325
G2 X5.8375 Y214.7185 Z-1.0745 I-0.325 J0.0
G2 Y215.2815 Z-1.1745 I0.1625 J0.2815
G2 X6.0035 Y215.325 Z-1.2 I0.1625 J-0.2815
G2 X6.325 Y215.0 Z-1.2745 I-0.0035 J-0.325
G2 X5.8375 Y214.7185 Z-1.3745 I-0.325 J0.0
G2 Y215.2815 Z-1.4745 I0.1625 J0.2815
G2 X6.0035 Y215.325 Z-1.5 I0.1625 J-0.2815
G2 X6.325 Y215.0 Z-1.5745 I-0.0035 J-0.325
G2 X5.8375 Y214.7185 Z-1.6745 I-0.325 J0.0
G2 Y215.2815 Z-1.7745 I0.1625 J0.2815
G2 X6.0035 Y215.325 Z-1.8 I0.1625 J-0.2815
G2 X6.325 Y215.0 Z-1.8745 I-0.0035 J-0.325
G2 X5.8375 Y214.7185 Z-1.9745 I-0.325 J0.0
G2 Y215.2815 Z-2.0745 I0.1625 J0.2815
G2 X6.0035 Y215.325 Z-2.1 I0.1625 J-0.2815
G2 X6.325 Y215.0 Z-2.1745 I-0.0035 J-0.325
G2 X5.8375 Y214.7185 Z-2.2745 I-0.325 J0.0
G2 Y215.2815 Z-2.3745 I0.1625 J0.2815
G2 X6.0035 Y215.325 Z-2.4 I0.1625 J-0.2815
G2 X6.325 Y215.0 Z-2.4745 I-0.0035 J-0.325
G2 X5.8375 Y214.7185 Z-2.5745 I-0.325 J0.0
G2 Y215.2815 Z-2.6745 I0.1625 J0.2815
G2 X6.0035 Y215.325 Z-2.7 I0.1625 J-0.2815
G2 X6.325 Y215.0 Z-2.7745 I-0.0035 J-0.325
G2 X5.8375 Y214.7185 Z-2.8745 I-0.325 J0.0
G2 Y215.2815 Z-2.9745 I0.1625 J0.2815
G2 X6.0035 Y215.325 Z-3.0 I0.1625 J-0.2815
G2 X6.325 Y215.0 Z-3.0745 I-0.0035 J-0.325
G2 X5.8375 Y214.7185 Z-3.1745 I-0.325 J0.0
G2 Y215.2815 Z-3.2745 I0.1625 J0.2815
G2 X6.0035 Y215.325 Z-3.3 I0.1625 J-0.2815
G2 X6.325 Y215.0 Z-3.3745 I-0.0035 J-0.325
G2 X5.8375 Y214.7185 Z-3.4745 I-0.325 J0.0
G2 Y215.2815 Z-3.5745 I0.1625 J0.2815
G2 X6.0035 Y215.325 Z-3.6 I0.1625 J-0.2815
G2 X6.325 Y215.0 I-0.0035 J-0.325
G2 X5.8375 Y214.7185 I-0.325 J0.0
G2 Y215.2815 I0.1625 J0.2815
G2 X6.0035 Y215.325 I0.1625 J-0.2815
G0 Z3.0
G0 X13.6753 Y215.0132
G1 F15.0 Z0.0
G2 F450.0 X13.8375 Y215.2815 Z-0.0481 I0.3247 J-0.0132
G2 X14.325 Y215.0 Z-0.1481 I0.1625 J-0.2815
G2 X13.8375 Y214.7185 Z-0.2481 I-0.325 J0.0
G2 X13.6753 Y215.0132 Z-0.3 I0.1625 J0.2815
G2 X13.8375 Y215.2815 Z-0.3481 I0.3247 J-0.0132
G2 X14.325 Y215.0 Z-0.4481 I0.1625 J-0.2815
G2 X13.8375 Y214.7185 Z-0.5481 I-0.325 J0.0
G2 X13.6753 Y215.0132 Z-0.6 I0.1625 J0.2815
G2 X13.8375 Y215.2815 Z-0.6481 I0.3247 J-0.0132
G2 X14.325 Y215.0 Z-0.7481 I0.1625 J-0.2815
G2 X13.8375 Y214.7185 Z-0.8481 I-0.325 J0.0
G2 X13.6753 Y215.0132 Z-0.9 I0.1625 J0.2815
G2 X13.8375 Y215.2815 Z-0.9481 I0.3247 J-0.0132
G2 X14.325 Y215.0 Z-1.0481 I0.1625 J-0.2815
G2 X13.8375 Y214.7185 Z-1.1481 I-0.325 J0.0
G2 X13.6753 Y215.0132 Z-1.2 I0.1625 J0.2815
G2 X13.8375 Y215.2815 Z-1.2481 I0.3247 J-0.0132
G2 X14.325 Y215.0 Z-1.3481 I0.1625 J-0.2815
G2 X13.8375 Y214.7185 Z-1.4481 I-0.325 J0.0
G2 X13.6753 Y215.0132 Z-1.5 I0.1625 J0.2815
G2 X13.8375 Y215.2815 Z-1.5481 I0.3247 J-0.0132
G2 X14.325 Y215.0 Z-1.6481 I0.1625 J-0.2815
G2 X13.8375 Y214.7185 Z-1.7481 I-0.325 J0.0
G2 X13.6753 Y215.0132 Z-1.8 I0.1625 J0.2815
G2 X13.8375 Y215.2815 Z-1.8481 I0.3247 J-0.0132
G2 X14.325 Y215.0 Z-1.9481 I0.1625 J-0.2815
G2 X13.8375 Y214.7185 Z-2.0481 I-0.325 J0.0
G2 X13.6753 Y215.0132 Z-2.1 I0.1625 J0.2815
G2 X13.8375 Y215.2815 Z-2.1481 I0.3247 J-0.0132
G2 X14.325 Y215.0 Z-2.2481 I0.1625 J-0.2815
G2 X13.8375 Y214.7185 Z-2.3481 I-0.325 J0.0
G2 X13.6753 Y215.0132 Z-2.4 I0.1625 J0.2815
G2 X13.8375 Y215.2815 Z-2.4481 I0.3247 J-0.0132
G2 X14.325 Y215.0 Z-2.5481 I0.1625 J-0.2815
G2 X13.8375 Y214.7185 Z-2.6481 I-0.325 J0.0
G2 X13.6753 Y215.0132 Z-2.7 I0.1625 J0.2815
G2 X13.8375 Y215.2815 Z-2.7481 I0.3247 J-0.0132
G2 X14.325 Y215.0 Z-2.8481 I0.1625 J-0.2815
G2 X13.8375 Y214.7185 Z-2.9481 I-0.325 J0.0
G2 X13.6753 Y215.0132 Z-3.0 I0.1625 J0.2815
G2 X13.8375 Y215.2815 Z-3.0481 I0.3247 J-0.0132
G2 X14.325 Y215.0 Z-3.1481 I0.1625 J-0.2815
G2 X13.8375 Y214.7185 Z-3.2481 I-0.325 J0.0
G2 X13.6753 Y215.0132 Z-3.3 I0.1625 J0.2815
G2 X13.8375 Y215.2815 Z-3.3481 I0.3247 J-0.0132
G2 X14.325 Y215.0 Z-3.4481 I0.1625 J-0.2815
G2 X13.8375 Y214.7185 Z-3.5481 I-0.325 J0.0
G2 X13.6753 Y215.0132 Z-3.6 I0.1625 J0.2815
G2 X13.8375 Y215.2815 I0.3247 J-0.0132
G2 X14.325 Y215.0 I0.1625 J-0.2815
G2 X13.8375 Y214.7185 I-0.325 J0.0
G2 X13.6753 Y215.0132 I0.1625 J0.2815
G0 Z3.0
G0 X20.1965 Y212.8628
G1 F15.0 Z0.0
G2 F450.0 X20.3427 Y213.0425 Z-0.0348 I0.3087 J-0.1018
G2 X20.8302 Y212.761 Z-0.1348 I0.1625 J-0.2815
G2 X20.3427 Y212.4795 Z-0.2348 I-0.325 J0.0
G2 X20.1965 Y212.8628 Z-0.3 I0.1625 J0.2815
G2 X20.3427 Y213.0425 Z-0.3348 I0.3087 J-0.1018
G2 X20.8302 Y212.761 Z-0.4348 I0.1625 J-0.2815
G2 X20.3427 Y212.4795 Z-0.5348 I-0.325 J0.0
G2 X20.1965 Y212.8628 Z-0.6 I0.1625 J0.2815
G2 X20.3427 Y213.0425 Z-0.6348 I0.3087 J-0.1018
G2 X20.8302 Y212.761 Z-0.7348 I0.1625 J-0.2815
G2 X20.3427 Y212.4795 Z-0.8348 I-0.325 J0.0
G2 X20.1965 Y212.8628 Z-0.9 I0.1625 J0.2815
G2 X20.3427 Y213.0425 Z-0.9348 I0.3087 J-0.1018
G2 X20.8302 Y212.761 Z-1.0348 I0.1625 J-0.2815
G2 X20.3427 Y212.4795 Z-1.1348 I-0.325 J0.0
G2 X20.1965 Y212.8628 Z-1.2 I0.1625 J0.2815
G2 X20.3427 Y213.0425 Z-1.2348 I0.3087 J-0.1018
G2 X20.8302 Y212.761 Z-1.3348 I0.1625 J-0.2815
G2 X20.3427 Y212.4795 Z-1.4348 I-0.325 J0.0
G2 X20.1965 Y212.8628 Z-1.5 I0.1625 J0.2815
G2 X20.3427 Y213.0425 Z-1.5348 I0.3087 J-0.1018
G2 X20.8302 Y212.761 Z-1.6348 I0.1625 J-0.2815
G2 X20.3427 Y212.4795 Z-1.7348 I-0.325 J0.0
G2 X20.1965 Y212.8628 Z-1.8 I0.1625 J0.2815
G2 X20.3427 Y213.0425 Z-1.8348 I0.3087 J-0.1018
G2 X20.8302 Y212.761 Z-1.9348 I0.1625 J-0.2815
G2 X20.3427 Y212.4795 Z-2.0348 I-0.325 J0.0
G2 X20.1965 Y212.8628 Z-2.1 I0.1625 J0.2815
G2 X20.3427 Y213.0425 Z-2.1348 I0.3087 J-0.1018
G2 X20.8302 Y212.761 Z-2.2348 I0.1625 J-0.2815
G2 X20.3427 Y212.4795 Z-2.3348 I-0.325 J0.0
G2 X20.1965 Y212.8628 Z-2.4 I0.1625 J0.2815
G2 X20.3427 Y213.0425 Z-2.4348 I0.3087 J-0.1018
G2 X20.8302 Y212.761 Z-2.5348 I0.1625 J-0.2815
G2 X20.3427 Y212.4795 Z-2.6348 I-0.325 J0.0
G2 X20.1965 Y212.8628 Z-2.7 I0.1625 J0.2815
G2 X20.3427 Y213.0425 Z-2.7348 I0.3087 J-0.1018
G2 X20.8302 Y212.761 Z-2.8348 I0.1625 J-0.2815
G2 X20.3427 Y212.4795 Z-2.9348 I-0.325 J0.0
G2 X20.1965 Y212.8628 Z-3.0 I0.1625 J0.2815
G2 X20.3427 Y213.0425 Z-3.0348 I0.3087 J-0.1018
G2 X20.8302 Y212.761 Z-3.1348 I0.1625 J-0.2815
G2 X20.3427 Y212.4795 Z-3.2348 I-0.325 J0.0
G2 X20.1965 Y212.8628 Z-3.3 I0.1625 J0.2815
G2 X20.3427 Y213.0425 Z-3.3348 I0.3087 J-0.1018
G2 X20.8302 Y212.761 Z-3.4348 I0.1625 J-0.2815
G2 X20.3427 Y212.4795 Z-3.5348 I-0.325 J0.0
G2 X20.1965 Y212.8628 Z-3.6 I0.1625 J0.2815
G2 X20.3427 Y213.0425 I0.3087 J-0.1018
G2 X20.8302 Y212.761 I0.1625 J-0.2815
G2 X20.3427 Y212.4795 I-0.325 J0.0
G2 X20.1965 Y212.8628 I0.1625 J0.2815
G0 Z3.0
G0 X17.4798 Y194.9893
G1 F15.0 Z0.0
G2 F450.0 X17.756 Y194.668 Z-0.0678 I-0.0488 J-0.3213
G2 X17.2685 Y194.3865 Z-0.1678 I-0.325 J0.0
G2 Y194.9495 Z-0.2678 I0.1625 J0.2815
G2 X17.4798 Y194.9893 Z-0.3 I0.1625 J-0.2815
G2 X17.756 Y194.668 Z-0.3678 I-0.0488 J-0.3213
G2 X17.2685 Y194.3865 Z-0.4678 I-0.325 J0.0
G2 Y194.9495 Z-0.5678 I0.1625 J0.2815
G2 X17.4798 Y194.9893 Z-0.6 I0.1625 J-0.2815
G2 X17.756 Y194.668 Z-0.6678 I-0.0488 J-0.3213
G2 X17.2685 Y194.3865 Z-0.7678 I-0.325 J0.0
G2 Y194.9495 Z-0.8678 I0.1625 J0.2815
G2 X17.4798 Y194.9893 Z-0.9 I0.1625 J-0.2815
G2 X17.756 Y194.668 Z-0.9678 I-0.0488 J-0.3213
G2 X17.2685 Y194.3865 Z-1.0678 I-0.325 J0.0
G2 Y194.9495 Z-1.1678 I0.1625 J0.2815
G2 X17.4798 Y194.9893 Z-1.2 I0.1625 J-0.2815
G2 X17.756 Y194.668 Z-1.2678 I-0.0488 J-0.3213
G2 X17.2685 Y194.3865 Z-1.3678 I-0.325 J0.0
G2 Y194.9495 Z-1.4678 I0.1625 J0.2815
G2 X17.4798 Y194.9893 Z-1.5 I0.1625 J-0.2815
G2 X17.756 Y194.668 Z-1.5678 I-0.0488 J-0.3213
G2 X17.2685 Y194.3865 Z-1.6678 I-0.325 J0.0
G2 Y194.9495 Z-1.7678 I0.1625 J0.2815
G2 X17.4798 Y194.9893 Z-1.8 I0.1625 J-0.2815
G2 X17.756 Y194.668 Z-1.8678 I-0.0488 J-0.3213
G2 X17.2685 Y194.3865 Z-1.9678 I-0.325 J0.0
G2 Y194.9495 Z-2.0678 I0.1625 J0.2815
G2 X17.4798 Y194.9893 Z-2.1 I0.1625 J-0.2815
G2 X17.756 Y194.668 Z-2.1678 I-0.0488 J-0.3213
G2 X17.2685 Y194.3865 Z-2.2678 I-0.325 J0.0
G2 Y194.9495 Z-2.3678 I0.1625 J0.2815
G2 X17.4798 Y194.9893 Z-2.4 I0.1625 J-0.2815
G2 X17.756 Y194.668 Z-2.4678 I-0.0488 J-0.3213
G2 X17.2685 Y194.3865 Z-2.5678 I-0.325 J0.0
G2 Y194.9495 Z-2.6678 I0.1625 J0.2815
G2 X17.4798 Y194.9893 Z-2.7 I0.1625 J-0.2815
G2 X17.756 Y194.668 Z-2.7678 I-0.0488 J-0.3213
G2 X17.2685 Y194.3865 Z-2.8678 I-0.325 J0.0
G2 Y194.9495 Z-2.9678 I0.1625 J0.2815
G2 X17.4798 Y194.9893 Z-3.0 I0.1625 J-0.2815
G2 X17.756 Y194.668 Z-3.0678 I-0.0488 J-0.3213
G2 X17.2685 Y194.3865 Z-3.1678 I-0.325 J0.0
G2 Y194.9495 Z-3.2678 I0.1625 J0.2815
G2 X17.4798 Y194.9893 Z-3.3 I0.1625 J-0.2815
G2 X17.756 Y194.668 Z-3.3678 I-0.0488 J-0.3213
G2 X17.2685 Y194.3865 Z-3.4678 I-0.325 J0.0
G2 Y194.9495 Z-3.5678 I0.1625 J0.2815
G2 X17.4798 Y194.9893 Z-3.6 I0.1625 J-0.2815
G2 X17.756 Y194.668 I-0.0488 J-0.3213
G2 X17.2685 Y194.3865 I-0.325 J0.0
G2 Y194.9495 I0.1625 J0.2815
G2 X17.4798 Y194.9893 I0.1625 J-0.2815
G0 Z3.0
G0 X14.1069 Y185.3069
G1 F15.0 Z0.0
G2 F450.0 X14.325 Y185.0 Z-0.059 I-0.1069 J-0.3069
G2 X13.8375 Y184.7185 Z-0.159 I-0.325 J0.0
G2 Y185.2815 Z-0.259 I0.1625 J0.2815
G2 X14.1069 Y185.3069 Z-0.3 I0.1625 J-0.2815
G2 X14.325 Y185.0 Z-0.359 I-0.1069 J-0.3069
G2 X13.8375 Y184.7185 Z-0.459 I-0.325 J0.0
G2 Y185.2815 Z-0.559 I0.1625 J0.2815
G2 X14.1069 Y185.3069 Z-0.6 I0.1625 J-0.2815
G2 X14.325 Y185.0 Z-0.659 I-0.1069 J-0.3069
G2 X13.8375 Y184.7185 Z-0.759 I-0.325 J0.0
G2 Y185.2815 Z-0.859 I0.1625 J0.2815
G2 X14.1069 Y185.3069 Z-0.9 I0.1625 J-0.2815
G2 X14.325 Y185.0 Z-0.959 I-0.1069 J-0.3069
G2 X13.8375 Y184.7185 Z-1.059 I-0.325 J0.0
G2 Y185.2815 Z-1.159 I0.1625 J0.2815
G2 X14.1069 Y185.3069 Z-1.2 I0.1625 J-0.2815
G2 X14.325 Y185.0 Z-1.259 I-0.1069 J-0.3069
G2 X13.8375 Y184.7185 Z-1.359 I-0.325 J0.0
G2 Y185.2815 Z-1.459 I0.1625 J0.2815
G2 X14.1069 Y185.3069 Z-1.5 I0.1625 J-0.2815
G2 X14.325 Y185.0 Z-1.559 I-0.1069 J-0.3069
G2 X13.8375 Y184.7185 Z-1.659 I-0.325 J0.0
G2 Y185.2815 Z-1.759 I0.1625 J0.2815
G2 X14.1069 Y185.3069 Z-1.8 I0.1625 J-0.2815
G2 X14.325 Y185.0 Z-1.859 I-0.1069 J-0.3069
G2 X13.8375 Y184.7185 Z-1.959 I-0.325 J0.0
G2 Y185.2815 Z-2.059 I0.1625 J0.2815
G2 X14.1069 Y185.3069 Z-2.1 I0.1625 J-0.2815
G2 X14.325 Y185.0 Z-2.159 I-0.1069 J-0.3069
G2 X13.8375 Y184.7185 Z-2.259 I-0.325 J0.0
G2 Y185.2815 Z-2.359 I0.1625 J0.2815
G2 X14.1069 Y185.3069 Z-2.4 I0.1625 J-0.2815
G2 X14.325 Y185.0 Z-2.459 I-0.1069 J-0.3069
G2 X13.8375 Y184.7185 Z-2.559 I-0.325 J0.0
G2 Y185.2815 Z-2.659 I0.1625 J0.2815
G2 X14.1069 Y185.3069 Z-2.7 I0.1625 J-0.2815
G2 X14.325 Y185.0 Z-2.759 I-0.1069 J-0.3069
G2 X13.8375 Y184.7185 Z-2.859 I-0.325 J0.0
G2 Y185.2815 Z-2.959 I0.1625 J0.2815
G2 X14.1069 Y185.3069 Z-3.0 I0.1625 J-0.2815
G2 X14.325 Y185.0 Z-3.059 I-0.1069 J-0.3069
G2 X13.8375 Y184.7185 Z-3.159 I-0.325 J0.0
G2 Y185.2815 Z-3.259 I0.1625 J0.2815
G2 X14.1069 Y185.3069 Z-3.3 I0.1625 J-0.2815
G2 X14.325 Y185.0 Z-3.359 I-0.1069 J-0.3069
G2 X13.8375 Y184.7185 Z-3.459 I-0.325 J0.0
G2 Y185.2815 Z-3.559 I0.1625 J0.2815
G2 X14.1069 Y185.3069 Z-3.6 I0.1625 J-0.2815
G2 X14.325 Y185.0 I-0.1069 J-0.3069
G2 X13.8375 Y184.7185 I-0.325 J0.0
G2 Y185.2815 I0.1625 J0.2815
G2 X14.1069 Y185.3069 I0.1625 J-0.2815
G0 Z3.0
G0 X6.3248 Y185.0123
G1 F15.0 Z0.0
G2 F450.0 X6.325 Y185.0 Z-0.0018 I-0.3248 J-0.0123
G2 X5.8375 Y184.7185 Z-0.1018 I-0.325 J0.0
G2 Y185.2815 Z-0.2018 I0.1625 J0.2815
G2 X6.3248 Y185.0123 Z-0.3 I0.1625 J-0.2815
G2 X6.325 Y185.0 Z-0.3018 I-0.3248 J-0.0123
G2 X5.8375 Y184.7185 Z-0.4018 I-0.325 J0.0
G2 Y185.2815 Z-0.5018 I0.1625 J0.2815
G2 X6.3248 Y185.0123 Z-0.6 I0.1625 J-0.2815
G2 X6.325 Y185.0 Z-0.6018 I-0.3248 J-0.0123
G2 X5.8375 Y184.7185 Z-0.7018 I-0.325 J0.0
G2 Y185.2815 Z-0.8018 I0.1625 J0.2815
G2 X6.3248 Y185.0123 Z-0.9 I0.1625 J-0.2815
G2 X6.325 Y185.0 Z-0.9018 I-0.3248 J-0.0123
G2 X5.8375 Y184.7185 Z-1.0018 I-0.325 J0.0
G2 Y185.2815 Z-1.1018 I0.1625 J0.2815
G2 X6.3248 Y185.0123 Z-1.2 I0.1625 J-0.2815
G2 X6.325 Y185.0 Z-1.2018 I-0.3248 J-0.0123
G2 X5.8375 Y184.7185 Z-1.3018 I-0.325 J0.0
G2 Y185.2815 Z-1.4018 I0.1625 J0.2815
G2 X6.3248 Y185.0123 Z-1.5 I0.1625 J-0.2815
G2 X6.325 Y185.0 Z-1.5018 I-0.3248 J-0.0123
G2 X5.8375 Y184.7185 Z-1.6018 I-0.325 J0.0
G2 Y185.2815 Z-1.7018 I0.1625 J0.2815
G2 X6.3248 Y185.0123 Z-1.8 I0.1625 J-0.2815
G2 X6.325 Y185.0 Z-1.8018 I-0.3248 J-0.0123
G2 X5.8375 Y184.7185 Z-1.9018 I-0.325 J0.0
G2 Y185.2815 Z-2.0018 I0.1625 J0.2815
G2 X6.3248 Y185.0123 Z-2.1 I0.1625 J-0.2815
G2 X6.325 Y185.0 Z-2.1018 I-0.3248 J-0.0123
G2 X5.8375 Y184.7185 Z-2.2018 I-0.325 J0.0
G2 Y185.2815 Z-2.3018 I0.1625 J0.2815
G2 X6.3248 Y185.0123 Z-2.4 I0.1625 J-0.2815
G2 X6.325 Y185.0 Z-2.4018 I-0.3248 J-0.0123
G2 X5.8375 Y184.7185 Z-2.5018 I-0.325 J0.0
G2 Y185.2815 Z-2.6018 I0.1625 J0.2815
G2 X6.3248 Y185.0123 Z-2.7 I0.1625 J-0.2815
G2 X6.325 Y185.0 Z-2.7018 I-0.3248 J-0.0123
G2 X5.8375 Y184.7185 Z-2.8018 I-0.325 J0.0
G2 Y185.2815 Z-2.9018 I0.1625 J0.2815
G2 X6.3248 Y185.0123 Z-3.0 I0.1625 J-0.2815
G2 X6.325 Y185.0 Z-3.0018 I-0.3248 J-0.0123
G2 X5.8375 Y184.7185 Z-3.1018 I-0.325 J0.0
G2 Y185.2815 Z-3.2018 I0.1625 J0.2815
G2 X6.3248 Y185.0123 Z-3.3 I0.1625 J-0.2815
G2 X6.325 Y185.0 Z-3.3018 I-0.3248 J-0.0123
G2 X5.8375 Y184.7185 Z-3.4018 I-0.325 J0.0
G2 Y185.2815 Z-3.5018 I0.1625 J0.2815
G2 X6.3248 Y185.0123 Z-3.6 I0.1625 J-0.2815
G2 X6.325 Y185.0 I-0.3248 J-0.0123
G2 X5.8375 Y184.7185 I-0.325 J0.0
G2 Y185.2815 I0.1625 J0.2815
G2 X6.3248 Y185.0123 I0.1625 J-0.2815
G0 Z3.0
G0 X23.7418 Y171.6974
G1 F15.0 Z0.0
G2 F450.0 X23.8375 Y171.7815 Z-0.0188 I0.2582 J-0.1974
G2 X24.325 Y171.5 Z-0.1188 I0.1625 J-0.2815
G2 X23.8375 Y171.2185 Z-0.2188 I-0.325 J0.0
G2 X23.7418 Y171.6974 Z-0.3 I0.1625 J0.2815
G2 X23.8375 Y171.7815 Z-0.3188 I0.2582 J-0.1974
G2 X24.325 Y171.5 Z-0.4188 I0.1625 J-0.2815
G2 X23.8375 Y171.2185 Z-0.5188 I-0.325 J0.0
G2 X23.7418 Y171.6974 Z-0.6 I0.1625 J0.2815
G2 X23.8375 Y171.7815 Z-0.6188 I0.2582 J-0.1974
G2 X24.325 Y171.5 Z-0.7188 I0.1625 J-0.2815
G2 X23.8375 Y171.2185 Z-0.8188 I-0.325 J0.0
G2 X23.7418 Y171.6974 Z-0.9 I0.1625 J0.2815
G2 X23.8375 Y171.7815 Z-0.9188 I0.2582 J-0.1974
G2 X24.325 Y171.5 Z-1.0188 I0.1625 J-0.2815
G2 X23.8375 Y171.2185 Z-1.1188 I-0.325 J0.0
G2 X23.7418 Y171.6974 Z-1.2 I0.1625 J0.2815
G2 X23.8375 Y171.7815 Z-1.2188 I0.2582 J-0.1974
G2 X24.325 Y171.5 Z-1.3188 I0.1625 J-0.2815
G2 X23.8375 Y171.2185 Z-1.4188 I-0.325 J0.0
G2 X23.7418 Y171.6974 Z-1.5 I0.1625 J0.2815
G2 X23.8375 Y171.7815 Z-1.5188 I0.2582 J-0.1974
G2 X24.325 Y171.5 Z-1.6188 I0.1625 J-0.2815
G2 X23.8375 Y171.2185 Z-1.7188 I-0.325 J0.0
G2 X23.7418 Y171.6974 Z-1.8 I0.1625 J0.2815
G2 X23.8375 Y171.7815 Z-1.8188 I0.2582 J-0.1974
G2 X24.325 Y171.5 Z-1.9188 I0.1625 J-0.2815
G2 X23.8375 Y171.2185 Z-2.0188 I-0.325 J0.0
G2 X23.7418 Y171.6974 Z-2.1 I0.1625 J0.2815
G2 X23.8375 Y171.7815 Z-2.1188 I0.2582 J-0.1974
G2 X24.325 Y171.5 Z-2.2188 I0.1625 J-0.2815
G2 X23.8375 Y171.2185 Z-2.3188 I-0.325 J0.0
G2 X23.7418 Y171.6974 Z-2.4 I0.1625 J0.2815
G2 X23.8375 Y171.7815 Z-2.4188 I0.2582 J-0.1974
G2 X24.325 Y171.5 Z-2.5188 I0.1625 J-0.2815
G2 X23.8375 Y171.2185 Z-2.6188 I-0.325 J0.0
G2 X23.7418 Y171.6974 Z-2.7 I0.1625 J0.2815
G2 X23.8375 Y171.7815 Z-2.7188 I0.2582 J-0.1974
G2 X24.325 Y171.5 Z-2.8188 I0.1625 J-0.2815
G2 X23.8375 Y171.2185 Z-2.9188 I-0.325 J0.0
G2 X23.7418 Y171.6974 Z-3.0 I0.1625 J0.2815
G2 X23.8375 Y171.7815 Z-3.0188 I0.2582 J-0.1974
G2 X24.325 Y171.5 Z-3.1188 I0.1625 J-0.2815
G2 X23.8375 Y171.2185 Z-3.2188 I-0.325 J0.0
G2 X23.7418 Y171.6974 Z-3.3 I0.1625 J0.2815
G2 X23.8375 Y171.7815 Z-3.3188 I0.2582 J-0.1974
G2 X24.325 Y171.5 Z-3.4188 I0.1625 J-0.2815
G2 X23.8375 Y171.2185 Z-3.5188 I-0.325 J0.0
G2 X23.7418 Y171.6974 Z-3.6 I0.1625 J0.2815
G2 X23.8375 Y171.7815 I0.2582 J-0.1974
G2 X24.325 Y171.5 I0.1625 J-0.2815
G2 X23.8375 Y171.2185 I-0.325 J0.0
G2 X23.7418 Y171.6974 I0.1625 J0.2815
G0 Z3.0
G0 X14.1638 Y155.2807
G1 F15.0 Z0.0
G2 F450.0 X14.325 Y155.0 Z-0.0498 I-0.1638 J-0.2807
G2 X13.8375 Y154.7185 Z-0.1498 I-0.325 J0.0
G2 Y155.2815 Z-0.2498 I0.1625 J0.2815
G2 X14.1638 Y155.2807 Z-0.3 I0.1625 J-0.2815
G2 X14.325 Y155.0 Z-0.3498 I-0.1638 J-0.2807
G2 X13.8375 Y154.7185 Z-0.4498 I-0.325 J0.0
G2 Y155.2815 Z-0.5498 I0.1625 J0.2815
G2 X14.1638 Y155.2807 Z-0.6 I0.1625 J-0.2815
G2 X14.325 Y155.0 Z-0.6498 I-0.1638 J-0.2807
G2 X13.8375 Y154.7185 Z-0.7498 I-0.325 J0.0
G2 Y155.2815 Z-0.8498 I0.1625 J0.2815
G2 X14.1638 Y155.2807 Z-0.9 I0.1625 J-0.2815
G2 X14.325 Y155.0 Z-0.9498 I-0.1638 J-0.2807
G2 X13.8375 Y154.7185 Z-1.0498 I-0.325 J0.0
G2 Y155.2815 Z-1.1498 I0.1625 J0.2815
G2 X14.1638 Y155.2807 Z-1.2 I0.1625 J-0.2815
G2 X14.325 Y155.0 Z-1.2498 I-0.1638 J-0.2807
G2 X13.8375 Y154.7185 Z-1.3498 I-0.325 J0.0
G2 Y155.2815 Z-1.4498 I0.1625 J0.2815
G2 X14.1638 Y155.2807 Z-1.5 I0.1625 J-0.2815
G2 X14.325 Y155.0 Z-1.5498 I-0.1638 J-0.2807
G2 X13.8375 Y154.7185 Z-1.6498 I-0.325 J0.0
G2 Y155.2815 Z-1.7498 I0.1625 J0.2815
G2 X14.1638 Y155.2807 Z-1.8 I0.1625 J-0.2815
G2 X14.325 Y155.0 Z-1.8498 I-0.1638 J-0.2807
G2 X13.8375 Y154.7185 Z-1.9498 I-0.325 J0.0
G2 Y155.2815 Z-2.0498 I0.1625 J0.2815
G2 X14.1638 Y155.2807 Z-2.1 I0.1625 J-0.2815
G2 X14.325 Y155.0 Z-2.1498 I-0.1638 J-0.2807
G2 X13.8375 Y154.7185 Z-2.2498 I-0.325 J0.0
G2 Y155.2815 Z-2.3498 I0.1625 J0.2815
G2 X14.1638 Y155.2807 Z-2.4 I0.1625 J-0.2815
G2 X14.325 Y155.0 Z-2.4498 I-0.1638 J-0.2807
G2 X13.8375 Y154.7185 Z-2.5498 I-0.325 J0.0
G2 Y155.2815 Z-2.6498 I0.1625 J0.2815
G2 X14.1638 Y155.2807 Z-2.7 I0.1625 J-0.2815
G2 X14.325 Y155.0 Z-2.7498 I-0.1638 J-0.2807
G2 X13.8375 Y154.7185 Z-2.8498 I-0.325 J0.0
G2 Y155.2815 Z-2.9498 I0.1625 J0.2815
G2 X14.1638 Y155.2807 Z-3.0 I0.1625 J-0.2815
G2 X14.325 Y155.0 Z-3.0498 I-0.1638 J-0.2807
G2 X13.8375 Y154.7185 Z-3.1498 I-0.325 J0.0
G2 Y155.2815 Z-3.2498 I0.1625 J0.2815
G2 X14.1638 Y155.2807 Z-3.3 I0.1625 J-0.2815
G2 X14.325 Y155.0 Z-3.3498 I-0.1638 J-0.2807
G2 X13.8375 Y154.7185 Z-3.4498 I-0.325 J0.0
G2 Y155.2815 Z-3.5498 I0.1625 J0.2815
G2 X14.1638 Y155.2807 Z-3.6 I0.1625 J-0.2815
G2 X14.325 Y155.0 I-0.1638 J-0.2807
G2 X13.8375 Y154.7185 I-0.325 J0.0
G2 Y155.2815 I0.1625 J0.2815
G2 X14.1638 Y155.2807 I0.1625 J-0.2815
G0 Z3.0
G0 X6.3248 Y155.0112
G1 F15.0 Z0.0
G2 F450.0 X6.325 Y155.0 Z-0.0016 I-0.3248 J-0.0112
G2 X5.8375 Y154.7185 Z-0.1016 I-0.325 J0.0
G2 Y155.2815 Z-0.2016 I0.1625 J0.2815
G2 X6.3248 Y155.0112 Z-0.3 I0.1625 J-0.2815
G2 X6.325 Y155.0 Z-0.3016 I-0.3248 J-0.0112
G2 X5.8375 Y154.7185 Z-0.4016 I-0.325 J0.0
G2 Y155.2815 Z-0.5016 I0.1625 J0.2815
G2 X6.3248 Y155.0112 Z-0.6 I0.1625 J-0.2815
G2 X6.325 Y155.0 Z-0.6016 I-0.3248 J-0.0112
G2 X5.8375 Y154.7185 Z-0.7016 I-0.325 J0.0
G2 Y155.2815 Z-0.8016 I0.1625 J0.2815
G2 X6.3248 Y155.0112 Z-0.9 I0.1625 J-0.2815
G2 X6.325 Y155.0 Z-0.9016 I-0.3248 J-0.0112
G2 X5.8375 Y154.7185 Z-1.0016 I-0.325 J0.0
G2 Y155.2815 Z-1.1016 I0.1625 J0.2815
G2 X6.3248 Y155.0112 Z-1.2 I0.1625 J-0.2815
G2 X6.325 Y155.0 Z-1.2016 I-0.3248 J-0.0112
G2 X5.8375 Y154.7185 Z-1.3016 I-0.325 J0.0
G2 Y155.2815 Z-1.4016 I0.1625 J0.2815
G2 X6.3248 Y155.0112 Z-1.5 I0.1625 J-0.2815
G2 X6.325 Y155.0 Z-1.5016 I-0.3248 J-0.0112
G2 X5.8375 Y154.7185 Z-1.6016 I-0.325 J0.0
G2 Y155.2815 Z-1.7016 I0.1625 J0.2815
G2 X6.3248 Y155.0112 Z-1.8 I0.1625 J-0.2815
G2 X6.325 Y155.0 Z-1.8016 I-0.3248 J-0.0112
G2 X5.8375 Y154.7185 Z-1.9016 I-0.325 J0.0
G2 Y155.2815 Z-2.0016 I0.1625 J0.2815
G2 X6.3248 Y155.0112 Z-2.1 I0.1625 J-0.2815
G2 X6.325 Y155.0 Z-2.1016 I-0.3248 J-0.0112
G2 X5.8375 Y154.7185 Z-2.2016 I-0.325 J0.0
G2 Y155.2815 Z-2.3016 I0.1625 J0.2815
G2 X6.3248 Y155.0112 Z-2.4 I0.1625 J-0.2815
G2 X6.325 Y155.0 Z-2.4016 I-0.3248 J-0.0112
G2 X5.8375 Y154.7185 Z-2.5016 I-0.325 J0.0
G2 Y155.2815 Z-2.6016 I0.1625 J0.2815
G2 X6.3248 Y155.0112 Z-2.7 I0.1625 J-0.2815
G2 X6.325 Y155.0 Z-2.7016 I-0.3248 J-0.0112
G2 X5.8375 Y154.7185 Z-2.8016 I-0.325 J0.0
G2 Y155.2815 Z-2.9016 I0.1625 J0.2815
G2 X6.3248 Y155.0112 Z-3.0 I0.1625 J-0.2815
G2 X6.325 Y155.0 Z-3.0016 I-0.3248 J-0.0112
G2 X5.8375 Y154.7185 Z-3.1016 I-0.325 J0.0
G2 Y155.2815 Z-3.2016 I0.1625 J0.2815
G2 X6.3248 Y155.0112 Z-3.3 I0.1625 J-0.2815
G2 X6.325 Y155.0 Z-3.3016 I-0.3248 J-0.0112
G2 X5.8375 Y154.7185 Z-3.4016 I-0.325 J0.0
G2 Y155.2815 Z-3.5016 I0.1625 J0.2815
G2 X6.3248 Y155.0112 Z-3.6 I0.1625 J-0.2815
G2 X6.325 Y155.0 I-0.3248 J-0.0112
G2 X5.8375 Y154.7185 I-0.325 J0.0
G2 Y155.2815 I0.1625 J0.2815
G2 X6.3248 Y155.0112 I0.1625 J-0.2815
G0 Z3.0
G0 X22.2531 Y142.7958
G1 F15.0 Z0.0
G2 F450.0 X22.3485 Y142.8795 Z-0.0188 I0.2579 J-0.1978
G2 X22.836 Y142.598 Z-0.1188 I0.1625 J-0.2815
G2 X22.3485 Y142.3165 Z-0.2188 I-0.325 J0.0
G2 X22.2531 Y142.7958 Z-0.3 I0.1625 J0.2815
G2 X22.3485 Y142.8795 Z-0.3188 I0.2579 J-0.1978
G2 X22.836 Y142.598 Z-0.4188 I0.1625 J-0.2815
G2 X22.3485 Y142.3165 Z-0.5188 I-0.325 J0.0
G2 X22.2531 Y142.7958 Z-0.6 I0.1625 J0.2815
G2 X22.3485 Y142.8795 Z-0.6188 I0.2579 J-0.1978
G2 X22.836 Y142.598 Z-0.7188 I0.1625 J-0.2815
G2 X22.3485 Y142.3165 Z-0.8188 I-0.325 J0.0
G2 X22.2531 Y142.7958 Z-0.9 I0.1625 J0.2815
G2 X22.3485 Y142.8795 Z-0.9188 I0.2579 J-0.1978
G2 X22.836 Y142.598 Z-1.0188 I0.1625 J-0.2815
G2 X22.3485 Y142.3165 Z-1.1188 I-0.325 J0.0
G2 X22.2531 Y142.7958 Z-1.2 I0.1625 J0.2815
G2 X22.3485 Y142.8795 Z-1.2188 I0.2579 J-0.1978
G2 X22.836 Y142.598 Z-1.3188 I0.1625 J-0.2815
G2 X22.3485 Y142.3165 Z-1.4188 I-0.325 J0.0
G2 X22.2531 Y142.7958 Z-1.5 I0.1625 J0.2815
G2 X22.3485 Y142.8795 Z-1.5188 I0.2579 J-0.1978
G2 X22.836 Y142.598 Z-1.6188 I0.1625 J-0.2815
G2 X22.3485 Y142.3165 Z-1.7188 I-0.325 J0.0
G2 X22.2531 Y142.7958 Z-1.8 I0.1625 J0.2815
G2 X22.3485 Y142.8795 Z-1.8188 I0.2579 J-0.1978
G2 X22.836 Y142.598 Z-1.9188 I0.1625 J-0.2815
G2 X22.3485 Y142.3165 Z-2.0188 I-0.325 J0.0
G2 X22.2531 Y142.7958 Z-2.1 I0.1625 J0.2815
G2 X22.3485 Y142.8795 Z-2.1188 I0.2579 J-0.1978
G2 X22.836 Y142.598 Z-2.2188 I0.1625 J-0.2815
G2 X22.3485 Y142.3165 Z-2.3188 I-0.325 J0.0
G2 X22.2531 Y142.7958 Z-2.4 I0.1625 J0.2815
G2 X22.3485 Y142.8795 Z-2.4188 I0.2579 J-0.1978
G2 X22.836 Y142.598 Z-2.5188 I0.1625 J-0.2815
G2 X22.3485 Y142.3165 Z-2.6188 I-0.325 J0.0
G2 X22.2531 Y142.7958 Z-2.7 I0.1625 J0.2815
G2 X22.3485 Y142.8795 Z-2.7188 I0.2579 J-0.1978
G2 X22.836 Y142.598 Z-2.8188 I0.1625 J-0.2815
G2 X22.3485 Y142.3165 Z-2.9188 I-0.325 J0.0
G2 X22.2531 Y142.7958 Z-3.0 I0.1625 J0.2815
G2 X22.3485 Y142.8795 Z-3.0188 I0.2579 J-0.1978
G2 X22.836 Y142.598 Z-3.1188 I0.1625 J-0.2815
G2 X22.3485 Y142.3165 Z-3.2188 I-0.325 J0.0
G2 X22.2531 Y142.7958 Z-3.3 I0.1625 J0.2815
G2 X22.3485 Y142.8795 Z-3.3188 I0.2579 J-0.1978
G2 X22.836 Y142.598 Z-3.4188 I0.1625 J-0.2815
G2 X22.3485 Y142.3165 Z-3.5188 I-0.325 J0.0
G2 X22.2531 Y142.7958 Z-3.6 I0.1625 J0.2815
G2 X22.3485 Y142.8795 I0.2579 J-0.1978
G2 X22.836 Y142.598 I0.1625 J-0.2815
G2 X22.3485 Y142.3165 I-0.325 J0.0
G2 X22.2531 Y142.7958 I0.1625 J0.2815
G0 Z3.0
G0 X14.1367 Y125.2948
G1 F15.0 Z0.0
G2 F450.0 X14.325 Y125.0 Z-0.0543 I-0.1367 J-0.2948
G2 X13.8375 Y124.7185 Z-0.1543 I-0.325 J0.0
G2 Y125.2815 Z-0.2543 I0.1625 J0.2815
G2 X14.1367 Y125.2948 Z-0.3 I0.1625 J-0.2815
G2 X14.325 Y125.0 Z-0.3543 I-0.1367 J-0.2948
G2 X13.8375 Y124.7185 Z-0.4543 I-0.325 J0.0
G2 Y125.2815 Z-0.5543 I0.1625 J0.2815
G2 X14.1367 Y125.2948 Z-0.6 I0.1625 J-0.2815
G2 X14.325 Y125.0 Z-0.6543 I-0.1367 J-0.2948
G2 X13.8375 Y124.7185 Z-0.7543 I-0.325 J0.0
G2 Y125.2815 Z-0.8543 I0.1625 J0.2815
G2 X14.1367 Y125.2948 Z-0.9 I0.1625 J-0.2815
G2 X14.325 Y125.0 Z-0.9543 I-0.1367 J-0.2948
G2 X13.8375 Y124.7185 Z-1.0543 I-0.325 J0.0
G2 Y125.2815 Z-1.1543 I0.1625 J0.2815
G2 X14.1367 Y125.2948 Z-1.2 I0.1625 J-0.2815
G2 X14.325 Y125.0 Z-1.2543 I-0.1367 J-0.2948
G2 X13.8375 Y124.7185 Z-1.3543 I-0.325 J0.0
G2 Y125.2815 Z-1.4543 I0.1625 J0.2815
G2 X14.1367 Y125.2948 Z-1.5 I0.1625 J-0.2815
G2 X14.325 Y125.0 Z-1.5543 I-0.1367 J-0.2948
G2 X13.8375 Y124.7185 Z-1.6543 I-0.325 J0.0
G2 Y125.2815 Z-1.7543 I0.1625 J0.2815
G2 X14.1367 Y125.2948 Z-1.8 I0.1625 J-0.2815
G2 X14.325 Y125.0 Z-1.8543 I-0.1367 J-0.2948
G2 X13.8375 Y124.7185 Z-1.9543 I-0.325 J0.0
G2 Y125.2815 Z-2.0543 I0.1625 J0.2815
G2 X14.1367 Y125.2948 Z-2.1 I0.1625 J-0.2815
G2 X14.325 Y125.0 Z-2.1543 I-0.1367 J-0.2948
G2 X13.8375 Y124.7185 Z-2.2543 I-0.325 J0.0
G2 Y125.2815 Z-2.3543 I0.1625 J0.2815
G2 X14.1367 Y125.2948 Z-2.4 I0.1625 J-0.2815
G2 X14.325 Y125.0 Z-2.4543 I-0.1367 J-0.2948
G2 X13.8375 Y124.7185 Z-2.5543 I-0.325 J0.0
G2 Y125.2815 Z-2.6543 I0.1625 J0.2815
G2 X14.1367 Y125.2948 Z-2.7 I0.1625 J-0.2815
G2 X14.325 Y125.0 Z-2.7543 I-0.1367 J-0.2948
G2 X13.8375 Y124.7185 Z-2.8543 I-0.325 J0.0
G2 Y125.2815 Z-2.9543 I0.1625 J0.2815
G2 X14.1367 Y125.2948 Z-3.0 I0.1625 J-0.2815
G2 X14.325 Y125.0 Z-3.0543 I-0.1367 J-0.2948
G2 X13.8375 Y124.7185 Z-3.1543 I-0.325 J0.0
G2 Y125.2815 Z-3.2543 I0.1625 J0.2815
G2 X14.1367 Y125.2948 Z-3.3 I0.1625 J-0.2815
G2 X14.325 Y125.0 Z-3.3543 I-0.1367 J-0.2948
G2 X13.8375 Y124.7185 Z-3.4543 I-0.325 J0.0
G2 Y125.2815 Z-3.5543 I0.1625 J0.2815
G2 X14.1367 Y125.2948 Z-3.6 I0.1625 J-0.2815
G2 X14.325 Y125.0 I-0.1367 J-0.2948
G2 X13.8375 Y124.7185 I-0.325 J0.0
G2 Y125.2815 I0.1625 J0.2815
G2 X14.1367 Y125.2948 I0.1625 J-0.2815
G0 Z3.0
G0 X20.2633 Y122.3508
G1 F15.0 Z0.0
G2 F450.0 X20.3937 Y122.4915 Z-0.0286 I0.2929 J-0.1408
G2 X20.8812 Y122.21 Z-0.1286 I0.1625 J-0.2815
G2 X20.3937 Y121.9285 Z-0.2286 I-0.325 J0.0
G2 X20.2633 Y122.3508 Z-0.3 I0.1625 J0.2815
G2 X20.3937 Y122.4915 Z-0.3286 I0.2929 J-0.1408
G2 X20.8812 Y122.21 Z-0.4286 I0.1625 J-0.2815
G2 X20.3937 Y121.9285 Z-0.5286 I-0.325 J0.0
G2 X20.2633 Y122.3508 Z-0.6 I0.1625 J0.2815
G2 X20.3937 Y122.4915 Z-0.6286 I0.2929 J-0.1408
G2 X20.8812 Y122.21 Z-0.7286 I0.1625 J-0.2815
G2 X20.3937 Y121.9285 Z-0.8286 I-0.325 J0.0
G2 X20.2633 Y122.3508 Z-0.9 I0.1625 J0.2815
G2 X20.3937 Y122.4915 Z-0.9286 I0.2929 J-0.1408
G2 X20.8812 Y122.21 Z-1.0286 I0.1625 J-0.2815
G2 X20.3937 Y121.9285 Z-1.1286 I-0.325 J0.0
G2 X20.2633 Y122.3508 Z-1.2 I0.1625 J0.2815
G2 X20.3937 Y122.4915 Z-1.2286 I0.2929 J-0.1408
G2 X20.8812 Y122.21 Z-1.3286 I0.1625 J-0.2815
G2 X20.3937 Y121.9285 Z-1.4286 I-0.325 J0.0
G2 X20.2633 Y122.3508 Z-1.5 I0.1625 J0.2815
G2 X20.3937 Y122.4915 Z-1.5286 I0.2929 J-0.1408
G2 X20.8812 Y122.21 Z-1.6286 I0.1625 J-0.2815
G2 X20.3937 Y121.9285 Z-1.7286 I-0.325 J0.0
G2 X20.2633 Y122.3508 Z-1.8 I0.1625 J0.2815
G2 X20.3937 Y122.4915 Z-1.8286 I0.2929 J-0.1408
G2 X20.8812 Y122.21 Z-1.9286 I0.1625 J-0.2815
G2 X20.3937 Y121.9285 Z-2.0286 I-0.325 J0.0
G2 X20.2633 Y122.3508 Z-2.1 I0.1625 J0.2815
G2 X20.3937 Y122.4915 Z-2.1286 I0.2929 J-0.1408
G2 X20.8812 Y122.21 Z-2.2286 I0.1625 J-0.2815
G2 X20.3937 Y121.9285 Z-2.3286 I-0.325 J0.0
G2 X20.2633 Y122.3508 Z-2.4 I0.1625 J0.2815
G2 X20.3937 Y122.4915 Z-2.4286 I0.2929 J-0.1408
G2 X20.8812 Y122.21 Z-2.5286 I0.1625 J-0.2815
G2 X20.3937 Y121.9285 Z-2.6286 I-0.325 J0.0
G2 X20.2633 Y122.3508 Z-2.7 I0.1625 J0.2815
G2 X20.3937 Y122.4915 Z-2.7286 I0.2929 J-0.1408
G2 X20.8812 Y122.21 Z-2.8286 I0.1625 J-0.2815
G2 X20.3937 Y121.9285 Z-2.9286 I-0.325 J0.0
G2 X20.2633 Y122.3508 Z-3.0 I0.1625 J0.2815
G2 X20.3937 Y122.4915 Z-3.0286 I0.2929 J-0.1408
G2 X20.8812 Y122.21 Z-3.1286 I0.1625 J-0.2815
G2 X20.3937 Y121.9285 Z-3.2286 I-0.325 J0.0
G2 X20.2633 Y122.3508 Z-3.3 I0.1625 J0.2815
G2 X20.3937 Y122.4915 Z-3.3286 I0.2929 J-0.1408
G2 X20.8812 Y122.21 Z-3.4286 I0.1625 J-0.2815
G2 X20.3937 Y121.9285 Z-3.5286 I-0.325 J0.0
G2 X20.2633 Y122.3508 Z-3.6 I0.1625 J0.2815
G2 X20.3937 Y122.4915 I0.2929 J-0.1408
G2 X20.8812 Y122.21 I0.1625 J-0.2815
G2 X20.3937 Y121.9285 I-0.325 J0.0
G2 X20.2633 Y122.3508 I0.1625 J0.2815
G0 Z3.0
G0 X17.5163 Y112.2516
G1 F15.0 Z0.0
G2 F450.0 X17.756 Y111.938 Z-0.0623 I-0.0853 J-0.3136
G2 X17.2685 Y111.6565 Z-0.1623 I-0.325 J0.0
G2 Y112.2195 Z-0.2623 I0.1625 J0.2815
G2 X17.5163 Y112.2516 Z-0.3 I0.1625 J-0.2815
G2 X17.756 Y111.938 Z-0.3623 I-0.0853 J-0.3136
G2 X17.2685 Y111.6565 Z-0.4623 I-0.325 J0.0
G2 Y112.2195 Z-0.5623 I0.1625 J0.2815
G2 X17.5163 Y112.2516 Z-0.6 I0.1625 J-0.2815
G2 X17.756 Y111.938 Z-0.6623 I-0.0853 J-0.3136
G2 X17.2685 Y111.6565 Z-0.7623 I-0.325 J0.0
G2 Y112.2195 Z-0.8623 I0.1625 J0.2815
G2 X17.5163 Y112.2516 Z-0.9 I0.1625 J-0.2815
G2 X17.756 Y111.938 Z-0.9623 I-0.0853 J-0.3136
G2 X17.2685 Y111.6565 Z-1.0623 I-0.325 J0.0
G2 Y112.2195 Z-1.1623 I0.1625 J0.2815
G2 X17.5163 Y112.2516 Z-1.2 I0.1625 J-0.2815
G2 X17.756 Y111.938 Z-1.2623 I-0.0853 J-0.3136
G2 X17.2685 Y111.6565 Z-1.3623 I-0.325 J0.0
G2 Y112.2195 Z-1.4623 I0.1625 J0.2815
G2 X17.5163 Y112.2516 Z-1.5 I0.1625 J-0.2815
G2 X17.756 Y111.938 Z-1.5623 I-0.0853 J-0.3136
G2 X17.2685 Y111.6565 Z-1.6623 I-0.325 J0.0
G2 Y112.2195 Z-1.7623 I0.1625 J0.2815
G2 X17.5163 Y112.2516 Z-1.8 I0.1625 J-0.2815
G2 X17.756 Y111.938 Z-1.8623 I-0.0853 J-0.3136
G2 X17.2685 Y111.6565 Z-1.9623 I-0.325 J0.0
G2 Y112.2195 Z-2.0623 I0.1625 J0.2815
G2 X17.5163 Y112.2516 Z-2.1 I0.1625 J-0.2815
G2 X17.756 Y111.938 Z-2.1623 I-0.0853 J-0.3136
G2 X17.2685 Y111.6565 Z-2.2623 I-0.325 J0.0
G2 Y112.2195 Z-2.3623 I0.1625 J0.2815
G2 X17.5163 Y112.2516 Z-2.4 I0.1625 J-0.2815
G2 X17.756 Y111.938 Z-2.4623 I-0.0853 J-0.3136
G2 X17.2685 Y111.6565 Z-2.5623 I-0.325 J0.0
G2 Y112.2195 Z-2.6623 I0.1625 J0.2815
G2 X17.5163 Y112.2516 Z-2.7 I0.1625 J-0.2815
G2 X17.756 Y111.938 Z-2.7623 I-0.0853 J-0.3136
G2 X17.2685 Y111.6565 Z-2.8623 I-0.325 J0.0
G2 Y112.2195 Z-2.9623 I0.1625 J0.2815
G2 X17.5163 Y112.2516 Z-3.0 I0.1625 J-0.2815
G2 X17.756 Y111.938 Z-3.0623 I-0.0853 J-0.3136
G2 X17.2685 Y111.6565 Z-3.1623 I-0.325 J0.0
G2 Y112.2195 Z-3.2623 I0.1625 J0.2815
G2 X17.5163 Y112.2516 Z-3.3 I0.1625 J-0.2815
G2 X17.756 Y111.938 Z-3.3623 I-0.0853 J-0.3136
G2 X17.2685 Y111.6565 Z-3.4623 I-0.325 J0.0
G2 Y112.2195 Z-3.5623 I0.1625 J0.2815
G2 X17.5163 Y112.2516 Z-3.6 I0.1625 J-0.2815
G2 X17.756 Y111.938 I-0.0853 J-0.3136
G2 X17.2685 Y111.6565 I-0.325 J0.0
G2 Y112.2195 I0.1625 J0.2815
G2 X17.5163 Y112.2516 I0.1625 J-0.2815
G0 Z3.0
G0 X23.7475 Y107.2046
G1 F15.0 Z0.0
G2 F450.0 X23.8375 Y107.2815 Z-0.0175 I0.2525 J-0.2046
G2 X24.325 Y107.0 Z-0.1175 I0.1625 J-0.2815
G2 X23.8375 Y106.7185 Z-0.2175 I-0.325 J0.0
G2 X23.7475 Y107.2046 Z-0.3 I0.1625 J0.2815
G2 X23.8375 Y107.2815 Z-0.3175 I0.2525 J-0.2046
G2 X24.325 Y107.0 Z-0.4175 I0.1625 J-0.2815
G2 X23.8375 Y106.7185 Z-0.5175 I-0.325 J0.0
G2 X23.7475 Y107.2046 Z-0.6 I0.1625 J0.2815
G2 X23.8375 Y107.2815 Z-0.6175 I0.2525 J-0.2046
G2 X24.325 Y107.0 Z-0.7175 I0.1625 J-0.2815
G2 X23.8375 Y106.7185 Z-0.8175 I-0.325 J0.0
G2 X23.7475 Y107.2046 Z-0.9 I0.1625 J0.2815
G2 X23.8375 Y107.2815 Z-0.9175 I0.2525 J-0.2046
G2 X24.325 Y107.0 Z-1.0175 I0.1625 J-0.2815
G2 X23.8375 Y106.7185 Z-1.1175 I-0.325 J0.0
G2 X23.7475 Y107.2046 Z-1.2 I0.1625 J0.2815
G2 X23.8375 Y107.2815 Z-1.2175 I0.2525 J-0.2046
G2 X24.325 Y107.0 Z-1.3175 I0.1625 J-0.2815
G2 X23.8375 Y106.7185 Z-1.4175 I-0.325 J0.0
G2 X23.7475 Y107.2046 Z-1.5 I0.1625 J0.2815
G2 X23.8375 Y107.2815 Z-1.5175 I0.2525 J-0.2046
G2 X24.325 Y107.0 Z-1.6175 I0.1625 J-0.2815
G2 X23.8375 Y106.7185 Z-1.7175 I-0.325 J0.0
G2 X23.7475 Y107.2046 Z-1.8 I0.1625 J0.2815
G2 X23.8375 Y107.2815 Z-1.8175 I0.2525 J-0.2046
G2 X24.325 Y107.0 Z-1.9175 I0.1625 J-0.2815
G2 X23.8375 Y106.7185 Z-2.0175 I-0.325 J0.0
G2 X23.7475 Y107.2046 Z-2.1 I0.1625 J0.2815
G2 X23.8375 Y107.2815 Z-2.1175 I0.2525 J-0.2046
G2 X24.325 Y107.0 Z-2.2175 I0.1625 J-0.2815
G2 X23.8375 Y106.7185 Z-2.3175 I-0.325 J0.0
G2 X23.7475 Y107.2046 Z-2.4 I0.1625 J0.2815
G2 X23.8375 Y107.2815 Z-2.4175 I0.2525 J-0.2046
G2 X24.325 Y107.0 Z-2.5175 I0.1625 J-0.2815
G2 X23.8375 Y106.7185 Z-2.6175 I-0.325 J0.0
G2 X23.7475 Y107.2046 Z-2.7 I0.1625 J0.2815
G2 X23.8375 Y107.2815 Z-2.7175 I0.2525 J-0.2046
G2 X24.325 Y107.0 Z-2.8175 I0.1625 J-0.2815
G2 X23.8375 Y106.7185 Z-2.9175 I-0.325 J0.0
G2 X23.7475 Y107.2046 Z-3.0 I0.1625 J0.2815
G2 X23.8375 Y107.2815 Z-3.0175 I0.2525 J-0.2046
G2 X24.325 Y107.0 Z-3.1175 I0.1625 J-0.2815
G2 X23.8375 Y106.7185 Z-3.2175 I-0.325 J0.0
G2 X23.7475 Y107.2046 Z-3.3 I0.1625 J0.2815
G2 X23.8375 Y107.2815 Z-3.3175 I0.2525 J-0.2046
G2 X24.325 Y107.0 Z-3.4175 I0.1625 J-0.2815
G2 X23.8375 Y106.7185 Z-3.5175 I-0.325 J0.0
G2 X23.7475 Y107.2046 Z-3.6 I0.1625 J0.2815
G2 X23.8375 Y107.2815 I0.2525 J-0.2046
G2 X24.325 Y107.0 I0.1625 J-0.2815
G2 X23.8375 Y106.7185 I-0.325 J0.0
G2 X23.7475 Y107.2046 I0.1625 J0.2815
G0 Z3.0
G0 X14.2028 Y95.2539
G1 F15.0 Z0.0
G2 F450.0 X14.325 Y95.0 Z-0.0428 I-0.2028 J-0.2539
G2 X13.8375 Y94.7185 Z-0.1428 I-0.325 J0.0
G2 Y95.2815 Z-0.2428 I0.1625 J0.2815
G2 X14.2028 Y95.2539 Z-0.3 I0.1625 J-0.2815
G2 X14.325 Y95.0 Z-0.3428 I-0.2028 J-0.2539
G2 X13.8375 Y94.7185 Z-0.4428 I-0.325 J0.0
G2 Y95.2815 Z-0.5428 I0.1625 J0.2815
G2 X14.2028 Y95.2539 Z-0.6 I0.1625 J-0.2815
G2 X14.325 Y95.0 Z-0.6428 I-0.2028 J-0.2539
G2 X13.8375 Y94.7185 Z-0.7428 I-0.325 J0.0
G2 Y95.2815 Z-0.8428 I0.1625 J0.2815
G2 X14.2028 Y95.2539 Z-0.9 I0.1625 J-0.2815
G2 X14.325 Y95.0 Z-0.9428 I-0.2028 J-0.2539
G2 X13.8375 Y94.7185 Z-1.0428 I-0.325 J0.0
G2 Y95.2815 Z-1.1428 I0.1625 J0.2815
G2 X14.2028 Y95.2539 Z-1.2 I0.1625 J-0.2815
G2 X14.325 Y95.0 Z-1.2428 I-0.2028 J-0.2539
G2 X13.8375 Y94.7185 Z-1.3428 I-0.325 J0.0
G2 Y95.2815 Z-1.4428 I0.1625 J0.2815
G2 X14.2028 Y95.2539 Z-1.5 I0.1625 J-0.2815
G2 X14.325 Y95.0 Z-1.5428 I-0.2028 J-0.2539
G2 X13.8375 Y94.7185 Z-1.6428 I-0.325 J0.0
G2 Y95.2815 Z-1.7428 I0.1625 J0.2815
G2 X14.2028 Y95.2539 Z-1.8 I0.1625 J-0.2815
G2 X14.325 Y95.0 Z-1.8428 I-0.2028 J-0.2539
G2 X13.8375 Y94.7185 Z-1.9428 I-0.325 J0.0
G2 Y95.2815 Z-2.0428 I0.1625 J0.2815
G2 X14.2028 Y95.2539 Z-2.1 I0.1625 J-0.2815
G2 X14.325 Y95.0 Z-2.1428 I-0.2028 J-0.2539
G2 X13.8375 Y94.7185 Z-2.2428 I-0.325 J0.0
G2 Y95.2815 Z-2.3428 I0.1625 J0.2815
G2 X14.2028 Y95.2539 Z-2.4 I0.1625 J-0.2815
G2 X14.325 Y95.0 Z-2.4428 I-0.2028 J-0.2539
G2 X13.8375 Y94.7185 Z-2.5428 I-0.325 J0.0
G2 Y95.2815 Z-2.6428 I0.1625 J0.2815
G2 X14.2028 Y95.2539 Z-2.7 I0.1625 J-0.2815
G2 X14.325 Y95.0 Z-2.7428 I-0.2028 J-0.2539
G2 X13.8375 Y94.7185 Z-2.8428 I-0.325 J0.0
G2 Y95.2815 Z-2.9428 I0.1625 J0.2815
G2 X14.2028 Y95.2539 Z-3.0 I0.1625 J-0.2815
G2 X14.325 Y95.0 Z-3.0428 I-0.2028 J-0.2539
G2 X13.8375 Y94.7185 Z-3.1428 I-0.325 J0.0
G2 Y95.2815 Z-3.2428 I0.1625 J0.2815
G2 X14.2028 Y95.2539 Z-3.3 I0.1625 J-0.2815
G2 X14.325 Y95.0 Z-3.3428 I-0.2028 J-0.2539
G2 X13.8375 Y94.7185 Z-3.4428 I-0.325 J0.0
G2 Y95.2815 Z-3.5428 I0.1625 J0.2815
G2 X14.2028 Y95.2539 Z-3.6 I0.1625 J-0.2815
G2 X14.325 Y95.0 I-0.2028 J-0.2539
G2 X13.8375 Y94.7185 I-0.325 J0.0
G2 Y95.2815 I0.1625 J0.2815
G2 X14.2028 Y95.2539 I0.1625 J-0.2815
G0 Z3.0
G0 X6.3248 Y95.0101
G1 F15.0 Z0.0
G2 F450.0 X6.325 Y95.0 Z-0.0015 I-0.3248 J-0.0101
G2 X5.8375 Y94.7185 Z-0.1015 I-0.325 J0.0
G2 Y95.2815 Z-0.2015 I0.1625 J0.2815
G2 X6.3248 Y95.0101 Z-0.3 I0.1625 J-0.2815
G2 X6.325 Y95.0 Z-0.3015 I-0.3248 J-0.0101
G2 X5.8375 Y94.7185 Z-0.4015 I-0.325 J0.0
G2 Y95.2815 Z-0.5015 I0.1625 J0.2815
G2 X6.3248 Y95.0101 Z-0.6 I0.1625 J-0.2815
G2 X6.325 Y95.0 Z-0.6015 I-0.3248 J-0.0101
G2 X5.8375 Y94.7185 Z-0.7015 I-0.325 J0.0
G2 Y95.2815 Z-0.8015 I0.1625 J0.2815
G2 X6.3248 Y95.0101 Z-0.9 I0.1625 J-0.2815
G2 X6.325 Y95.0 Z-0.9015 I-0.3248 J-0.0101
G2 X5.8375 Y94.7185 Z-1.0015 I-0.325 J0.0
G2 Y95.2815 Z-1.1015 I0.1625 J0.2815
G2 X6.3248 Y95.0101 Z-1.2 I0.1625 J-0.2815
G2 X6.325 Y95.0 Z-1.2015 I-0.3248 J-0.0101
G2 X5.8375 Y94.7185 Z-1.3015 I-0.325 J0.0
G2 Y95.2815 Z-1.4015 I0.1625 J0.2815
G2 X6.3248 Y95.0101 Z-1.5 I0.1625 J-0.2815
G2 X6.325 Y95.0 Z-1.5015 I-0.3248 J-0.0101
G2 X5.8375 Y94.7185 Z-1.6015 I-0.325 J0.0
G2 Y95.2815 Z-1.7015 I0.1625 J0.2815
G2 X6.3248 Y95.0101 Z-1.8 I0.1625 J-0.2815
G2 X6.325 Y95.0 Z-1.8015 I-0.3248 J-0.0101
G2 X5.8375 Y94.7185 Z-1.9015 I-0.325 J0.0
G2 Y95.2815 Z-2.0015 I0.1625 J0.2815
G2 X6.3248 Y95.0101 Z-2.1 I0.1625 J-0.2815
G2 X6.325 Y95.0 Z-2.1015 I-0.3248 J-0.0101
G2 X5.8375 Y94.7185 Z-2.2015 I-0.325 J0.0
G2 Y95.2815 Z-2.3015 I0.1625 J0.2815
G2 X6.3248 Y95.0101 Z-2.4 I0.1625 J-0.2815
G2 X6.325 Y95.0 Z-2.4015 I-0.3248 J-0.0101
G2 X5.8375 Y94.7185 Z-2.5015 I-0.325 J0.0
G2 Y95.2815 Z-2.6015 I0.1625 J0.2815
G2 X6.3248 Y95.0101 Z-2.7 I0.1625 J-0.2815
G2 X6.325 Y95.0 Z-2.7015 I-0.3248 J-0.0101
G2 X5.8375 Y94.7185 Z-2.8015 I-0.325 J0.0
G2 Y95.2815 Z-2.9015 I0.1625 J0.2815
G2 X6.3248 Y95.0101 Z-3.0 I0.1625 J-0.2815
G2 X6.325 Y95.0 Z-3.0015 I-0.3248 J-0.0101
G2 X5.8375 Y94.7185 Z-3.1015 I-0.325 J0.0
G2 Y95.2815 Z-3.2015 I0.1625 J0.2815
G2 X6.3248 Y95.0101 Z-3.3 I0.1625 J-0.2815
G2 X6.325 Y95.0 Z-3.3015 I-0.3248 J-0.0101
G2 X5.8375 Y94.7185 Z-3.4015 I-0.325 J0.0
G2 Y95.2815 Z-3.5015 I0.1625 J0.2815
G2 X6.3248 Y95.0101 Z-3.6 I0.1625 J-0.2815
G2 X6.325 Y95.0 I-0.3248 J-0.0101
G2 X5.8375 Y94.7185 I-0.325 J0.0
G2 Y95.2815 I0.1625 J0.2815
G2 X6.3248 Y95.0101 I0.1625 J-0.2815
G0 Z3.0
G0 X6.0035 Y124.675
G1 F15.0 Z0.0
G2 F450.0 X5.8375 Y124.7185 Z-0.0255 I-0.0035 J0.325
G2 Y125.2815 Z-0.1255 I0.1625 J0.2815
G2 X6.325 Y125.0 Z-0.2255 I0.1625 J-0.2815
G2 X6.0035 Y124.675 Z-0.3 I-0.325 J0.0
G2 X5.8375 Y124.7185 Z-0.3255 I-0.0035 J0.325
G2 Y125.2815 Z-0.4255 I0.1625 J0.2815
G2 X6.325 Y125.0 Z-0.5255 I0.1625 J-0.2815
G2 X6.0035 Y124.675 Z-0.6 I-0.325 J0.0
G2 X5.8375 Y124.7185 Z-0.6255 I-0.0035 J0.325
G2 Y125.2815 Z-0.7255 I0.1625 J0.2815
G2 X6.325 Y125.0 Z-0.8255 I0.1625 J-0.2815
G2 X6.0035 Y124.675 Z-0.9 I-0.325 J0.0
G2 X5.8375 Y124.7185 Z-0.9255 I-0.0035 J0.325
G2 Y125.2815 Z-1.0255 I0.1625 J0.2815
G2 X6.325 Y125.0 Z-1.1255 I0.1625 J-0.2815
G2 X6.0035 Y124.675 Z-1.2 I-0.325 J0.0
G2 X5.8375 Y124.7185 Z-1.2255 I-0.0035 J0.325
G2 Y125.2815 Z-1.3255 I0.1625 J0.2815
G2 X6.325 Y125.0 Z-1.4255 I0.1625 J-0.2815
G2 X6.0035 Y124.675 Z-1.5 I-0.325 J0.0
G2 X5.8375 Y124.7185 Z-1.5255 I-0.0035 J0.325
G2 Y125.2815 Z-1.6255 I0.1625 J0.2815
G2 X6.325 Y125.0 Z-1.7255 I0.1625 J-0.2815
G2 X6.0035 Y124.675 Z-1.8 I-0.325 J0.0
G2 X5.8375 Y124.7185 Z-1.8255 I-0.0035 J0.325
G2 Y125.2815 Z-1.9255 I0.1625 J0.2815
G2 X6.325 Y125.0 Z-2.0255 I0.1625 J-0.2815
G2 X6.0035 Y124.675 Z-2.1 I-0.325 J0.0
G2 X5.8375 Y124.7185 Z-2.1255 I-0.0035 J0.325
G2 Y125.2815 Z-2.2255 I0.1625 J0.2815
G2 X6.325 Y125.0 Z-2.3255 I0.1625 J-0.2815
G2 X6.0035 Y124.675 Z-2.4 I-0.325 J0.0
G2 X5.8375 Y124.7185 Z-2.4255 I-0.0035 J0.325
G2 Y125.2815 Z-2.5255 I0.1625 J0.2815
G2 X6.325 Y125.0 Z-2.6255 I0.1625 J-0.2815
G2 X6.0035 Y124.675 Z-2.7 I-0.325 J0.0
G2 X5.8375 Y124.7185 Z-2.7255 I-0.0035 J0.325
G2 Y125.2815 Z-2.8255 I0.1625 J0.2815
G2 X6.325 Y125.0 Z-2.9255 I0.1625 J-0.2815
G2 X6.0035 Y124.675 Z-3.0 I-0.325 J0.0
G2 X5.8375 Y124.7185 Z-3.0255 I-0.0035 J0.325
G2 Y125.2815 Z-3.1255 I0.1625 J0.2815
G2 X6.325 Y125.0 Z-3.2255 I0.1625 J-0.2815
G2 X6.0035 Y124.675 Z-3.3 I-0.325 J0.0
G2 X5.8375 Y124.7185 Z-3.3255 I-0.0035 J0.325
G2 Y125.2815 Z-3.4255 I0.1625 J0.2815
G2 X6.325 Y125.0 Z-3.5255 I0.1625 J-0.2815
G2 X6.0035 Y124.675 Z-3.6 I-0.325 J0.0
G2 X5.8375 Y124.7185 I-0.0035 J0.325
G2 Y125.2815 I0.1625 J0.2815
G2 X6.325 Y125.0 I0.1625 J-0.2815
G2 X6.0035 Y124.675 I-0.325 J0.0
G0 Z3.0
G0 X50.1496 Y142.4765
G1 F15.0 Z0.0
G2 F450.0 X50.2885 Y142.8795 Z-0.0683 I0.3014 J0.1215
G2 X50.776 Y142.598 Z-0.1683 I0.1625 J-0.2815
G2 X50.2885 Y142.3165 Z-0.2683 I-0.325 J0.0
G2 X50.1496 Y142.4765 Z-0.3 I0.1625 J0.2815
G2 X50.2885 Y142.8795 Z-0.3683 I0.3014 J0.1215
G2 X50.776 Y142.598 Z-0.4683 I0.1625 J-0.2815
G2 X50.2885 Y142.3165 Z-0.5683 I-0.325 J0.0
G2 X50.1496 Y142.4765 Z-0.6 I0.1625 J0.2815
G2 X50.2885 Y142.8795 Z-0.6683 I0.3014 J0.1215
G2 X50.776 Y142.598 Z-0.7683 I0.1625 J-0.2815
G2 X50.2885 Y142.3165 Z-0.8683 I-0.325 J0.0
G2 X50.1496 Y142.4765 Z-0.9 I0.1625 J0.2815
G2 X50.2885 Y142.8795 Z-0.9683 I0.3014 J0.1215
G2 X50.776 Y142.598 Z-1.0683 I0.1625 J-0.2815
G2 X50.2885 Y142.3165 Z-1.1683 I-0.325 J0.0
G2 X50.1496 Y142.4765 Z-1.2 I0.1625 J0.2815
G2 X50.2885 Y142.8795 Z-1.2683 I0.3014 J0.1215
G2 X50.776 Y142.598 Z-1.3683 I0.1625 J-0.2815
G2 X50.2885 Y142.3165 Z-1.4683 I-0.325 J0.0
G2 X50.1496 Y142.4765 Z-1.5 I0.1625 J0.2815
G2 X50.2885 Y142.8795 Z-1.5683 I0.3014 J0.1215
G2 X50.776 Y142.598 Z-1.6683 I0.1625 J-0.2815
G2 X50.2885 Y142.3165 Z-1.7683 I-0.325 J0.0
G2 X50.1496 Y142.4765 Z-1.8 I0.1625 J0.2815
G2 X50.2885 Y142.8795 Z-1.8683 I0.3014 J0.1215
G2 X50.776 Y142.598 Z-1.9683 I0.1625 J-0.2815
G2 X50.2885 Y142.3165 Z-2.0683 I-0.325 J0.0
G2 X50.1496 Y142.4765 Z-2.1 I0.1625 J0.2815
G2 X50.2885 Y142.8795 Z-2.1683 I0.3014 J0.1215
G2 X50.776 Y142.598 Z-2.2683 I0.1625 J-0.2815
G2 X50.2885 Y142.3165 Z-2.3683 I-0.325 J0.0
G2 X50.1496 Y142.4765 Z-2.4 I0.1625 J0.2815
G2 X50.2885 Y142.8795 Z-2.4683 I0.3014 J0.1215
G2 X50.776 Y142.598 Z-2.5683 I0.1625 J-0.2815
G2 X50.2885 Y142.3165 Z-2.6683 I-0.325 J0.0
G2 X50.1496 Y142.4765 Z-2.7 I0.1625 J0.2815
G2 X50.2885 Y142.8795 Z-2.7683 I0.3014 J0.1215
G2 X50.776 Y142.598 Z-2.8683 I0.1625 J-0.2815
G2 X50.2885 Y142.3165 Z-2.9683 I-0.325 J0.0
G2 X50.1496 Y142.4765 Z-3.0 I0.1625 J0.2815
G2 X50.2885 Y142.8795 Z-3.0683 I0.3014 J0.1215
G2 X50.776 Y142.598 Z-3.1683 I0.1625 J-0.2815
G2 X50.2885 Y142.3165 Z-3.2683 I-0.325 J0.0
G2 X50.1496 Y142.4765 Z-3.3 I0.1625 J0.2815
G2 X50.2885 Y142.8795 Z-3.3683 I0.3014 J0.1215
G2 X50.776 Y142.598 Z-3.4683 I0.1625 J-0.2815
G2 X50.2885 Y142.3165 Z-3.5683 I-0.325 J0.0
G2 X50.1496 Y142.4765 Z-3.6 I0.1625 J0.2815
G2 X50.2885 Y142.8795 I0.3014 J0.1215
G2 X50.776 Y142.598 I0.1625 J-0.2815
G2 X50.2885 Y142.3165 I-0.325 J0.0
G2 X50.1496 Y142.4765 I0.1625 J0.2815
G0 Z3.0
G0 X70.7214 Y154.8327
G1 F15.0 Z0.0
G2 F450.0 X70.8375 Y155.2815 Z-0.0758 I0.2786 J0.1673
G2 X71.325 Y155.0 Z-0.1758 I0.1625 J-0.2815
G2 X70.8375 Y154.7185 Z-0.2758 I-0.325 J0.0
G2 X70.7214 Y154.8327 Z-0.3 I0.1625 J0.2815
G2 X70.8375 Y155.2815 Z-0.3758 I0.2786 J0.1673
G2 X71.325 Y155.0 Z-0.4758 I0.1625 J-0.2815
G2 X70.8375 Y154.7185 Z-0.5758 I-0.325 J0.0
G2 X70.7214 Y154.8327 Z-0.6 I0.1625 J0.2815
G2 X70.8375 Y155.2815 Z-0.6758 I0.2786 J0.1673
G2 X71.325 Y155.0 Z-0.7758 I0.1625 J-0.2815
G2 X70.8375 Y154.7185 Z-0.8758 I-0.325 J0.0
G2 X70.7214 Y154.8327 Z-0.9 I0.1625 J0.2815
G2 X70.8375 Y155.2815 Z-0.9758 I0.2786 J0.1673
G2 X71.325 Y155.0 Z-1.0758 I0.1625 J-0.2815
G2 X70.8375 Y154.7185 Z-1.1758 I-0.325 J0.0
G2 X70.7214 Y154.8327 Z-1.2 I0.1625 J0.2815
G2 X70.8375 Y155.2815 Z-1.2758 I0.2786 J0.1673
G2 X71.325 Y155.0 Z-1.3758 I0.1625 J-0.2815
G2 X70.8375 Y154.7185 Z-1.4758 I-0.325 J0.0
G2 X70.7214 Y154.8327 Z-1.5 I0.1625 J0.2815
G2 X70.8375 Y155.2815 Z-1.5758 I0.2786 J0.1673
G2 X71.325 Y155.0 Z-1.6758 I0.1625 J-0.2815
G2 X70.8375 Y154.7185 Z-1.7758 I-0.325 J0.0
G2 X70.7214 Y154.8327 Z-1.8 I0.1625 J0.2815
G2 X70.8375 Y155.2815 Z-1.8758 I0.2786 J0.1673
G2 X71.325 Y155.0 Z-1.9758 I0.1625 J-0.2815
G2 X70.8375 Y154.7185 Z-2.0758 I-0.325 J0.0
G2 X70.7214 Y154.8327 Z-2.1 I0.1625 J0.2815
G2 X70.8375 Y155.2815 Z-2.1758 I0.2786 J0.1673
G2 X71.325 Y155.0 Z-2.2758 I0.1625 J-0.2815
G2 X70.8375 Y154.7185 Z-2.3758 I-0.325 J0.0
G2 X70.7214 Y154.8327 Z-2.4 I0.1625 J0.2815
G2 X70.8375 Y155.2815 Z-2.4758 I0.2786 J0.1673
G2 X71.325 Y155.0 Z-2.5758 I0.1625 J-0.2815
G2 X70.8375 Y154.7185 Z-2.6758 I-0.325 J0.0
G2 X70.7214 Y154.8327 Z-2.7 I0.1625 J0.2815
G2 X70.8375 Y155.2815 Z-2.7758 I0.2786 J0.1673
G2 X71.325 Y155.0 Z-2.8758 I0.1625 J-0.2815
G2 X70.8375 Y154.7185 Z-2.9758 I-0.325 J0.0
G2 X70.7214 Y154.8327 Z-3.0 I0.1625 J0.2815
G2 X70.8375 Y155.2815 Z-3.0758 I0.2786 J0.1673
G2 X71.325 Y155.0 Z-3.1758 I0.1625 J-0.2815
G2 X70.8375 Y154.7185 Z-3.2758 I-0.325 J0.0
G2 X70.7214 Y154.8327 Z-3.3 I0.1625 J0.2815
G2 X70.8375 Y155.2815 Z-3.3758 I0.2786 J0.1673
G2 X71.325 Y155.0 Z-3.4758 I0.1625 J-0.2815
G2 X70.8375 Y154.7185 Z-3.5758 I-0.325 J0.0
G2 X70.7214 Y154.8327 Z-3.6 I0.1625 J0.2815
G2 X70.8375 Y155.2815 I0.2786 J0.1673
G2 X71.325 Y155.0 I0.1625 J-0.2815
G2 X70.8375 Y154.7185 I-0.325 J0.0
G2 X70.7214 Y154.8327 I0.1625 J0.2815
G0 Z3.0
G0 X78.6751 Y154.9934
G1 F15.0 Z0.0
G2 F450.0 X78.8375 Y155.2815 Z-0.051 I0.3249 J0.0066
G2 X79.325 Y155.0 Z-0.151 I0.1625 J-0.2815
G2 X78.8375 Y154.7185 Z-0.251 I-0.325 J0.0
G2 X78.6751 Y154.9934 Z-0.3 I0.1625 J0.2815
G2 X78.8375 Y155.2815 Z-0.351 I0.3249 J0.0066
G2 X79.325 Y155.0 Z-0.451 I0.1625 J-0.2815
G2 X78.8375 Y154.7185 Z-0.551 I-0.325 J0.0
G2 X78.6751 Y154.9934 Z-0.6 I0.1625 J0.2815
G2 X78.8375 Y155.2815 Z-0.651 I0.3249 J0.0066
G2 X79.325 Y155.0 Z-0.751 I0.1625 J-0.2815
G2 X78.8375 Y154.7185 Z-0.851 I-0.325 J0.0
G2 X78.6751 Y154.9934 Z-0.9 I0.1625 J0.2815
G2 X78.8375 Y155.2815 Z-0.951 I0.3249 J0.0066
G2 X79.325 Y155.0 Z-1.051 I0.1625 J-0.2815
G2 X78.8375 Y154.7185 Z-1.151 I-0.325 J0.0
G2 X78.6751 Y154.9934 Z-1.2 I0.1625 J0.2815
G2 X78.8375 Y155.2815 Z-1.251 I0.3249 J0.0066
G2 X79.325 Y155.0 Z-1.351 I0.1625 J-0.2815
G2 X78.8375 Y154.7185 Z-1.451 I-0.325 J0.0
G2 X78.6751 Y154.9934 Z-1.5 I0.1625 J0.2815
G2 X78.8375 Y155.2815 Z-1.551 I0.3249 J0.0066
G2 X79.325 Y155.0 Z-1.651 I0.1625 J-0.2815
G2 X78.8375 Y154.7185 Z-1.751 I-0.325 J0.0
G2 X78.6751 Y154.9934 Z-1.8 I0.1625 J0.2815
G2 X78.8375 Y155.2815 Z-1.851 I0.3249 J0.0066
G2 X79.325 Y155.0 Z-1.951 I0.1625 J-0.2815
G2 X78.8375 Y154.7185 Z-2.051 I-0.325 J0.0
G2 X78.6751 Y154.9934 Z-2.1 I0.1625 J0.2815
G2 X78.8375 Y155.2815 Z-2.151 I0.3249 J0.0066
G2 X79.325 Y155.0 Z-2.251 I0.1625 J-0.2815
G2 X78.8375 Y154.7185 Z-2.351 I-0.325 J0.0
G2 X78.6751 Y154.9934 Z-2.4 I0.1625 J0.2815
G2 X78.8375 Y155.2815 Z-2.451 I0.3249 J0.0066
G2 X79.325 Y155.0 Z-2.551 I0.1625 J-0.2815
G2 X78.8375 Y154.7185 Z-2.651 I-0.325 J0.0
G2 X78.6751 Y154.9934 Z-2.7 I0.1625 J0.2815
G2 X78.8375 Y155.2815 Z-2.751 I0.3249 J0.0066
G2 X79.325 Y155.0 Z-2.851 I0.1625 J-0.2815
G2 X78.8375 Y154.7185 Z-2.951 I-0.325 J0.0
G2 X78.6751 Y154.9934 Z-3.0 I0.1625 J0.2815
G2 X78.8375 Y155.2815 Z-3.051 I0.3249 J0.0066
G2 X79.325 Y155.0 Z-3.151 I0.1625 J-0.2815
G2 X78.8375 Y154.7185 Z-3.251 I-0.325 J0.0
G2 X78.6751 Y154.9934 Z-3.3 I0.1625 J0.2815
G2 X78.8375 Y155.2815 Z-3.351 I0.3249 J0.0066
G2 X79.325 Y155.0 Z-3.451 I0.1625 J-0.2815
G2 X78.8375 Y154.7185 Z-3.551 I-0.325 J0.0
G2 X78.6751 Y154.9934 Z-3.6 I0.1625 J0.2815
G2 X78.8375 Y155.2815 I0.3249 J0.0066
G2 X79.325 Y155.0 I0.1625 J-0.2815
G2 X78.8375 Y154.7185 I-0.325 J0.0
G2 X78.6751 Y154.9934 I0.1625 J0.2815
G0 Z3.0
G0 X61.2375 Y171.2782
G1 F15.0 Z0.0
G2 F450.0 X60.8375 Y171.2185 Z-0.0641 I-0.2375 J0.2218
G2 Y171.7815 Z-0.1641 I0.1625 J0.2815
G2 X61.325 Y171.5 Z-0.2641 I0.1625 J-0.2815
G2 X61.2375 Y171.2782 Z-0.3 I-0.325 J0.0
G2 X60.8375 Y171.2185 Z-0.3641 I-0.2375 J0.2218
G2 Y171.7815 Z-0.4641 I0.1625 J0.2815
G2 X61.325 Y171.5 Z-0.5641 I0.1625 J-0.2815
G2 X61.2375 Y171.2782 Z-0.6 I-0.325 J0.0
G2 X60.8375 Y171.2185 Z-0.6641 I-0.2375 J0.2218
G2 Y171.7815 Z-0.7641 I0.1625 J0.2815
G2 X61.325 Y171.5 Z-0.8641 I0.1625 J-0.2815
G2 X61.2375 Y171.2782 Z-0.9 I-0.325 J0.0
G2 X60.8375 Y171.2185 Z-0.9641 I-0.2375 J0.2218
G2 Y171.7815 Z-1.0641 I0.1625 J0.2815
G2 X61.325 Y171.5 Z-1.1641 I0.1625 J-0.2815
G2 X61.2375 Y171.2782 Z-1.2 I-0.325 J0.0
G2 X60.8375 Y171.2185 Z-1.2641 I-0.2375 J0.2218
G2 Y171.7815 Z-1.3641 I0.1625 J0.2815
G2 X61.325 Y171.5 Z-1.4641 I0.1625 J-0.2815
G2 X61.2375 Y171.2782 Z-1.5 I-0.325 J0.0
G2 X60.8375 Y171.2185 Z-1.5641 I-0.2375 J0.2218
G2 Y171.7815 Z-1.6641 I0.1625 J0.2815
G2 X61.325 Y171.5 Z-1.7641 I0.1625 J-0.2815
G2 X61.2375 Y171.2782 Z-1.8 I-0.325 J0.0
G2 X60.8375 Y171.2185 Z-1.8641 I-0.2375 J0.2218
G2 Y171.7815 Z-1.9641 I0.1625 J0.2815
G2 X61.325 Y171.5 Z-2.0641 I0.1625 J-0.2815
G2 X61.2375 Y171.2782 Z-2.1 I-0.325 J0.0
G2 X60.8375 Y171.2185 Z-2.1641 I-0.2375 J0.2218
G2 Y171.7815 Z-2.2641 I0.1625 J0.2815
G2 X61.325 Y171.5 Z-2.3641 I0.1625 J-0.2815
G2 X61.2375 Y171.2782 Z-2.4 I-0.325 J0.0
G2 X60.8375 Y171.2185 Z-2.4641 I-0.2375 J0.2218
G2 Y171.7815 Z-2.5641 I0.1625 J0.2815
G2 X61.325 Y171.5 Z-2.6641 I0.1625 J-0.2815
G2 X61.2375 Y171.2782 Z-2.7 I-0.325 J0.0
G2 X60.8375 Y171.2185 Z-2.7641 I-0.2375 J0.2218
G2 Y171.7815 Z-2.8641 I0.1625 J0.2815
G2 X61.325 Y171.5 Z-2.9641 I0.1625 J-0.2815
G2 X61.2375 Y171.2782 Z-3.0 I-0.325 J0.0
G2 X60.8375 Y171.2185 Z-3.0641 I-0.2375 J0.2218
G2 Y171.7815 Z-3.1641 I0.1625 J0.2815
G2 X61.325 Y171.5 Z-3.2641 I0.1625 J-0.2815
G2 X61.2375 Y171.2782 Z-3.3 I-0.325 J0.0
G2 X60.8375 Y171.2185 Z-3.3641 I-0.2375 J0.2218
G2 Y171.7815 Z-3.4641 I0.1625 J0.2815
G2 X61.325 Y171.5 Z-3.5641 I0.1625 J-0.2815
G2 X61.2375 Y171.2782 Z-3.6 I-0.325 J0.0
G2 X60.8375 Y171.2185 I-0.2375 J0.2218
G2 Y171.7815 I0.1625 J0.2815
G2 X61.325 Y171.5 I0.1625 J-0.2815
G2 X61.2375 Y171.2782 I-0.325 J0.0
G0 Z3.0
G0 X70.8116 Y184.7352
G1 F15.0 Z0.0
G2 F450.0 X70.8375 Y185.2815 Z-0.0955 I0.1884 J0.2648
G2 X71.325 Y185.0 Z-0.1955 I0.1625 J-0.2815
G2 X70.8375 Y184.7185 Z-0.2955 I-0.325 J0.0
G2 X70.8116 Y184.7352 Z-0.3 I0.1625 J0.2815
G2 X70.8375 Y185.2815 Z-0.3955 I0.1884 J0.2648
G2 X71.325 Y185.0 Z-0.4955 I0.1625 J-0.2815
G2 X70.8375 Y184.7185 Z-0.5955 I-0.325 J0.0
G2 X70.8116 Y184.7352 Z-0.6 I0.1625 J0.2815
G2 X70.8375 Y185.2815 Z-0.6955 I0.1884 J0.2648
G2 X71.325 Y185.0 Z-0.7955 I0.1625 J-0.2815
G2 X70.8375 Y184.7185 Z-0.8955 I-0.325 J0.0
G2 X70.8116 Y184.7352 Z-0.9 I0.1625 J0.2815
G2 X70.8375 Y185.2815 Z-0.9955 I0.1884 J0.2648
G2 X71.325 Y185.0 Z-1.0955 I0.1625 J-0.2815
G2 X70.8375 Y184.7185 Z-1.1955 I-0.325 J0.0
G2 X70.8116 Y184.7352 Z-1.2 I0.1625 J0.2815
G2 X70.8375 Y185.2815 Z-1.2955 I0.1884 J0.2648
G2 X71.325 Y185.0 Z-1.3955 I0.1625 J-0.2815
G2 X70.8375 Y184.7185 Z-1.4955 I-0.325 J0.0
G2 X70.8116 Y184.7352 Z-1.5 I0.1625 J0.2815
G2 X70.8375 Y185.2815 Z-1.5955 I0.1884 J0.2648
G2 X71.325 Y185.0 Z-1.6955 I0.1625 J-0.2815
G2 X70.8375 Y184.7185 Z-1.7955 I-0.325 J0.0
G2 X70.8116 Y184.7352 Z-1.8 I0.1625 J0.2815
G2 X70.8375 Y185.2815 Z-1.8955 I0.1884 J0.2648
G2 X71.325 Y185.0 Z-1.9955 I0.1625 J-0.2815
G2 X70.8375 Y184.7185 Z-2.0955 I-0.325 J0.0
G2 X70.8116 Y184.7352 Z-2.1 I0.1625 J0.2815
G2 X70.8375 Y185.2815 Z-2.1955 I0.1884 J0.2648
G2 X71.325 Y185.0 Z-2.2955 I0.1625 J-0.2815
G2 X70.8375 Y184.7185 Z-2.3955 I-0.325 J0.0
G2 X70.8116 Y184.7352 Z-2.4 I0.1625 J0.2815
G2 X70.8375 Y185.2815 Z-2.4955 I0.1884 J0.2648
G2 X71.325 Y185.0 Z-2.5955 I0.1625 J-0.2815
G2 X70.8375 Y184.7185 Z-2.6955 I-0.325 J0.0
G2 X70.8116 Y184.7352 Z-2.7 I0.1625 J0.2815
G2 X70.8375 Y185.2815 Z-2.7955 I0.1884 J0.2648
G2 X71.325 Y185.0 Z-2.8955 I0.1625 J-0.2815
G2 X70.8375 Y184.7185 Z-2.9955 I-0.325 J0.0
G2 X70.8116 Y184.7352 Z-3.0 I0.1625 J0.2815
G2 X70.8375 Y185.2815 Z-3.0955 I0.1884 J0.2648
G2 X71.325 Y185.0 Z-3.1955 I0.1625 J-0.2815
G2 X70.8375 Y184.7185 Z-3.2955 I-0.325 J0.0
G2 X70.8116 Y184.7352 Z-3.3 I0.1625 J0.2815
G2 X70.8375 Y185.2815 Z-3.3955 I0.1884 J0.2648
G2 X71.325 Y185.0 Z-3.4955 I0.1625 J-0.2815
G2 X70.8375 Y184.7185 Z-3.5955 I-0.325 J0.0
G2 X70.8116 Y184.7352 Z-3.6 I0.1625 J0.2815
G2 X70.8375 Y185.2815 I0.1884 J0.2648
G2 X71.325 Y185.0 I0.1625 J-0.2815
G2 X70.8375 Y184.7185 I-0.325 J0.0
G2 X70.8116 Y184.7352 I0.1625 J0.2815
G0 Z3.0
G0 X78.6752 Y184.9895
G1 F15.0 Z0.0
G2 F450.0 X78.8375 Y185.2815 Z-0.0515 I0.3248 J0.0105
G2 X79.325 Y185.0 Z-0.1515 I0.1625 J-0.2815
G2 X78.8375 Y184.7185 Z-0.2515 I-0.325 J0.0
G2 X78.6752 Y184.9895 Z-0.3 I0.1625 J0.2815
G2 X78.8375 Y185.2815 Z-0.3515 I0.3248 J0.0105
G2 X79.325 Y185.0 Z-0.4515 I0.1625 J-0.2815
G2 X78.8375 Y184.7185 Z-0.5515 I-0.325 J0.0
G2 X78.6752 Y184.9895 Z-0.6 I0.1625 J0.2815
G2 X78.8375 Y185.2815 Z-0.6515 I0.3248 J0.0105
G2 X79.325 Y185.0 Z-0.7515 I0.1625 J-0.2815
G2 X78.8375 Y184.7185 Z-0.8515 I-0.325 J0.0
G2 X78.6752 Y184.9895 Z-0.9 I0.1625 J0.2815
G2 X78.8375 Y185.2815 Z-0.9515 I0.3248 J0.0105
G2 X79.325 Y185.0 Z-1.0515 I0.1625 J-0.2815
G2 X78.8375 Y184.7185 Z-1.1515 I-0.325 J0.0
G2 X78.6752 Y184.9895 Z-1.2 I0.1625 J0.2815
G2 X78.8375 Y185.2815 Z-1.2515 I0.3248 J0.0105
G2 X79.325 Y185.0 Z-1.3515 I0.1625 J-0.2815
G2 X78.8375 Y184.7185 Z-1.4515 I-0.325 J0.0
G2 X78.6752 Y184.9895 Z-1.5 I0.1625 J0.2815
G2 X78.8375 Y185.2815 Z-1.5515 I0.3248 J0.0105
G2 X79.325 Y185.0 Z-1.6515 I0.1625 J-0.2815
G2 X78.8375 Y184.7185 Z-1.7515 I-0.325 J0.0
G2 X78.6752 Y184.9895 Z-1.8 I0.1625 J0.2815
G2 X78.8375 Y185.2815 Z-1.8515 I0.3248 J0.0105
G2 X79.325 Y185.0 Z-1.9515 I0.1625 J-0.2815
G2 X78.8375 Y184.7185 Z-2.0515 I-0.325 J0.0
G2 X78.6752 Y184.9895 Z-2.1 I0.1625 J0.2815
G2 X78.8375 Y185.2815 Z-2.1515 I0.3248 J0.0105
G2 X79.325 Y185.0 Z-2.2515 I0.1625 J-0.2815
G2 X78.8375 Y184.7185 Z-2.3515 I-0.325 J0.0
G2 X78.6752 Y184.9895 Z-2.4 I0.1625 J0.2815
G2 X78.8375 Y185.2815 Z-2.4515 I0.3248 J0.0105
G2 X79.325 Y185.0 Z-2.5515 I0.1625 J-0.2815
G2 X78.8375 Y184.7185 Z-2.6515 I-0.325 J0.0
G2 X78.6752 Y184.9895 Z-2.7 I0.1625 J0.2815
G2 X78.8375 Y185.2815 Z-2.7515 I0.3248 J0.0105
G2 X79.325 Y185.0 Z-2.8515 I0.1625 J-0.2815
G2 X78.8375 Y184.7185 Z-2.9515 I-0.325 J0.0
G2 X78.6752 Y184.9895 Z-3.0 I0.1625 J0.2815
G2 X78.8375 Y185.2815 Z-3.0515 I0.3248 J0.0105
G2 X79.325 Y185.0 Z-3.1515 I0.1625 J-0.2815
G2 X78.8375 Y184.7185 Z-3.2515 I-0.325 J0.0
G2 X78.6752 Y184.9895 Z-3.3 I0.1625 J0.2815
G2 X78.8375 Y185.2815 Z-3.3515 I0.3248 J0.0105
G2 X79.325 Y185.0 Z-3.4515 I0.1625 J-0.2815
G2 X78.8375 Y184.7185 Z-3.5515 I-0.325 J0.0
G2 X78.6752 Y184.9895 Z-3.6 I0.1625 J0.2815
G2 X78.8375 Y185.2815 I0.3248 J0.0105
G2 X79.325 Y185.0 I0.1625 J-0.2815
G2 X78.8375 Y184.7185 I-0.325 J0.0
G2 X78.6752 Y184.9895 I0.1625 J0.2815
G0 Z3.0
G0 X65.9638 Y193.2213
G1 F15.0 Z0.0
G2 F450.0 X65.5285 Y193.1165 Z-0.0726 I-0.2728 J0.1767
G2 Y193.6795 Z-0.1726 I0.1625 J0.2815
G2 X66.016 Y193.398 Z-0.2726 I0.1625 J-0.2815
G2 X65.9638 Y193.2213 Z-0.3 I-0.325 J0.0
G2 X65.5285 Y193.1165 Z-0.3726 I-0.2728 J0.1767
G2 Y193.6795 Z-0.4726 I0.1625 J0.2815
G2 X66.016 Y193.398 Z-0.5726 I0.1625 J-0.2815
G2 X65.9638 Y193.2213 Z-0.6 I-0.325 J0.0
G2 X65.5285 Y193.1165 Z-0.6726 I-0.2728 J0.1767
G2 Y193.6795 Z-0.7726 I0.1625 J0.2815
G2 X66.016 Y193.398 Z-0.8726 I0.1625 J-0.2815
G2 X65.9638 Y193.2213 Z-0.9 I-0.325 J0.0
G2 X65.5285 Y193.1165 Z-0.9726 I-0.2728 J0.1767
G2 Y193.6795 Z-1.0726 I0.1625 J0.2815
G2 X66.016 Y193.398 Z-1.1726 I0.1625 J-0.2815
G2 X65.9638 Y193.2213 Z-1.2 I-0.325 J0.0
G2 X65.5285 Y193.1165 Z-1.2726 I-0.2728 J0.1767
G2 Y193.6795 Z-1.3726 I0.1625 J0.2815
G2 X66.016 Y193.398 Z-1.4726 I0.1625 J-0.2815
G2 X65.9638 Y193.2213 Z-1.5 I-0.325 J0.0
G2 X65.5285 Y193.1165 Z-1.5726 I-0.2728 J0.1767
G2 Y193.6795 Z-1.6726 I0.1625 J0.2815
G2 X66.016 Y193.398 Z-1.7726 I0.1625 J-0.2815
G2 X65.9638 Y193.2213 Z-1.8 I-0.325 J0.0
G2 X65.5285 Y193.1165 Z-1.8726 I-0.2728 J0.1767
G2 Y193.6795 Z-1.9726 I0.1625 J0.2815
G2 X66.016 Y193.398 Z-2.0726 I0.1625 J-0.2815
G2 X65.9638 Y193.2213 Z-2.1 I-0.325 J0.0
G2 X65.5285 Y193.1165 Z-2.1726 I-0.2728 J0.1767
G2 Y193.6795 Z-2.2726 I0.1625 J0.2815
G2 X66.016 Y193.398 Z-2.3726 I0.1625 J-0.2815
G2 X65.9638 Y193.2213 Z-2.4 I-0.325 J0.0
G2 X65.5285 Y193.1165 Z-2.4726 I-0.2728 J0.1767
G2 Y193.6795 Z-2.5726 I0.1625 J0.2815
G2 X66.016 Y193.398 Z-2.6726 I0.1625 J-0.2815
G2 X65.9638 Y193.2213 Z-2.7 I-0.325 J0.0
G2 X65.5285 Y193.1165 Z-2.7726 I-0.2728 J0.1767
G2 Y193.6795 Z-2.8726 I0.1625 J0.2815
G2 X66.016 Y193.398 Z-2.9726 I0.1625 J-0.2815
G2 X65.9638 Y193.2213 Z-3.0 I-0.325 J0.0
G2 X65.5285 Y193.1165 Z-3.0726 I-0.2728 J0.1767
G2 Y193.6795 Z-3.1726 I0.1625 J0.2815
G2 X66.016 Y193.398 Z-3.2726 I0.1625 J-0.2815
G2 X65.9638 Y193.2213 Z-3.3 I-0.325 J0.0
G2 X65.5285 Y193.1165 Z-3.3726 I-0.2728 J0.1767
G2 Y193.6795 Z-3.4726 I0.1625 J0.2815
G2 X66.016 Y193.398 Z-3.5726 I0.1625 J-0.2815
G2 X65.9638 Y193.2213 Z-3.6 I-0.325 J0.0
G2 X65.5285 Y193.1165 I-0.2728 J0.1767
G2 Y193.6795 I0.1625 J0.2815
G2 X66.016 Y193.398 I0.1625 J-0.2815
G2 X65.9638 Y193.2213 I-0.325 J0.0
G0 Z3.0
G0 X64.1226 Y212.4375
G1 F15.0 Z0.0
G2 F450.0 X63.9291 Y212.4795 Z-0.0296 I-0.031 J0.3235
G2 Y213.0425 Z-0.1296 I0.1625 J0.2815
G2 X64.4166 Y212.761 Z-0.2296 I0.1625 J-0.2815
G2 X64.1226 Y212.4375 Z-0.3 I-0.325 J0.0
G2 X63.9291 Y212.4795 Z-0.3296 I-0.031 J0.3235
G2 Y213.0425 Z-0.4296 I0.1625 J0.2815
G2 X64.4166 Y212.761 Z-0.5296 I0.1625 J-0.2815
G2 X64.1226 Y212.4375 Z-0.6 I-0.325 J0.0
G2 X63.9291 Y212.4795 Z-0.6296 I-0.031 J0.3235
G2 Y213.0425 Z-0.7296 I0.1625 J0.2815
G2 X64.4166 Y212.761 Z-0.8296 I0.1625 J-0.2815
G2 X64.1226 Y212.4375 Z-0.9 I-0.325 J0.0
G2 X63.9291 Y212.4795 Z-0.9296 I-0.031 J0.3235
G2 Y213.0425 Z-1.0296 I0.1625 J0.2815
G2 X64.4166 Y212.761 Z-1.1296 I0.1625 J-0.2815
G2 X64.1226 Y212.4375 Z-1.2 I-0.325 J0.0
G2 X63.9291 Y212.4795 Z-1.2296 I-0.031 J0.3235
G2 Y213.0425 Z-1.3296 I0.1625 J0.2815
G2 X64.4166 Y212.761 Z-1.4296 I0.1625 J-0.2815
G2 X64.1226 Y212.4375 Z-1.5 I-0.325 J0.0
G2 X63.9291 Y212.4795 Z-1.5296 I-0.031 J0.3235
G2 Y213.0425 Z-1.6296 I0.1625 J0.2815
G2 X64.4166 Y212.761 Z-1.7296 I0.1625 J-0.2815
G2 X64.1226 Y212.4375 Z-1.8 I-0.325 J0.0
G2 X63.9291 Y212.4795 Z-1.8296 I-0.031 J0.3235
G2 Y213.0425 Z-1.9296 I0.1625 J0.2815
G2 X64.4166 Y212.761 Z-2.0296 I0.1625 J-0.2815
G2 X64.1226 Y212.4375 Z-2.1 I-0.325 J0.0
G2 X63.9291 Y212.4795 Z-2.1296 I-0.031 J0.3235
G2 Y213.0425 Z-2.2296 I0.1625 J0.2815
G2 X64.4166 Y212.761 Z-2.3296 I0.1625 J-0.2815
G2 X64.1226 Y212.4375 Z-2.4 I-0.325 J0.0
G2 X63.9291 Y212.4795 Z-2.4296 I-0.031 J0.3235
G2 Y213.0425 Z-2.5296 I0.1625 J0.2815
G2 X64.4166 Y212.761 Z-2.6296 I0.1625 J-0.2815
G2 X64.1226 Y212.4375 Z-2.7 I-0.325 J0.0
G2 X63.9291 Y212.4795 Z-2.7296 I-0.031 J0.3235
G2 Y213.0425 Z-2.8296 I0.1625 J0.2815
G2 X64.4166 Y212.761 Z-2.9296 I0.1625 J-0.2815
G2 X64.1226 Y212.4375 Z-3.0 I-0.325 J0.0
G2 X63.9291 Y212.4795 Z-3.0296 I-0.031 J0.3235
G2 Y213.0425 Z-3.1296 I0.1625 J0.2815
G2 X64.4166 Y212.761 Z-3.2296 I0.1625 J-0.2815
G2 X64.1226 Y212.4375 Z-3.3 I-0.325 J0.0
G2 X63.9291 Y212.4795 Z-3.3296 I-0.031 J0.3235
G2 Y213.0425 Z-3.4296 I0.1625 J0.2815
G2 X64.4166 Y212.761 Z-3.5296 I0.1625 J-0.2815
G2 X64.1226 Y212.4375 Z-3.6 I-0.325 J0.0
G2 X63.9291 Y212.4795 I-0.031 J0.3235
G2 Y213.0425 I0.1625 J0.2815
G2 X64.4166 Y212.761 I0.1625 J-0.2815
G2 X64.1226 Y212.4375 I-0.325 J0.0
G0 Z3.0
G0 X70.6955 Y214.8865
G1 F15.0 Z0.0
G2 F450.0 X70.8375 Y215.2815 Z-0.067 I0.3045 J0.1135
G2 X71.325 Y215.0 Z-0.167 I0.1625 J-0.2815
G2 X70.8375 Y214.7185 Z-0.267 I-0.325 J0.0
G2 X70.6955 Y214.8865 Z-0.3 I0.1625 J0.2815
G2 X70.8375 Y215.2815 Z-0.367 I0.3045 J0.1135
G2 X71.325 Y215.0 Z-0.467 I0.1625 J-0.2815
G2 X70.8375 Y214.7185 Z-0.567 I-0.325 J0.0
G2 X70.6955 Y214.8865 Z-0.6 I0.1625 J0.2815
G2 X70.8375 Y215.2815 Z-0.667 I0.3045 J0.1135
G2 X71.325 Y215.0 Z-0.767 I0.1625 J-0.2815
G2 X70.8375 Y214.7185 Z-0.867 I-0.325 J0.0
G2 X70.6955 Y214.8865 Z-0.9 I0.1625 J0.2815
G2 X70.8375 Y215.2815 Z-0.967 I0.3045 J0.1135
G2 X71.325 Y215.0 Z-1.067 I0.1625 J-0.2815
G2 X70.8375 Y214.7185 Z-1.167 I-0.325 J0.0
G2 X70.6955 Y214.8865 Z-1.2 I0.1625 J0.2815
G2 X70.8375 Y215.2815 Z-1.267 I0.3045 J0.1135
G2 X71.325 Y215.0 Z-1.367 I0.1625 J-0.2815
G2 X70.8375 Y214.7185 Z-1.467 I-0.325 J0.0
G2 X70.6955 Y214.8865 Z-1.5 I0.1625 J0.2815
G2 X70.8375 Y215.2815 Z-1.567 I0.3045 J0.1135
G2 X71.325 Y215.0 Z-1.667 I0.1625 J-0.2815
G2 X70.8375 Y214.7185 Z-1.767 I-0.325 J0.0
G2 X70.6955 Y214.8865 Z-1.8 I0.1625 J0.2815
G2 X70.8375 Y215.2815 Z-1.867 I0.3045 J0.1135
G2 X71.325 Y215.0 Z-1.967 I0.1625 J-0.2815
G2 X70.8375 Y214.7185 Z-2.067 I-0.325 J0.0
G2 X70.6955 Y214.8865 Z-2.1 I0.1625 J0.2815
G2 X70.8375 Y215.2815 Z-2.167 I0.3045 J0.1135
G2 X71.325 Y215.0 Z-2.267 I0.1625 J-0.2815
G2 X70.8375 Y214.7185 Z-2.367 I-0.325 J0.0
G2 X70.6955 Y214.8865 Z-2.4 I0.1625 J0.2815
G2 X70.8375 Y215.2815 Z-2.467 I0.3045 J0.1135
G2 X71.325 Y215.0 Z-2.567 I0.1625 J-0.2815
G2 X70.8375 Y214.7185 Z-2.667 I-0.325 J0.0
G2 X70.6955 Y214.8865 Z-2.7 I0.1625 J0.2815
G2 X70.8375 Y215.2815 Z-2.767 I0.3045 J0.1135
G2 X71.325 Y215.0 Z-2.867 I0.1625 J-0.2815
G2 X70.8375 Y214.7185 Z-2.967 I-0.325 J0.0
G2 X70.6955 Y214.8865 Z-3.0 I0.1625 J0.2815
G2 X70.8375 Y215.2815 Z-3.067 I0.3045 J0.1135
G2 X71.325 Y215.0 Z-3.167 I0.1625 J-0.2815
G2 X70.8375 Y214.7185 Z-3.267 I-0.325 J0.0
G2 X70.6955 Y214.8865 Z-3.3 I0.1625 J0.2815
G2 X70.8375 Y215.2815 Z-3.367 I0.3045 J0.1135
G2 X71.325 Y215.0 Z-3.467 I0.1625 J-0.2815
G2 X70.8375 Y214.7185 Z-3.567 I-0.325 J0.0
G2 X70.6955 Y214.8865 Z-3.6 I0.1625 J0.2815
G2 X70.8375 Y215.2815 I0.3045 J0.1135
G2 X71.325 Y215.0 I0.1625 J-0.2815
G2 X70.8375 Y214.7185 I-0.325 J0.0
G2 X70.6955 Y214.8865 I0.1625 J0.2815
G0 Z3.0
G0 X78.675 Y214.9956
G1 F15.0 Z0.0
G2 F450.0 X78.8375 Y215.2815 Z-0.0507 I0.325 J0.0044
G2 X79.325 Y215.0 Z-0.1507 I0.1625 J-0.2815
G2 X78.8375 Y214.7185 Z-0.2507 I-0.325 J0.0
G2 X78.675 Y214.9956 Z-0.3 I0.1625 J0.2815
G2 X78.8375 Y215.2815 Z-0.3507 I0.325 J0.0044
G2 X79.325 Y215.0 Z-0.4507 I0.1625 J-0.2815
G2 X78.8375 Y214.7185 Z-0.5507 I-0.325 J0.0
G2 X78.675 Y214.9956 Z-0.6 I0.1625 J0.2815
G2 X78.8375 Y215.2815 Z-0.6507 I0.325 J0.0044
G2 X79.325 Y215.0 Z-0.7507 I0.1625 J-0.2815
G2 X78.8375 Y214.7185 Z-0.8507 I-0.325 J0.0
G2 X78.675 Y214.9956 Z-0.9 I0.1625 J0.2815
G2 X78.8375 Y215.2815 Z-0.9507 I0.325 J0.0044
G2 X79.325 Y215.0 Z-1.0507 I0.1625 J-0.2815
G2 X78.8375 Y214.7185 Z-1.1507 I-0.325 J0.0
G2 X78.675 Y214.9956 Z-1.2 I0.1625 J0.2815
G2 X78.8375 Y215.2815 Z-1.2507 I0.325 J0.0044
G2 X79.325 Y215.0 Z-1.3507 I0.1625 J-0.2815
G2 X78.8375 Y214.7185 Z-1.4507 I-0.325 J0.0
G2 X78.675 Y214.9956 Z-1.5 I0.1625 J0.2815
G2 X78.8375 Y215.2815 Z-1.5507 I0.325 J0.0044
G2 X79.325 Y215.0 Z-1.6507 I0.1625 J-0.2815
G2 X78.8375 Y214.7185 Z-1.7507 I-0.325 J0.0
G2 X78.675 Y214.9956 Z-1.8 I0.1625 J0.2815
G2 X78.8375 Y215.2815 Z-1.8507 I0.325 J0.0044
G2 X79.325 Y215.0 Z-1.9507 I0.1625 J-0.2815
G2 X78.8375 Y214.7185 Z-2.0507 I-0.325 J0.0
G2 X78.675 Y214.9956 Z-2.1 I0.1625 J0.2815
G2 X78.8375 Y215.2815 Z-2.1507 I0.325 J0.0044
G2 X79.325 Y215.0 Z-2.2507 I0.1625 J-0.2815
G2 X78.8375 Y214.7185 Z-2.3507 I-0.325 J0.0
G2 X78.675 Y214.9956 Z-2.4 I0.1625 J0.2815
G2 X78.8375 Y215.2815 Z-2.4507 I0.325 J0.0044
G2 X79.325 Y215.0 Z-2.5507 I0.1625 J-0.2815
G2 X78.8375 Y214.7185 Z-2.6507 I-0.325 J0.0
G2 X78.675 Y214.9956 Z-2.7 I0.1625 J0.2815
G2 X78.8375 Y215.2815 Z-2.7507 I0.325 J0.0044
G2 X79.325 Y215.0 Z-2.8507 I0.1625 J-0.2815
G2 X78.8375 Y214.7185 Z-2.9507 I-0.325 J0.0
G2 X78.675 Y214.9956 Z-3.0 I0.1625 J0.2815
G2 X78.8375 Y215.2815 Z-3.0507 I0.325 J0.0044
G2 X79.325 Y215.0 Z-3.1507 I0.1625 J-0.2815
G2 X78.8375 Y214.7185 Z-3.2507 I-0.325 J0.0
G2 X78.675 Y214.9956 Z-3.3 I0.1625 J0.2815
G2 X78.8375 Y215.2815 Z-3.3507 I0.325 J0.0044
G2 X79.325 Y215.0 Z-3.4507 I0.1625 J-0.2815
G2 X78.8375 Y214.7185 Z-3.5507 I-0.325 J0.0
G2 X78.675 Y214.9956 Z-3.6 I0.1625 J0.2815
G2 X78.8375 Y215.2815 I0.325 J0.0044
G2 X79.325 Y215.0 I0.1625 J-0.2815
G2 X78.8375 Y214.7185 I-0.325 J0.0
G2 X78.675 Y214.9956 I0.1625 J0.2815
G0 Z3.0
G0 X61.2093 Y235.7513
G1 F15.0 Z0.0
G2 F450.0 X60.8375 Y235.7185 Z-0.0584 I-0.2093 J0.2487
G2 Y236.2815 Z-0.1584 I0.1625 J0.2815
G2 X61.325 Y236.0 Z-0.2584 I0.1625 J-0.2815
G2 X61.2093 Y235.7513 Z-0.3 I-0.325 J0.0
G2 X60.8375 Y235.7185 Z-0.3584 I-0.2093 J0.2487
G2 Y236.2815 Z-0.4584 I0.1625 J0.2815
G2 X61.325 Y236.0 Z-0.5584 I0.1625 J-0.2815
G2 X61.2093 Y235.7513 Z-0.6 I-0.325 J0.0
G2 X60.8375 Y235.7185 Z-0.6584 I-0.2093 J0.2487
G2 Y236.2815 Z-0.7584 I0.1625 J0.2815
G2 X61.325 Y236.0 Z-0.8584 I0.1625 J-0.2815
G2 X61.2093 Y235.7513 Z-0.9 I-0.325 J0.0
G2 X60.8375 Y235.7185 Z-0.9584 I-0.2093 J0.2487
G2 Y236.2815 Z-1.0584 I0.1625 J0.2815
G2 X61.325 Y236.0 Z-1.1584 I0.1625 J-0.2815
G2 X61.2093 Y235.7513 Z-1.2 I-0.325 J0.0
G2 X60.8375 Y235.7185 Z-1.2584 I-0.2093 J0.2487
G2 Y236.2815 Z-1.3584 I0.1625 J0.2815
G2 X61.325 Y236.0 Z-1.4584 I0.1625 J-0.2815
G2 X61.2093 Y235.7513 Z-1.5 I-0.325 J0.0
G2 X60.8375 Y235.7185 Z-1.5584 I-0.2093 J0.2487
G2 Y236.2815 Z-1.6584 I0.1625 J0.2815
G2 X61.325 Y236.0 Z-1.7584 I0.1625 J-0.2815
G2 X61.2093 Y235.7513 Z-1.8 I-0.325 J0.0
G2 X60.8375 Y235.7185 Z-1.8584 I-0.2093 J0.2487
G2 Y236.2815 Z-1.9584 I0.1625 J0.2815
G2 X61.325 Y236.0 Z-2.0584 I0.1625 J-0.2815
G2 X61.2093 Y235.7513 Z-2.1 I-0.325 J0.0
G2 X60.8375 Y235.7185 Z-2.1584 I-0.2093 J0.2487
G2 Y236.2815 Z-2.2584 I0.1625 J0.2815
G2 X61.325 Y236.0 Z-2.3584 I0.1625 J-0.2815
G2 X61.2093 Y235.7513 Z-2.4 I-0.325 J0.0
G2 X60.8375 Y235.7185 Z-2.4584 I-0.2093 J0.2487
G2 Y236.2815 Z-2.5584 I0.1625 J0.2815
G2 X61.325 Y236.0 Z-2.6584 I0.1625 J-0.2815
G2 X61.2093 Y235.7513 Z-2.7 I-0.325 J0.0
G2 X60.8375 Y235.7185 Z-2.7584 I-0.2093 J0.2487
G2 Y236.2815 Z-2.8584 I0.1625 J0.2815
G2 X61.325 Y236.0 Z-2.9584 I0.1625 J-0.2815
G2 X61.2093 Y235.7513 Z-3.0 I-0.325 J0.0
G2 X60.8375 Y235.7185 Z-3.0584 I-0.2093 J0.2487
G2 Y236.2815 Z-3.1584 I0.1625 J0.2815
G2 X61.325 Y236.0 Z-3.2584 I0.1625 J-0.2815
G2 X61.2093 Y235.7513 Z-3.3 I-0.325 J0.0
G2 X60.8375 Y235.7185 Z-3.3584 I-0.2093 J0.2487
G2 Y236.2815 Z-3.4584 I0.1625 J0.2815
G2 X61.325 Y236.0 Z-3.5584 I0.1625 J-0.2815
G2 X61.2093 Y235.7513 Z-3.6 I-0.325 J0.0
G2 X60.8375 Y235.7185 I-0.2093 J0.2487
G2 Y236.2815 I0.1625 J0.2815
G2 X61.325 Y236.0 I0.1625 J-0.2815
G2 X61.2093 Y235.7513 I-0.325 J0.0
G0 Z3.0
G0 X70.7637 Y244.7768
G1 F15.0 Z0.0
G2 F450.0 X70.8375 Y245.2815 Z-0.0861 I0.2363 J0.2232
G2 X71.325 Y245.0 Z-0.1861 I0.1625 J-0.2815
G2 X70.8375 Y244.7185 Z-0.2861 I-0.325 J0.0
G2 X70.7637 Y244.7768 Z-0.3 I0.1625 J0.2815
G2 X70.8375 Y245.2815 Z-0.3861 I0.2363 J0.2232
G2 X71.325 Y245.0 Z-0.4861 I0.1625 J-0.2815
G2 X70.8375 Y244.7185 Z-0.5861 I-0.325 J0.0
G2 X70.7637 Y244.7768 Z-0.6 I0.1625 J0.2815
G2 X70.8375 Y245.2815 Z-0.6861 I0.2363 J0.2232
G2 X71.325 Y245.0 Z-0.7861 I0.1625 J-0.2815
G2 X70.8375 Y244.7185 Z-0.8861 I-0.325 J0.0
G2 X70.7637 Y244.7768 Z-0.9 I0.1625 J0.2815
G2 X70.8375 Y245.2815 Z-0.9861 I0.2363 J0.2232
G2 X71.325 Y245.0 Z-1.0861 I0.1625 J-0.2815
G2 X70.8375 Y244.7185 Z-1.1861 I-0.325 J0.0
G2 X70.7637 Y244.7768 Z-1.2 I0.1625 J0.2815
G2 X70.8375 Y245.2815 Z-1.2861 I0.2363 J0.2232
G2 X71.325 Y245.0 Z-1.3861 I0.1625 J-0.2815
G2 X70.8375 Y244.7185 Z-1.4861 I-0.325 J0.0
G2 X70.7637 Y244.7768 Z-1.5 I0.1625 J0.2815
G2 X70.8375 Y245.2815 Z-1.5861 I0.2363 J0.2232
G2 X71.325 Y245.0 Z-1.6861 I0.1625 J-0.2815
G2 X70.8375 Y244.7185 Z-1.7861 I-0.325 J0.0
G2 X70.7637 Y244.7768 Z-1.8 I0.1625 J0.2815
G2 X70.8375 Y245.2815 Z-1.8861 I0.2363 J0.2232
G2 X71.325 Y245.0 Z-1.9861 I0.1625 J-0.2815
G2 X70.8375 Y244.7185 Z-2.0861 I-0.325 J0.0
G2 X70.7637 Y244.7768 Z-2.1 I0.1625 J0.2815
G2 X70.8375 Y245.2815 Z-2.1861 I0.2363 J0.2232
G2 X71.325 Y245.0 Z-2.2861 I0.1625 J-0.2815
G2 X70.8375 Y244.7185 Z-2.3861 I-0.325 J0.0
G2 X70.7637 Y244.7768 Z-2.4 I0.1625 J0.2815
G2 X70.8375 Y245.2815 Z-2.4861 I0.2363 J0.2232
G2 X71.325 Y245.0 Z-2.5861 I0.1625 J-0.2815
G2 X70.8375 Y244.7185 Z-2.6861 I-0.325 J0.0
G2 X70.7637 Y244.7768 Z-2.7 I0.1625 J0.2815
G2 X70.8375 Y245.2815 Z-2.7861 I0.2363 J0.2232
G2 X71.325 Y245.0 Z-2.8861 I0.1625 J-0.2815
G2 X70.8375 Y244.7185 Z-2.9861 I-0.325 J0.0
G2 X70.7637 Y244.7768 Z-3.0 I0.1625 J0.2815
G2 X70.8375 Y245.2815 Z-3.0861 I0.2363 J0.2232
G2 X71.325 Y245.0 Z-3.1861 I0.1625 J-0.2815
G2 X70.8375 Y244.7185 Z-3.2861 I-0.325 J0.0
G2 X70.7637 Y244.7768 Z-3.3 I0.1625 J0.2815
G2 X70.8375 Y245.2815 Z-3.3861 I0.2363 J0.2232
G2 X71.325 Y245.0 Z-3.4861 I0.1625 J-0.2815
G2 X70.8375 Y244.7185 Z-3.5861 I-0.325 J0.0
G2 X70.7637 Y244.7768 Z-3.6 I0.1625 J0.2815
G2 X70.8375 Y245.2815 I0.2363 J0.2232
G2 X71.325 Y245.0 I0.1625 J-0.2815
G2 X70.8375 Y244.7185 I-0.325 J0.0
G2 X70.7637 Y244.7768 I0.1625 J0.2815
G0 Z3.0
G0 X78.6751 Y244.9912
G1 F15.0 Z0.0
G2 F450.0 X78.8375 Y245.2815 Z-0.0513 I0.3249 J0.0088
G2 X79.325 Y245.0 Z-0.1513 I0.1625 J-0.2815
G2 X78.8375 Y244.7185 Z-0.2513 I-0.325 J0.0
G2 X78.6751 Y244.9912 Z-0.3 I0.1625 J0.2815
G2 X78.8375 Y245.2815 Z-0.3513 I0.3249 J0.0088
G2 X79.325 Y245.0 Z-0.4513 I0.1625 J-0.2815
G2 X78.8375 Y244.7185 Z-0.5513 I-0.325 J0.0
G2 X78.6751 Y244.9912 Z-0.6 I0.1625 J0.2815
G2 X78.8375 Y245.2815 Z-0.6513 I0.3249 J0.0088
G2 X79.325 Y245.0 Z-0.7513 I0.1625 J-0.2815
G2 X78.8375 Y244.7185 Z-0.8513 I-0.325 J0.0
G2 X78.6751 Y244.9912 Z-0.9 I0.1625 J0.2815
G2 X78.8375 Y245.2815 Z-0.9513 I0.3249 J0.0088
G2 X79.325 Y245.0 Z-1.0513 I0.1625 J-0.2815
G2 X78.8375 Y244.7185 Z-1.1513 I-0.325 J0.0
G2 X78.6751 Y244.9912 Z-1.2 I0.1625 J0.2815
G2 X78.8375 Y245.2815 Z-1.2513 I0.3249 J0.0088
G2 X79.325 Y245.0 Z-1.3513 I0.1625 J-0.2815
G2 X78.8375 Y244.7185 Z-1.4513 I-0.325 J0.0
G2 X78.6751 Y244.9912 Z-1.5 I0.1625 J0.2815
G2 X78.8375 Y245.2815 Z-1.5513 I0.3249 J0.0088
G2 X79.325 Y245.0 Z-1.6513 I0.1625 J-0.2815
G2 X78.8375 Y244.7185 Z-1.7513 I-0.325 J0.0
G2 X78.6751 Y244.9912 Z-1.8 I0.1625 J0.2815
G2 X78.8375 Y245.2815 Z-1.8513 I0.3249 J0.0088
G2 X79.325 Y245.0 Z-1.9513 I0.1625 J-0.2815
G2 X78.8375 Y244.7185 Z-2.0513 I-0.325 J0.0
G2 X78.6751 Y244.9912 Z-2.1 I0.1625 J0.2815
G2 X78.8375 Y245.2815 Z-2.1513 I0.3249 J0.0088
G2 X79.325 Y245.0 Z-2.2513 I0.1625 J-0.2815
G2 X78.8375 Y244.7185 Z-2.3513 I-0.325 J0.0
G2 X78.6751 Y244.9912 Z-2.4 I0.1625 J0.2815
G2 X78.8375 Y245.2815 Z-2.4513 I0.3249 J0.0088
G2 X79.325 Y245.0 Z-2.5513 I0.1625 J-0.2815
G2 X78.8375 Y244.7185 Z-2.6513 I-0.325 J0.0
G2 X78.6751 Y244.9912 Z-2.7 I0.1625 J0.2815
G2 X78.8375 Y245.2815 Z-2.7513 I0.3249 J0.0088
G2 X79.325 Y245.0 Z-2.8513 I0.1625 J-0.2815
G2 X78.8375 Y244.7185 Z-2.9513 I-0.325 J0.0
G2 X78.6751 Y244.9912 Z-3.0 I0.1625 J0.2815
G2 X78.8375 Y245.2815 Z-3.0513 I0.3249 J0.0088
G2 X79.325 Y245.0 Z-3.1513 I0.1625 J-0.2815
G2 X78.8375 Y244.7185 Z-3.2513 I-0.325 J0.0
G2 X78.6751 Y244.9912 Z-3.3 I0.1625 J0.2815
G2 X78.8375 Y245.2815 Z-3.3513 I0.3249 J0.0088
G2 X79.325 Y245.0 Z-3.4513 I0.1625 J-0.2815
G2 X78.8375 Y244.7185 Z-3.5513 I-0.325 J0.0
G2 X78.6751 Y244.9912 Z-3.6 I0.1625 J0.2815
G2 X78.8375 Y245.2815 I0.3249 J0.0088
G2 X79.325 Y245.0 I0.1625 J-0.2815
G2 X78.8375 Y244.7185 I-0.325 J0.0
G2 X78.6751 Y244.9912 I0.1625 J0.2815
G0 Z3.0
G0 X78.9965 Y274.675
G1 F15.0 Z0.0
G2 F450.0 X78.8375 Y274.7185 Z-0.0245 I0.0035 J0.325
G2 Y275.2815 Z-0.1245 I0.1625 J0.2815
G2 X79.325 Y275.0 Z-0.2245 I0.1625 J-0.2815
G2 X78.9965 Y274.675 Z-0.3 I-0.325 J0.0
G2 X78.8375 Y274.7185 Z-0.3245 I0.0035 J0.325
G2 Y275.2815 Z-0.4245 I0.1625 J0.2815
G2 X79.325 Y275.0 Z-0.5245 I0.1625 J-0.2815
G2 X78.9965 Y274.675 Z-0.6 I-0.325 J0.0
G2 X78.8375 Y274.7185 Z-0.6245 I0.0035 J0.325
G2 Y275.2815 Z-0.7245 I0.1625 J0.2815
G2 X79.325 Y275.0 Z-0.8245 I0.1625 J-0.2815
G2 X78.9965 Y274.675 Z-0.9 I-0.325 J0.0
G2 X78.8375 Y274.7185 Z-0.9245 I0.0035 J0.325
G2 Y275.2815 Z-1.0245 I0.1625 J0.2815
G2 X79.325 Y275.0 Z-1.1245 I0.1625 J-0.2815
G2 X78.9965 Y274.675 Z-1.2 I-0.325 J0.0
G2 X78.8375 Y274.7185 Z-1.2245 I0.0035 J0.325
G2 Y275.2815 Z-1.3245 I0.1625 J0.2815
G2 X79.325 Y275.0 Z-1.4245 I0.1625 J-0.2815
G2 X78.9965 Y274.675 Z-1.5 I-0.325 J0.0
G2 X78.8375 Y274.7185 Z-1.5245 I0.0035 J0.325
G2 Y275.2815 Z-1.6245 I0.1625 J0.2815
G2 X79.325 Y275.0 Z-1.7245 I0.1625 J-0.2815
G2 X78.9965 Y274.675 Z-1.8 I-0.325 J0.0
G2 X78.8375 Y274.7185 Z-1.8245 I0.0035 J0.325
G2 Y275.2815 Z-1.9245 I0.1625 J0.2815
G2 X79.325 Y275.0 Z-2.0245 I0.1625 J-0.2815
G2 X78.9965 Y274.675 Z-2.1 I-0.325 J0.0
G2 X78.8375 Y274.7185 Z-2.1245 I0.0035 J0.325
G2 Y275.2815 Z-2.2245 I0.1625 J0.2815
G2 X79.325 Y275.0 Z-2.3245 I0.1625 J-0.2815
G2 X78.9965 Y274.675 Z-2.4 I-0.325 J0.0
G2 X78.8375 Y274.7185 Z-2.4245 I0.0035 J0.325
G2 Y275.2815 Z-2.5245 I0.1625 J0.2815
G2 X79.325 Y275.0 Z-2.6245 I0.1625 J-0.2815
G2 X78.9965 Y274.675 Z-2.7 I-0.325 J0.0
G2 X78.8375 Y274.7185 Z-2.7245 I0.0035 J0.325
G2 Y275.2815 Z-2.8245 I0.1625 J0.2815
G2 X79.325 Y275.0 Z-2.9245 I0.1625 J-0.2815
G2 X78.9965 Y274.675 Z-3.0 I-0.325 J0.0
G2 X78.8375 Y274.7185 Z-3.0245 I0.0035 J0.325
G2 Y275.2815 Z-3.1245 I0.1625 J0.2815
G2 X79.325 Y275.0 Z-3.2245 I0.1625 J-0.2815
G2 X78.9965 Y274.675 Z-3.3 I-0.325 J0.0
G2 X78.8375 Y274.7185 Z-3.3245 I0.0035 J0.325
G2 Y275.2815 Z-3.4245 I0.1625 J0.2815
G2 X79.325 Y275.0 Z-3.5245 I0.1625 J-0.2815
G2 X78.9965 Y274.675 Z-3.6 I-0.325 J0.0
G2 X78.8375 Y274.7185 I0.0035 J0.325
G2 Y275.2815 I0.1625 J0.2815
G2 X79.325 Y275.0 I0.1625 J-0.2815
G2 X78.9965 Y274.675 I-0.325 J0.0
G0 Z3.0
G0 X71.3247 Y274.9868
G1 F15.0 Z0.0
G2 F450.0 X70.8375 Y274.7185 Z-0.0981 I-0.3247 J0.0132
G2 Y275.2815 Z-0.1981 I0.1625 J0.2815
G2 X71.325 Y275.0 Z-0.2981 I0.1625 J-0.2815
G2 X71.3247 Y274.9868 Z-0.3 I-0.325 J0.0
G2 X70.8375 Y274.7185 Z-0.3981 I-0.3247 J0.0132
G2 Y275.2815 Z-0.4981 I0.1625 J0.2815
G2 X71.325 Y275.0 Z-0.5981 I0.1625 J-0.2815
G2 X71.3247 Y274.9868 Z-0.6 I-0.325 J0.0
G2 X70.8375 Y274.7185 Z-0.6981 I-0.3247 J0.0132
G2 Y275.2815 Z-0.7981 I0.1625 J0.2815
G2 X71.325 Y275.0 Z-0.8981 I0.1625 J-0.2815
G2 X71.3247 Y274.9868 Z-0.9 I-0.325 J0.0
G2 X70.8375 Y274.7185 Z-0.9981 I-0.3247 J0.0132
G2 Y275.2815 Z-1.0981 I0.1625 J0.2815
G2 X71.325 Y275.0 Z-1.1981 I0.1625 J-0.2815
G2 X71.3247 Y274.9868 Z-1.2 I-0.325 J0.0
G2 X70.8375 Y274.7185 Z-1.2981 I-0.3247 J0.0132
G2 Y275.2815 Z-1.3981 I0.1625 J0.2815
G2 X71.325 Y275.0 Z-1.4981 I0.1625 J-0.2815
G2 X71.3247 Y274.9868 Z-1.5 I-0.325 J0.0
G2 X70.8375 Y274.7185 Z-1.5981 I-0.3247 J0.0132
G2 Y275.2815 Z-1.6981 I0.1625 J0.2815
G2 X71.325 Y275.0 Z-1.7981 I0.1625 J-0.2815
G2 X71.3247 Y274.9868 Z-1.8 I-0.325 J0.0
G2 X70.8375 Y274.7185 Z-1.8981 I-0.3247 J0.0132
G2 Y275.2815 Z-1.9981 I0.1625 J0.2815
G2 X71.325 Y275.0 Z-2.0981 I0.1625 J-0.2815
G2 X71.3247 Y274.9868 Z-2.1 I-0.325 J0.0
G2 X70.8375 Y274.7185 Z-2.1981 I-0.3247 J0.0132
G2 Y275.2815 Z-2.2981 I0.1625 J0.2815
G2 X71.325 Y275.0 Z-2.3981 I0.1625 J-0.2815
G2 X71.3247 Y274.9868 Z-2.4 I-0.325 J0.0
G2 X70.8375 Y274.7185 Z-2.4981 I-0.3247 J0.0132
G2 Y275.2815 Z-2.5981 I0.1625 J0.2815
G2 X71.325 Y275.0 Z-2.6981 I0.1625 J-0.2815
G2 X71.3247 Y274.9868 Z-2.7 I-0.325 J0.0
G2 X70.8375 Y274.7185 Z-2.7981 I-0.3247 J0.0132
G2 Y275.2815 Z-2.8981 I0.1625 J0.2815
G2 X71.325 Y275.0 Z-2.9981 I0.1625 J-0.2815
G2 X71.3247 Y274.9868 Z-3.0 I-0.325 J0.0
G2 X70.8375 Y274.7185 Z-3.0981 I-0.3247 J0.0132
G2 Y275.2815 Z-3.1981 I0.1625 J0.2815
G2 X71.325 Y275.0 Z-3.2981 I0.1625 J-0.2815
G2 X71.3247 Y274.9868 Z-3.3 I-0.325 J0.0
G2 X70.8375 Y274.7185 Z-3.3981 I-0.3247 J0.0132
G2 Y275.2815 Z-3.4981 I0.1625 J0.2815
G2 X71.325 Y275.0 Z-3.5981 I0.1625 J-0.2815
G2 X71.3247 Y274.9868 Z-3.6 I-0.325 J0.0
G2 X70.8375 Y274.7185 I-0.3247 J0.0132
G2 Y275.2815 I0.1625 J0.2815
G2 X71.325 Y275.0 I0.1625 J-0.2815
G2 X71.3247 Y274.9868 I-0.325 J0.0
G0 Z3.0
G0 X14.325 Y274.9999
G1 F15.0 Z0.0
G2 F450.0 X13.8375 Y274.7185 Z-0.1 I-0.325 J0.0001
G2 Y275.2815 Z-0.2 I0.1625 J0.2815
G2 X14.325 Y275.0 Z-0.3 I0.1625 J-0.2815
G1 Y274.9999
G2 X13.8375 Y274.7185 Z-0.4 I-0.325 J0.0001
G2 Y275.2815 Z-0.5 I0.1625 J0.2815
G2 X14.325 Y275.0 Z-0.6 I0.1625 J-0.2815
G1 Y274.9999
G2 X13.8375 Y274.7185 Z-0.7 I-0.325 J0.0001
G2 Y275.2815 Z-0.8 I0.1625 J0.2815
G2 X14.325 Y275.0 Z-0.9 I0.1625 J-0.2815
G1 Y274.9999
G2 X13.8375 Y274.7185 Z-1.0 I-0.325 J0.0001
G2 Y275.2815 Z-1.1 I0.1625 J0.2815
G2 X14.325 Y275.0 Z-1.2 I0.1625 J-0.2815
G1 Y274.9999
G2 X13.8375 Y274.7185 Z-1.3 I-0.325 J0.0001
G2 Y275.2815 Z-1.4 I0.1625 J0.2815
G2 X14.325 Y275.0 Z-1.5 I0.1625 J-0.2815
G1 Y274.9999
G2 X13.8375 Y274.7185 Z-1.6 I-0.325 J0.0001
G2 Y275.2815 Z-1.7 I0.1625 J0.2815
G2 X14.325 Y275.0 Z-1.8 I0.1625 J-0.2815
G1 Y274.9999
G2 X13.8375 Y274.7185 Z-1.9 I-0.325 J0.0001
G2 Y275.2815 Z-2.0 I0.1625 J0.2815
G2 X14.325 Y275.0 Z-2.1 I0.1625 J-0.2815
G1 Y274.9999
G2 X13.8375 Y274.7185 Z-2.2 I-0.325 J0.0001
G2 Y275.2815 Z-2.3 I0.1625 J0.2815
G2 X14.325 Y275.0 Z-2.4 I0.1625 J-0.2815
G1 Y274.9999
G2 X13.8375 Y274.7185 Z-2.5 I-0.325 J0.0001
G2 Y275.2815 Z-2.6 I0.1625 J0.2815
G2 X14.325 Y275.0 Z-2.7 I0.1625 J-0.2815
G1 Y274.9999
G2 X13.8375 Y274.7185 Z-2.8 I-0.325 J0.0001
G2 Y275.2815 Z-2.9 I0.1625 J0.2815
G2 X14.325 Y275.0 Z-3.0 I0.1625 J-0.2815
G1 Y274.9999
G2 X13.8375 Y274.7185 Z-3.1 I-0.325 J0.0001
G2 Y275.2815 Z-3.2 I0.1625 J0.2815
G2 X14.325 Y275.0 Z-3.3 I0.1625 J-0.2815
G1 Y274.9999
G2 X13.8375 Y274.7185 Z-3.4 I-0.325 J0.0001
G2 Y275.2815 Z-3.5 I0.1625 J0.2815
G2 X14.325 Y275.0 Z-3.6 I0.1625 J-0.2815
G1 Y274.9999
G2 X13.8375 Y274.7185 I-0.325 J0.0001
G2 Y275.2815 I0.1625 J0.2815
G2 X14.325 Y275.0 I0.1625 J-0.2815
G1 Y274.9999
G0 Z3.0
G0 X6.325 Y275.0
G1 F15.0 Z0.0
G2 F450.0 X5.8375 Y274.7185 Z-0.1 I-0.325 J0.0
G2 Y275.2815 Z-0.2 I0.1625 J0.2815
G2 X6.325 Y275.0 Z-0.3 I0.1625 J-0.2815
G2 X5.8375 Y274.7185 Z-0.4 I-0.325 J0.0
G2 Y275.2815 Z-0.5 I0.1625 J0.2815
G2 X6.325 Y275.0 Z-0.6 I0.1625 J-0.2815
G2 X5.8375 Y274.7185 Z-0.7 I-0.325 J0.0
G2 Y275.2815 Z-0.8 I0.1625 J0.2815
G2 X6.325 Y275.0 Z-0.9 I0.1625 J-0.2815
G2 X5.8375 Y274.7185 Z-1.0 I-0.325 J0.0
G2 Y275.2815 Z-1.1 I0.1625 J0.2815
G2 X6.325 Y275.0 Z-1.2 I0.1625 J-0.2815
G2 X5.8375 Y274.7185 Z-1.3 I-0.325 J0.0
G2 Y275.2815 Z-1.4 I0.1625 J0.2815
G2 X6.325 Y275.0 Z-1.5 I0.1625 J-0.2815
G2 X5.8375 Y274.7185 Z-1.6 I-0.325 J0.0
G2 Y275.2815 Z-1.7 I0.1625 J0.2815
G2 X6.325 Y275.0 Z-1.8 I0.1625 J-0.2815
G2 X5.8375 Y274.7185 Z-1.9 I-0.325 J0.0
G2 Y275.2815 Z-2.0 I0.1625 J0.2815
G2 X6.325 Y275.0 Z-2.1 I0.1625 J-0.2815
G2 X5.8375 Y274.7185 Z-2.2 I-0.325 J0.0
G2 Y275.2815 Z-2.3 I0.1625 J0.2815
G2 X6.325 Y275.0 Z-2.4 I0.1625 J-0.2815
G2 X5.8375 Y274.7185 Z-2.5 I-0.325 J0.0
G2 Y275.2815 Z-2.6 I0.1625 J0.2815
G2 X6.325 Y275.0 Z-2.7 I0.1625 J-0.2815
G2 X5.8375 Y274.7185 Z-2.8 I-0.325 J0.0
G2 Y275.2815 Z-2.9 I0.1625 J0.2815
G2 X6.325 Y275.0 Z-3.0 I0.1625 J-0.2815
G2 X5.8375 Y274.7185 Z-3.1 I-0.325 J0.0
G2 Y275.2815 Z-3.2 I0.1625 J0.2815
G2 X6.325 Y275.0 Z-3.3 I0.1625 J-0.2815
G2 X5.8375 Y274.7185 Z-3.4 I-0.325 J0.0
G2 Y275.2815 Z-3.5 I0.1625 J0.2815
G2 X6.325 Y275.0 Z-3.6 I0.1625 J-0.2815
G2 X5.8375 Y274.7185 I-0.325 J0.0
G2 Y275.2815 I0.1625 J0.2815
G2 X6.325 Y275.0 I0.1625 J-0.2815
G0 Z3.0
G0 X70.8713 Y125.2984
G1 F15.0 Z0.0
G2 F450.0 X71.325 Y125.0 Z-0.0944 I0.1287 J-0.2984
G2 X70.8375 Y124.7185 Z-0.1944 I-0.325 J0.0
G2 Y125.2815 Z-0.2944 I0.1625 J0.2815
G2 X70.8713 Y125.2984 Z-0.3 I0.1625 J-0.2815
G2 X71.325 Y125.0 Z-0.3944 I0.1287 J-0.2984
G2 X70.8375 Y124.7185 Z-0.4944 I-0.325 J0.0
G2 Y125.2815 Z-0.5944 I0.1625 J0.2815
G2 X70.8713 Y125.2984 Z-0.6 I0.1625 J-0.2815
G2 X71.325 Y125.0 Z-0.6944 I0.1287 J-0.2984
G2 X70.8375 Y124.7185 Z-0.7944 I-0.325 J0.0
G2 Y125.2815 Z-0.8944 I0.1625 J0.2815
G2 X70.8713 Y125.2984 Z-0.9 I0.1625 J-0.2815
G2 X71.325 Y125.0 Z-0.9944 I0.1287 J-0.2984
G2 X70.8375 Y124.7185 Z-1.0944 I-0.325 J0.0
G2 Y125.2815 Z-1.1944 I0.1625 J0.2815
G2 X70.8713 Y125.2984 Z-1.2 I0.1625 J-0.2815
G2 X71.325 Y125.0 Z-1.2944 I0.1287 J-0.2984
G2 X70.8375 Y124.7185 Z-1.3944 I-0.325 J0.0
G2 Y125.2815 Z-1.4944 I0.1625 J0.2815
G2 X70.8713 Y125.2984 Z-1.5 I0.1625 J-0.2815
G2 X71.325 Y125.0 Z-1.5944 I0.1287 J-0.2984
G2 X70.8375 Y124.7185 Z-1.6944 I-0.325 J0.0
G2 Y125.2815 Z-1.7944 I0.1625 J0.2815
G2 X70.8713 Y125.2984 Z-1.8 I0.1625 J-0.2815
G2 X71.325 Y125.0 Z-1.8944 I0.1287 J-0.2984
G2 X70.8375 Y124.7185 Z-1.9944 I-0.325 J0.0
G2 Y125.2815 Z-2.0944 I0.1625 J0.2815
G2 X70.8713 Y125.2984 Z-2.1 I0.1625 J-0.2815
G2 X71.325 Y125.0 Z-2.1944 I0.1287 J-0.2984
G2 X70.8375 Y124.7185 Z-2.2944 I-0.325 J0.0
G2 Y125.2815 Z-2.3944 I0.1625 J0.2815
G2 X70.8713 Y125.2984 Z-2.4 I0.1625 J-0.2815
G2 X71.325 Y125.0 Z-2.4944 I0.1287 J-0.2984
G2 X70.8375 Y124.7185 Z-2.5944 I-0.325 J0.0
G2 Y125.2815 Z-2.6944 I0.1625 J0.2815
G2 X70.8713 Y125.2984 Z-2.7 I0.1625 J-0.2815
G2 X71.325 Y125.0 Z-2.7944 I0.1287 J-0.2984
G2 X70.8375 Y124.7185 Z-2.8944 I-0.325 J0.0
G2 Y125.2815 Z-2.9944 I0.1625 J0.2815
G2 X70.8713 Y125.2984 Z-3.0 I0.1625 J-0.2815
G2 X71.325 Y125.0 Z-3.0944 I0.1287 J-0.2984
G2 X70.8375 Y124.7185 Z-3.1944 I-0.325 J0.0
G2 Y125.2815 Z-3.2944 I0.1625 J0.2815
G2 X70.8713 Y125.2984 Z-3.3 I0.1625 J-0.2815
G2 X71.325 Y125.0 Z-3.3944 I0.1287 J-0.2984
G2 X70.8375 Y124.7185 Z-3.4944 I-0.325 J0.0
G2 Y125.2815 Z-3.5944 I0.1625 J0.2815
G2 X70.8713 Y125.2984 Z-3.6 I0.1625 J-0.2815
G2 X71.325 Y125.0 I0.1287 J-0.2984
G2 X70.8375 Y124.7185 I-0.325 J0.0
G2 Y125.2815 I0.1625 J0.2815
G2 X70.8713 Y125.2984 I0.1625 J-0.2815
G0 Z3.0
G0 X64.5388 Y122.3473
G1 F15.0 Z0.0
G2 F450.0 X64.5692 Y122.21 Z-0.0208 I-0.2946 J-0.1373
G2 X64.0817 Y121.9285 Z-0.1208 I-0.325 J0.0
G2 Y122.4915 Z-0.2208 I0.1625 J0.2815
G2 X64.5388 Y122.3473 Z-0.3 I0.1625 J-0.2815
G2 X64.5692 Y122.21 Z-0.3208 I-0.2946 J-0.1373
G2 X64.0817 Y121.9285 Z-0.4208 I-0.325 J0.0
G2 Y122.4915 Z-0.5208 I0.1625 J0.2815
G2 X64.5388 Y122.3473 Z-0.6 I0.1625 J-0.2815
G2 X64.5692 Y122.21 Z-0.6208 I-0.2946 J-0.1373
G2 X64.0817 Y121.9285 Z-0.7208 I-0.325 J0.0
G2 Y122.4915 Z-0.8208 I0.1625 J0.2815
G2 X64.5388 Y122.3473 Z-0.9 I0.1625 J-0.2815
G2 X64.5692 Y122.21 Z-0.9208 I-0.2946 J-0.1373
G2 X64.0817 Y121.9285 Z-1.0208 I-0.325 J0.0
G2 Y122.4915 Z-1.1208 I0.1625 J0.2815
G2 X64.5388 Y122.3473 Z-1.2 I0.1625 J-0.2815
G2 X64.5692 Y122.21 Z-1.2208 I-0.2946 J-0.1373
G2 X64.0817 Y121.9285 Z-1.3208 I-0.325 J0.0
G2 Y122.4915 Z-1.4208 I0.1625 J0.2815
G2 X64.5388 Y122.3473 Z-1.5 I0.1625 J-0.2815
G2 X64.5692 Y122.21 Z-1.5208 I-0.2946 J-0.1373
G2 X64.0817 Y121.9285 Z-1.6208 I-0.325 J0.0
G2 Y122.4915 Z-1.7208 I0.1625 J0.2815
G2 X64.5388 Y122.3473 Z-1.8 I0.1625 J-0.2815
G2 X64.5692 Y122.21 Z-1.8208 I-0.2946 J-0.1373
G2 X64.0817 Y121.9285 Z-1.9208 I-0.325 J0.0
G2 Y122.4915 Z-2.0208 I0.1625 J0.2815
G2 X64.5388 Y122.3473 Z-2.1 I0.1625 J-0.2815
G2 X64.5692 Y122.21 Z-2.1208 I-0.2946 J-0.1373
G2 X64.0817 Y121.9285 Z-2.2208 I-0.325 J0.0
G2 Y122.4915 Z-2.3208 I0.1625 J0.2815
G2 X64.5388 Y122.3473 Z-2.4 I0.1625 J-0.2815
G2 X64.5692 Y122.21 Z-2.4208 I-0.2946 J-0.1373
G2 X64.0817 Y121.9285 Z-2.5208 I-0.325 J0.0
G2 Y122.4915 Z-2.6208 I0.1625 J0.2815
G2 X64.5388 Y122.3473 Z-2.7 I0.1625 J-0.2815
G2 X64.5692 Y122.21 Z-2.7208 I-0.2946 J-0.1373
G2 X64.0817 Y121.9285 Z-2.8208 I-0.325 J0.0
G2 Y122.4915 Z-2.9208 I0.1625 J0.2815
G2 X64.5388 Y122.3473 Z-3.0 I0.1625 J-0.2815
G2 X64.5692 Y122.21 Z-3.0208 I-0.2946 J-0.1373
G2 X64.0817 Y121.9285 Z-3.1208 I-0.325 J0.0
G2 Y122.4915 Z-3.2208 I0.1625 J0.2815
G2 X64.5388 Y122.3473 Z-3.3 I0.1625 J-0.2815
G2 X64.5692 Y122.21 Z-3.3208 I-0.2946 J-0.1373
G2 X64.0817 Y121.9285 Z-3.4208 I-0.325 J0.0
G2 Y122.4915 Z-3.5208 I0.1625 J0.2815
G2 X64.5388 Y122.3473 Z-3.6 I0.1625 J-0.2815
G2 X64.5692 Y122.21 I-0.2946 J-0.1373
G2 X64.0817 Y121.9285 I-0.325 J0.0
G2 Y122.4915 I0.1625 J0.2815
G2 X64.5388 Y122.3473 I0.1625 J-0.2815
G0 Z3.0
G0 X65.62 Y117.5152
G1 F15.0 Z0.0
G2 F450.0 X66.016 Y117.198 Z-0.0855 I0.071 J-0.3172
G2 X65.5285 Y116.9165 Z-0.1855 I-0.325 J0.0
G2 Y117.4795 Z-0.2855 I0.1625 J0.2815
G2 X65.62 Y117.5152 Z-0.3 I0.1625 J-0.2815
G2 X66.016 Y117.198 Z-0.3855 I0.071 J-0.3172
G2 X65.5285 Y116.9165 Z-0.4855 I-0.325 J0.0
G2 Y117.4795 Z-0.5855 I0.1625 J0.2815
G2 X65.62 Y117.5152 Z-0.6 I0.1625 J-0.2815
G2 X66.016 Y117.198 Z-0.6855 I0.071 J-0.3172
G2 X65.5285 Y116.9165 Z-0.7855 I-0.325 J0.0
G2 Y117.4795 Z-0.8855 I0.1625 J0.2815
G2 X65.62 Y117.5152 Z-0.9 I0.1625 J-0.2815
G2 X66.016 Y117.198 Z-0.9855 I0.071 J-0.3172
G2 X65.5285 Y116.9165 Z-1.0855 I-0.325 J0.0
G2 Y117.4795 Z-1.1855 I0.1625 J0.2815
G2 X65.62 Y117.5152 Z-1.2 I0.1625 J-0.2815
G2 X66.016 Y117.198 Z-1.2855 I0.071 J-0.3172
G2 X65.5285 Y116.9165 Z-1.3855 I-0.325 J0.0
G2 Y117.4795 Z-1.4855 I0.1625 J0.2815
G2 X65.62 Y117.5152 Z-1.5 I0.1625 J-0.2815
G2 X66.016 Y117.198 Z-1.5855 I0.071 J-0.3172
G2 X65.5285 Y116.9165 Z-1.6855 I-0.325 J0.0
G2 Y117.4795 Z-1.7855 I0.1625 J0.2815
G2 X65.62 Y117.5152 Z-1.8 I0.1625 J-0.2815
G2 X66.016 Y117.198 Z-1.8855 I0.071 J-0.3172
G2 X65.5285 Y116.9165 Z-1.9855 I-0.325 J0.0
G2 Y117.4795 Z-2.0855 I0.1625 J0.2815
G2 X65.62 Y117.5152 Z-2.1 I0.1625 J-0.2815
G2 X66.016 Y117.198 Z-2.1855 I0.071 J-0.3172
G2 X65.5285 Y116.9165 Z-2.2855 I-0.325 J0.0
G2 Y117.4795 Z-2.3855 I0.1625 J0.2815
G2 X65.62 Y117.5152 Z-2.4 I0.1625 J-0.2815
G2 X66.016 Y117.198 Z-2.4855 I0.071 J-0.3172
G2 X65.5285 Y116.9165 Z-2.5855 I-0.325 J0.0
G2 Y117.4795 Z-2.6855 I0.1625 J0.2815
G2 X65.62 Y117.5152 Z-2.7 I0.1625 J-0.2815
G2 X66.016 Y117.198 Z-2.7855 I0.071 J-0.3172
G2 X65.5285 Y116.9165 Z-2.8855 I-0.325 J0.0
G2 Y117.4795 Z-2.9855 I0.1625 J0.2815
G2 X65.62 Y117.5152 Z-3.0 I0.1625 J-0.2815
G2 X66.016 Y117.198 Z-3.0855 I0.071 J-0.3172
G2 X65.5285 Y116.9165 Z-3.1855 I-0.325 J0.0
G2 Y117.4795 Z-3.2855 I0.1625 J0.2815
G2 X65.62 Y117.5152 Z-3.3 I0.1625 J-0.2815
G2 X66.016 Y117.198 Z-3.3855 I0.071 J-0.3172
G2 X65.5285 Y116.9165 Z-3.4855 I-0.325 J0.0
G2 Y117.4795 Z-3.5855 I0.1625 J0.2815
G2 X65.62 Y117.5152 Z-3.6 I0.1625 J-0.2815
G2 X66.016 Y117.198 I0.071 J-0.3172
G2 X65.5285 Y116.9165 I-0.325 J0.0
G2 Y117.4795 I0.1625 J0.2815
G2 X65.62 Y117.5152 I0.1625 J-0.2815
G0 Z3.0
G0 X61.1307 Y107.2975
G1 F15.0 Z0.0
G2 F450.0 X61.325 Y107.0 Z-0.0552 I-0.1307 J-0.2975
G2 X60.8375 Y106.7185 Z-0.1552 I-0.325 J0.0
G2 Y107.2815 Z-0.2552 I0.1625 J0.2815
G2 X61.1307 Y107.2975 Z-0.3 I0.1625 J-0.2815
G2 X61.325 Y107.0 Z-0.3552 I-0.1307 J-0.2975
G2 X60.8375 Y106.7185 Z-0.4552 I-0.325 J0.0
G2 Y107.2815 Z-0.5552 I0.1625 J0.2815
G2 X61.1307 Y107.2975 Z-0.6 I0.1625 J-0.2815
G2 X61.325 Y107.0 Z-0.6552 I-0.1307 J-0.2975
G2 X60.8375 Y106.7185 Z-0.7552 I-0.325 J0.0
G2 Y107.2815 Z-0.8552 I0.1625 J0.2815
G2 X61.1307 Y107.2975 Z-0.9 I0.1625 J-0.2815
