;PYCAM-META-DATA: Filename: C:\Users\Project\Desktop\CNC_Calibration\ShapeOko_Calibration_Pattern_01b.svg
;PYCAM-META-DATA: Timestamp: 2012-09-06 00:25:01.829000
;PYCAM-META-DATA: Version: 0.5.1.1
;Estimated machine time: 17 minutes
G40 (disable tool radius compensation)
G49 (disable tool length compensation)
G80 (cancel modal motion)
G54 (select coordinate system 1)
G90 (disable incremental moves)
G21 (metric)
G61 (exact path mode)
F500.00000
S1000.00000
;PYCAM_TOOLPATH_SETTINGS: START
;[Bounds]
;maxz = 0.0
;maxx = 194.472285
;maxy = 207.607451
;minx = -10.595135
;miny = -9.329961
;minz = 0.0
;
;[Tool]
;torus_radius = 0.25
;speed = 1000.0
;shape = CylindricalCutter
;tool_radius = 0.5
;feedrate = 500.0
;
;[Process]
;generator = EngraveCutter
;pocketing_type = none
;engrave_offset = 0.0
;milling_style = conventional
;path_direction = x
;step_down = 1.0
;postprocessor = SimpleCutter
;overlap_percent = 0
;material_allowance = 0.0
;
;PYCAM_TOOLPATH_SETTINGS: END
T4 M6
G0 Z2.0000
M3 (start spindle)
G04 P3 (wait for 3 seconds)
 X50.8000 Y177.8000
G1 Z0.0000
 Y101.6000
G0 Z2.0000
 Y112.8890
G1 Z0.0000
 X76.2000
 X90.3111 Y127.0000
G0 Z2.0000
 X73.3778
G1 Z0.0000
 Y101.6000
G0 Z2.0000
 X81.8444
G1 Z0.0000
 X101.6000 Y121.3560
G0 Z2.0000
 X53.6222 Y127.0000
G1 Z0.0000
 Y101.6000
G0 Z2.0000
 X50.8000 Y104.4220
G1 Z0.0000
 X76.2000
 X98.7778 Y127.0000
G0 Z2.0000
 X76.2000 Y135.4670
G1 Z0.0000
 X84.6667 Y127.0000
G0 Z2.0000
 X64.9111
G1 Z0.0000
 Y101.6000
G0 Z2.0000
 X50.8000 Y118.5330
G1 Z0.0000
 X76.2000
 X84.6667 Y127.0000
G0 Z2.0000
 X70.5556
G1 Z0.0000
 Y101.6000
G0 Z2.0000
 X79.0222
G1 Z0.0000
 X101.6000 Y124.1780
G0 Z2.0000
 X76.2000 Y115.7110
G1 Z0.0000
 X50.8000
G0 Z2.0000
 Y124.1780
G1 Z0.0000
 X76.2000
 X79.0222 Y127.0000
G0 Z2.0000
 X76.2000 Y132.6440
G1 Z0.0000
 X95.9556 Y152.4000
G0 Z2.0000
 X93.1333
G1 Z0.0000
 X101.6000 Y143.9330
G0 Z2.0000
 X76.2000 Y152.4000
G1 Z0.0000
 X101.6000 Y127.0000
G0 Z2.0000
 X112.8890 Y141.1110
G1 Z0.0000
 X115.7110
G0 Z2.0000
 X112.8890
G1 Z0.0000
 Y138.2890
 X115.7110
 Y141.1110
G0 Z2.0000
 X110.0670 Y143.9330
G1 Z0.0000
 X118.5330
 Y135.4670
 X110.0670
 Y143.9330
G0 Z2.0000
 X107.2440 Y146.7560
G1 Z0.0000
 X121.3560
 Y132.6440
 X107.2440
 Y146.7560
G0 Z2.0000
 X76.2000 Y177.8000
G1 Z0.0000
 Y101.6000
 X101.6000 Y127.0000
G0 Z2.0000
 X76.2000 Y143.9330
G1 Z0.0000
 X84.6667 Y152.4000
G0 Z2.0000
 X81.8444
G1 Z0.0000
 X101.6000 Y132.6440
G0 Z2.0000
 X76.2000 Y138.2890
G1 Z0.0000
 X90.3111 Y152.4000
G0 Z2.0000
 X87.4889
G1 Z0.0000
 X101.6000 Y138.2890
G0 Z2.0000
 X104.4220 Y149.5780
G1 Z0.0000
 X124.1780
 Y129.8220
 X104.4220
 Y149.5780
G0 Z2.0000
 X76.2000 Y146.7560
G1 Z0.0000
 X95.9556 Y127.0000
G0 Z2.0000
 X67.7333
G1 Z0.0000
 Y101.6000
G0 Z2.0000
 X66.7485 Y96.1857
G1 Z0.0000
 X66.5892 Y97.0956
 Y97.8783
 X67.2551
 Y97.0956
 X67.0993 Y96.1857
 X66.7485
G0 Z2.0000
 X65.6833
G1 Z0.0000
 X65.5210 Y97.0956
 Y97.8783
 X66.1868
 Y97.0956
 X66.0407 Y96.1857
 X65.6833
G0 Z2.0000
 X61.8021 Y94.3682
G1 Z0.0000
 X62.3986 Y94.4515
 X62.4549 Y94.2235
 X62.5301 Y94.0314
 X62.6233 Y93.8740
 X62.7331 Y93.7503
 X62.8578 Y93.6556
 X62.9968 Y93.5886
 X63.1501 Y93.5489
 X63.3179 Y93.5357
 X63.5160 Y93.5517
 X63.6972 Y93.6051
 X63.8615 Y93.6950
 X64.0086 Y93.8200
 X64.1281 Y93.9699
 X64.2147 Y94.1376
 X64.2676 Y94.3228
 X64.2856 Y94.5246
 X64.2678 Y94.7158
 X64.2193 Y94.8899
 X64.1390 Y95.0464
 X64.0260 Y95.1854
 X63.8872 Y95.2979
 X63.7310 Y95.3793
 X63.5574 Y95.4289
 X63.3661 Y95.4457
 X63.1815 Y95.4286
 X62.9592 Y95.3810
 X63.0233 Y95.8944
 X63.0738 Y95.8882
 X63.1158 Y95.8879
 X63.2924 Y95.8994
 X63.4611 Y95.9358
 X63.6211 Y95.9968
 X63.7718 Y96.0819
 X63.8978 Y96.1914
 X63.9892 Y96.3279
 X64.0447 Y96.4910
 X64.0635 Y96.6800
 X64.0485 Y96.8325
 X64.0082 Y96.9719
 X63.9417 Y97.0981
 X63.8481 Y97.2101
 X63.7319 Y97.3011
 X63.6008 Y97.3669
 X63.4543 Y97.4069
 X63.2921 Y97.4204
 X63.1297 Y97.4060
 X62.9821 Y97.3664
 X62.8487 Y97.3011
 X62.7293 Y97.2089
 X62.6254 Y97.0892
 X62.5433 Y96.9438
 X62.4819 Y96.7724
 X62.4403 Y96.5743
 X61.8435 Y96.6714
 X61.9121 Y96.9474
 X62.0167 Y97.1919
 X62.1561 Y97.4040
 X62.3292 Y97.5828
 X62.5282 Y97.7236
 X62.7524 Y97.8247
 X63.0006 Y97.8857
 X63.2714 Y97.9061
 X63.4603 Y97.8944
 X63.6431 Y97.8633
 X63.8189 Y97.8118
 X63.9867 Y97.7390
 X64.1400 Y97.6467
 X64.2747 Y97.5404
 X64.3906 Y97.4196
 X64.4869 Y97.2831
 X64.5621 Y97.1350
 X64.6163 Y96.9842
 X64.6490 Y96.8293
 X64.6601 Y96.6699
 X64.6482 Y96.5179
 X64.6175 Y96.3743
 X64.5667 Y96.2381
 X64.4950 Y96.1083
 X64.4008 Y95.9879
 X64.2888 Y95.8810
 X64.1575 Y95.7871
 X64.0060 Y95.7061
 X64.2039 Y95.6439
 X64.3810 Y95.5562
 X64.5360 Y95.4425
 X64.6683 Y95.3026
 X64.7733 Y95.1396
 X64.8489 Y94.9578
 X64.8946 Y94.7569
 X64.9099 Y94.5368
 X64.8800 Y94.2375
 X64.7951 Y93.9621
 X64.6543 Y93.7104
 X64.4565 Y93.4824
 X64.2147 Y93.2929
 X63.9432 Y93.1579
 X63.6418 Y93.0769
 X63.3106 Y93.0500
 X63.0101 Y93.0729
 X62.7376 Y93.1418
 X62.4922 Y93.2564
 X62.2729 Y93.4169
 X62.0869 Y93.6133
 X61.9472 Y93.8376
 X61.8526 Y94.0894
 X61.8021 Y94.3682
G0 Z2.0000
 X14.5197 Y98.3258
G1 Z0.0000
 X14.2485 Y99.8668
 Y101.1930
 X15.3843
 Y99.8668
 X15.1185 Y98.3258
 X14.5197
G0 Z2.0000
 X12.7138
G1 Z0.0000
 X12.4366 Y99.8668
 Y101.1930
 X13.5725
 Y99.8668
 X13.3231 Y98.3258
 X12.7138
G0 Z2.0000
 X11.2425 Y99.2182
G1 Z0.0000
 X10.2150 Y99.1371
 X10.1443 Y99.4083
 X10.0604 Y99.6401
 X9.9633 Y99.8324
 X9.8528 Y99.9844
 X9.6471 Y100.1690
 X9.4188 Y100.3020
 X9.1679 Y100.3820
 X8.8944 Y100.4080
 X8.6715 Y100.3900
 X8.4609 Y100.3410
 X8.2626 Y100.2590
 X8.0767 Y100.1440
 X7.8678 Y99.9519
 X7.6816 Y99.7224
 X7.5177 Y99.4542
 X7.3762 Y99.1464
 X7.2600 Y98.7821
 X7.1767 Y98.3507
 X7.1252 Y97.8510
 X7.1047 Y97.2815
 X7.2902 Y97.5347
 X7.4957 Y97.7542
 X7.7210 Y97.9393
 X7.9658 Y98.0890
 X8.2232 Y98.2029
 X8.4870 Y98.2854
 X8.7569 Y98.3358
 X9.0329 Y98.3528
 X9.2707 Y98.3404
 X9.5002 Y98.3058
 X9.7211 Y98.2489
 X9.9334 Y98.1696
 X10.1368 Y98.0678
 X10.3313 Y97.9433
 X10.5166 Y97.7960
 X10.6926 Y97.6257
 X10.8525 Y97.4368
 X10.9914 Y97.2349
 X11.1091 Y97.0199
 X11.2056 Y96.7918
 X11.2808 Y96.5506
 X11.3346 Y96.2960
 X11.3669 Y96.0281
 X11.3777 Y95.7468
 X11.3557 Y95.3746
 X11.2949 Y95.0161
 X11.1939 Y94.6711
 X11.0520 Y94.3394
 X10.8732 Y94.0318
 X10.6647 Y93.7640
 X10.4260 Y93.5350
 X10.1568 Y93.3436
 X9.8607 Y93.1922
 X9.5474 Y93.0843
 X9.2156 Y93.0197
 X8.8643 Y92.9982
 X8.5622 Y93.0121
 X8.2750 Y93.0544
 X8.0024 Y93.1254
 X7.7444 Y93.2250
 X7.5007 Y93.3529
 X7.2713 Y93.5092
 X7.0560 Y93.6939
 X6.8547 Y93.9071
 X6.6723 Y94.1518
 X6.5142 Y94.4338
 X6.3806 Y94.7531
 X6.2713 Y95.1093
 X6.1863 Y95.5026
 X6.1257 Y95.9328
 X6.0892 Y96.3996
 X6.0771 Y96.9031
 X6.0903 Y97.4661
 X6.1306 Y97.9896
 X6.1978 Y98.4735
 X6.2920 Y98.9178
 X6.4131 Y99.3222
 X6.5611 Y99.6871
 X6.7361 Y100.0120
 X6.9378 Y100.2970
 X7.1336 Y100.5120
 X7.3458 Y100.6990
 X7.5743 Y100.8580
 X7.8191 Y100.9880
 X8.0803 Y101.0890
 X8.3577 Y101.1610
 X8.6515 Y101.2050
 X8.9615 Y101.2190
 X9.1922 Y101.2110
 X9.4128 Y101.1860
 X9.6232 Y101.1440
 X9.8231 Y101.0860
 X10.0125 Y101.0120
 X10.1912 Y100.9200
 X10.3592 Y100.8120
 X10.5162 Y100.6880
 X10.6590 Y100.5470
 X10.7873 Y100.3950
 X10.9007 Y100.2300
 X10.9993 Y100.0530
 X11.0830 Y99.8633
 X11.1514 Y99.6611
 X11.2046 Y99.4461
 X11.2425 Y99.2182
G0 Z2.0000
 X25.4000 Y152.4000
G1 Z0.0000
 X101.6000
 X76.2000 Y127.0000
G0 Z2.0000
 X62.0889
G1 Z0.0000
 Y101.6000
G0 Z2.0000
 X50.8000 Y121.3560
G1 Z0.0000
 X76.2000
 X81.8444 Y127.0000
 X101.6000 Y146.7560
G0 Z2.0000
 Y152.4000
G1 Z0.0000
 X177.8000
G0 Z2.0000
 X101.6000 Y177.8000
G1 Z0.0000
 Y101.6000
 X25.4000
G0 Z2.0000
 X50.8000 Y110.0670
G1 Z0.0000
 X76.2000
 X93.1333 Y127.0000
 X101.6000 Y135.4670
G0 Z2.0000
 X76.2000 Y141.1110
G1 Z0.0000
 X90.3111 Y127.0000
G0 Z2.0000
 X56.4444
G1 Z0.0000
 Y101.6000
G0 Z2.0000
 X50.8000 Y107.2440
G1 Z0.0000
 X76.2000
 X95.9556 Y127.0000
G0 Z2.0000
 X76.2000 Y115.7110
G1 Z0.0000
 X101.6000 Y141.1110
G0 Z2.0000
 X46.8035 Y179.5070
G1 Z0.0000
 Y187.5930
 X47.7229
 Y186.8280
 X47.8860 Y187.0380
 X48.0608 Y187.2210
 X48.2468 Y187.3760
 X48.4428 Y187.5030
 X48.6528 Y187.6010
 X48.8854 Y187.6710
 X49.1399 Y187.7140
 X49.4153 Y187.7280
 X49.7765 Y187.7030
 X50.1174 Y187.6310
 X50.4367 Y187.5110
 X50.7339 Y187.3430
 X51.0010 Y187.1290
 X51.2343 Y186.8760
 X51.4331 Y186.5860
 X51.5965 Y186.2560
 X51.7225 Y185.8940
 X51.8138 Y185.5180
 X51.8690 Y185.1260
 X51.8876 Y184.7150
 X51.8663 Y184.2780
 X51.8061 Y183.8620
 X51.7061 Y183.4690
 X51.5657 Y183.1000
 X51.3856 Y182.7610
 X51.1700 Y182.4650
 X50.9185 Y182.2110
 X50.6301 Y181.9990
 X50.3192 Y181.8290
 X50.0006 Y181.7100
 X49.6742 Y181.6390
 X49.3397 Y181.6150
 X49.0981 Y181.6280
 X48.8696 Y181.6680
 X48.6539 Y181.7330
 X48.4508 Y181.8240
 X48.2624 Y181.9350
 X48.0919 Y182.0600
 X47.9393 Y182.1990
 X47.8042 Y182.3500
 Y179.5070
 X46.8035
G0 Z2.0000
 X44.3542 Y182.4820
G1 Z0.0000
 X44.0883 Y182.2600
 X43.8251 Y182.0750
 X43.5647 Y181.9260
 X43.3067 Y181.8110
 X43.0439 Y181.7250
 X42.7733 Y181.6640
 X42.4939 Y181.6280
 X42.2049 Y181.6150
 X41.9685 Y181.6240
 X41.7464 Y181.6440
 X41.5386 Y181.6820
 X41.3450 Y181.7330
 X41.1654 Y181.7990
 X41.0000 Y181.8810
 X40.8486 Y181.9760
 X40.7111 Y182.0860
 X40.4812 Y182.3370
 X40.3183 Y182.6220
 X40.2212 Y182.9390
 X40.1893 Y183.2890
 X40.2011 Y183.4970
 X40.2381 Y183.6970
 X40.2999 Y183.8900
 X40.3863 Y184.0720
 X40.4918 Y184.2400
 X40.6133 Y184.3920
 X40.7506 Y184.5250
 X40.9031 Y184.6420
 X41.2415 Y184.8310
 X41.6226 Y184.9670
 X41.7876 Y185.0040
 X41.9911 Y185.0420
 X42.2325 Y185.0790
 X42.5113 Y185.1150
 X43.0761 Y185.1900
 X43.5619 Y185.2710
 X43.9682 Y185.3600
 X44.2944 Y185.4560
 X44.2972 Y185.6220
 X44.2999 Y185.7170
 X44.2819 Y185.9990
 X44.2292 Y186.2360
 X44.1414 Y186.4310
 X44.0182 Y186.5780
 X43.8022 Y186.7250
 X43.5419 Y186.8310
 X43.2363 Y186.8940
 X42.8839 Y186.9170
 X42.5553 Y186.9000
 X42.2732 Y186.8540
 X42.0372 Y186.7780
 X41.8472 Y186.6720
 X41.6897 Y186.5260
 X41.5553 Y186.3330
 X41.4429 Y186.0940
 X41.3522 Y185.8080
 X40.3515 Y185.9430
 X40.4268 Y186.2350
 X40.5256 Y186.4990
 X40.6464 Y186.7350
 X40.7885 Y186.9390
 X40.9568 Y187.1170
 X41.1597 Y187.2740
 X41.3968 Y187.4100
 X41.6678 Y187.5240
 X41.9656 Y187.6110
 X42.2875 Y187.6750
 X42.6328 Y187.7150
 X43.0007 Y187.7280
 X43.3579 Y187.7170
 X43.6811 Y187.6830
 X43.9697 Y187.6290
 X44.2229 Y187.5530
 X44.4411 Y187.4580
 X44.6296 Y187.3540
 X44.7875 Y187.2400
 X44.9140 Y187.1140
 X45.0157 Y186.9720
 X45.1014 Y186.8140
 X45.1710 Y186.6390
 X45.2238 Y186.4460
 X45.2442 Y186.2920
 X45.2600 Y186.0900
 X45.2701 Y185.8370
 X45.2736 Y185.5320
 Y184.2100
 X45.2742 Y183.8780
 X45.2768 Y183.5790
 X45.2815 Y183.3130
 X45.2882 Y183.0780
 X45.2967 Y182.8750
 X45.3071 Y182.7040
 X45.3194 Y182.5640
 X45.3336 Y182.4570
 X45.4219 Y182.0940
 X45.5710 Y181.7510
 X44.5435
 X44.4750 Y181.9140
 X44.4213 Y182.0900
 X44.3812 Y182.2790
 X44.3542 Y182.4820
G0 Z2.0000
 X57.1269 Y183.6440
G1 Z0.0000
 X58.1335 Y183.5080
 X57.9847 Y183.0830
 X57.7846 Y182.7100
 X57.5325 Y182.3860
 X57.2283 Y182.1120
 X56.8747 Y181.8960
 X56.4756 Y181.7400
 X56.0308 Y181.6470
 X55.5401 Y181.6150
 X55.2243 Y181.6280
 X54.9256 Y181.6650
 X54.6439 Y181.7260
 X54.3792 Y181.8130
 X54.1314 Y181.9240
 X53.9004 Y182.0600
 X53.6860 Y182.2210
 X53.4883 Y182.4060
 X53.3094 Y182.6140
 X53.1550 Y182.8400
 X53.0246 Y183.0870
 X52.9182 Y183.3560
 X52.8358 Y183.6420
 X52.7771 Y183.9490
 X52.7419 Y184.2760
 X52.7303 Y184.6220
 X52.7418 Y184.9810
 X52.7776 Y185.3180
 X52.8375 Y185.6350
 X52.9214 Y185.9320
 X53.0293 Y186.2080
 X53.1611 Y186.4640
 X53.3168 Y186.6990
 X53.4965 Y186.9130
 X53.6946 Y187.1030
 X53.9072 Y187.2680
 X54.1343 Y187.4080
 X54.3757 Y187.5240
 X54.6314 Y187.6120
 X54.9015 Y187.6760
 X55.1857 Y187.7150
 X55.4839 Y187.7280
 X55.7721 Y187.7150
 X56.0472 Y187.6780
 X56.3090 Y187.6150
 X56.5575 Y187.5280
 X56.7926 Y187.4170
 X57.0142 Y187.2790
 X57.2222 Y187.1180
 X57.4164 Y186.9320
 X57.5912 Y186.7220
 X57.7431 Y186.4930
 X57.8718 Y186.2430
 X57.9775 Y185.9740
 X58.0597 Y185.6830
 X58.1187 Y185.3740
 X58.1542 Y185.0430
 X58.1660 Y184.6920
 X58.1635 Y184.5810
 X58.1606 Y184.4280
 X53.7578
 X53.7785 Y184.1920
 X53.8131 Y183.9710
 X53.8617 Y183.7630
 X53.9242 Y183.5710
 X54.0006 Y183.3930
 X54.0908 Y183.2280
 X54.1949 Y183.0790
 X54.3128 Y182.9430
 X54.5771 Y182.7150
 X54.8729 Y182.5540
 X55.1996 Y182.4580
 X55.5571 Y182.4280
 X55.8229 Y182.4440
 X56.0703 Y182.4990
 X56.2979 Y182.5900
 X56.5047 Y182.7180
 X56.6907 Y182.8830
 X56.8564 Y183.0930
 X57.0018 Y183.3470
 X57.1269 Y183.6440
G0 Z2.0000
 X59.1550 Y185.6740
G1 Z0.0000
 X59.1719 Y186.1610
 X59.2224 Y186.6210
 X59.3065 Y187.0530
 X59.4244 Y187.4600
 X59.5758 Y187.8370
 X59.7611 Y188.1900
 X59.9800 Y188.5140
 X60.2325 Y188.8110
 X60.5110 Y189.0760
 X60.8093 Y189.3070
 X61.1275 Y189.5010
 X61.4657 Y189.6610
 X61.8235 Y189.7860
 X62.2008 Y189.8750
 X62.5978 Y189.9280
 X63.0142 Y189.9460
 X63.5568 Y189.9130
 X64.0738 Y189.8130
 X64.5640 Y189.6460
 X65.0264 Y189.4130
 X65.4462 Y189.1190
 X65.8146 Y188.7740
 X66.1303 Y188.3780
 X66.3925 Y187.9280
 X66.5979 Y187.4330
 X66.7449 Y186.9100
 X66.8331 Y186.3540
 X66.8625 Y185.7670
 X66.8297 Y185.1710
 X66.7372 Y184.6070
 X66.5836 Y184.0750
 X66.3678 Y183.5760
 X66.2371 Y183.3420
 X66.0939 Y183.1220
 X65.9381 Y182.9170
 X65.7693 Y182.7260
 X65.5878 Y182.5510
 X65.3933 Y182.3900
 X65.1860 Y182.2440
 X64.9658 Y182.1120
 X64.5026 Y181.8960
 X64.0225 Y181.7400
 X63.5246 Y181.6470
 X63.0087 Y181.6150
 X62.4539 Y181.6500
 X61.9304 Y181.7530
 X61.4375 Y181.9250
 X60.9747 Y182.1650
 X60.5538 Y182.4620
 X60.1872 Y182.8130
 X59.8749 Y183.2140
 X59.6168 Y183.6640
 X59.4143 Y184.1440
 X59.2701 Y184.6400
 X59.1838 Y185.1500
 X59.1550 Y185.6740
G0 Z2.0000
 X68.1579 Y181.7510
G1 Z0.0000
 Y189.8100
 X69.1585
 Y185.2490
 X71.4862 Y187.5930
 X72.7656
 X70.5381 Y185.4220
 X72.9819 Y181.7510
 X71.7850
 X69.8514 Y184.7540
 X69.1585 Y184.0780
 Y181.7510
 X68.1579
G0 Z2.0000
 X73.4338 Y184.6720
G1 Z0.0000
 X73.4474 Y185.0640
 X73.4890 Y185.4310
 X73.5586 Y185.7710
 X73.6563 Y186.0850
 X73.7817 Y186.3720
 X73.9350 Y186.6350
 X74.1163 Y186.8690
 X74.3253 Y187.0780
 X74.5158 Y187.2290
 X74.7171 Y187.3610
 X74.9286 Y187.4740
 X75.1506 Y187.5640
 X75.3828 Y187.6360
 X75.6253 Y187.6880
 X75.8779 Y187.7180
 X76.1407 Y187.7280
 X76.4312 Y187.7150
 X76.7085 Y187.6780
 X76.9721 Y187.6170
 X77.2222 Y187.5290
 X77.4587 Y187.4180
 X77.6818 Y187.2830
 X77.8911 Y187.1220
 X78.0868 Y186.9380
 X78.2635 Y186.7310
 X78.4168 Y186.5040
 X78.5467 Y186.2600
 X78.6531 Y185.9960
 X78.7358 Y185.7140
 X78.7950 Y185.4130
 X78.8306 Y185.0930
 X78.8425 Y184.7540
 X78.8201 Y184.2190
 X78.7576 Y183.7460
 X78.6540 Y183.3320
 X78.5082 Y182.9790
 X78.3208 Y182.6720
 X78.0968 Y182.4030
 X77.8353 Y182.1710
 X77.5354 Y181.9740
 X77.2075 Y181.8170
 X76.8664 Y181.7060
 X76.5110 Y181.6390
 X76.1407 Y181.6150
 X75.8447 Y181.6280
 X75.5635 Y181.6650
 X75.2967 Y181.7260
 X75.0446 Y181.8130
 X74.8069 Y181.9240
 X74.5839 Y182.0580
 X74.3753 Y182.2180
 X74.1812 Y182.4030
 X74.0060 Y182.6100
 X73.8540 Y182.8390
 X73.7256 Y183.0890
 X73.6206 Y183.3620
 X73.5388 Y183.6570
 X73.4804 Y183.9740
 X73.4454 Y184.3130
 X73.4338 Y184.6720
G0 Z2.0000
 X89.0414 Y184.5810
G1 Z0.0000
 X90.1504 Y184.3110
 X90.0583 Y183.9920
 X89.9496 Y183.6930
 X89.8242 Y183.4130
 X89.6818 Y183.1530
 X89.5229 Y182.9110
 X89.3472 Y182.6900
 X89.1549 Y182.4890
 X88.9457 Y182.3060
 X88.7218 Y182.1430
 X88.4861 Y182.0030
 X88.2383 Y181.8830
 X87.9786 Y181.7860
 X87.7068 Y181.7110
 X87.4229 Y181.6580
 X87.1269 Y181.6260
 X86.8188 Y181.6150
 X86.5010 Y181.6240
 X86.1986 Y181.6490
 X85.9114 Y181.6900
 X85.6394 Y181.7490
 X85.3826 Y181.8220
 X85.1410 Y181.9140
 X84.9146 Y182.0220
 X84.7033 Y182.1460
 X84.5046 Y182.2860
 X84.3186 Y182.4400
 X84.1453 Y182.6100
 X83.9844 Y182.7940
 X83.8358 Y182.9940
 X83.6996 Y183.2080
 X83.5754 Y183.4380
 X83.4631 Y183.6820
 X83.2760 Y184.1930
 X83.1432 Y184.7240
 X83.0640 Y185.2740
 X83.0378 Y185.8420
 X83.0660 Y186.4490
 X83.1563 Y187.0180
 X83.3074 Y187.5470
 X83.5181 Y188.0360
 X83.7826 Y188.4750
 X84.0990 Y188.8600
 X84.4667 Y189.1880
 X84.8850 Y189.4600
 X85.3378 Y189.6690
 X85.8147 Y189.8220
 X86.3147 Y189.9140
 X86.8365 Y189.9460
 X87.1319 Y189.9360
 X87.4156 Y189.9070
 X87.6875 Y189.8580
 X87.9475 Y189.7920
 X88.1957 Y189.7040
 X88.4318 Y189.5990
 X88.6558 Y189.4740
 X88.8678 Y189.3290
 X89.0650 Y189.1670
 X89.2471 Y188.9890
 X89.4139 Y188.7940
 X89.5653 Y188.5860
 X89.7013 Y188.3620
 X89.8217 Y188.1220
 X89.9262 Y187.8670
 X90.0151 Y187.5940
 X88.9606 Y187.3490
 X88.8046 Y187.7570
 X88.6179 Y188.1070
 X88.4000 Y188.3960
 X88.1506 Y188.6260
 X87.8682 Y188.7990
 X87.5515 Y188.9250
 X87.2008 Y189.0000
 X86.8160 Y189.0260
 X86.3710 Y188.9970
 X85.9658 Y188.9140
 X85.5994 Y188.7750
 X85.2706 Y188.5820
 X84.9819 Y188.3390
 X84.7408 Y188.0600
 X84.5465 Y187.7440
 X84.3981 Y187.3890
 X84.2862 Y187.0110
 X84.2079 Y186.6280
 X84.1617 Y186.2400
 X84.1465 Y185.8470
 X84.1635 Y185.3490
 X84.2192 Y184.8850
 X84.3124 Y184.4540
 X84.4422 Y184.0570
 X84.6106 Y183.6960
 X84.8201 Y183.3860
 X85.0706 Y183.1260
 X85.3622 Y182.9140
 X85.6801 Y182.7470
 X86.0117 Y182.6290
 X86.3561 Y182.5580
 X86.7136 Y182.5350
 X87.1378 Y182.5670
 X87.5293 Y182.6640
 X87.8872 Y182.8250
 X88.2111 Y183.0500
 X88.3578 Y183.1860
 X88.4922 Y183.3390
 X88.6146 Y183.5060
 X88.7247 Y183.6900
 X88.8225 Y183.8890
 X88.9079 Y184.1040
 X88.9810 Y184.3350
 X89.0414 Y184.5810
G0 Z2.0000
 X95.2042 Y182.4820
G1 Z0.0000
 X94.9382 Y182.2600
 X94.6751 Y182.0750
 X94.4146 Y181.9260
 X94.1565 Y181.8110
 X93.8939 Y181.7250
 X93.6232 Y181.6640
 X93.3438 Y181.6280
 X93.0549 Y181.6150
 X92.8185 Y181.6240
 X92.5964 Y181.6440
 X92.3885 Y181.6820
 X92.1949 Y181.7330
 X92.0154 Y181.7990
 X91.8500 Y181.8810
 X91.6985 Y181.9760
 X91.5611 Y182.0860
 X91.3313 Y182.3370
 X91.1683 Y182.6220
 X91.0712 Y182.9390
 X91.0392 Y183.2890
 X91.0511 Y183.4970
 X91.0881 Y183.6970
 X91.1499 Y183.8900
 X91.2362 Y184.0720
 X91.3417 Y184.2400
 X91.4633 Y184.3920
 X91.6006 Y184.5250
 X91.7529 Y184.6420
 X92.0915 Y184.8310
 X92.4725 Y184.9670
 X92.6375 Y185.0040
 X92.8410 Y185.0420
 X93.0824 Y185.0790
 X93.3612 Y185.1150
 X93.9261 Y185.1900
 X94.4119 Y185.2710
 X94.8182 Y185.3600
 X95.1444 Y185.4560
 X95.1471 Y185.6220
 X95.1499 Y185.7170
 X95.1319 Y185.9990
 X95.0792 Y186.2360
 X94.9913 Y186.4310
 X94.8682 Y186.5780
 X94.6522 Y186.7250
 X94.3919 Y186.8310
 X94.0861 Y186.8940
 X93.7339 Y186.9170
 X93.4053 Y186.9000
 X93.1231 Y186.8540
 X92.8871 Y186.7780
 X92.6972 Y186.6720
 X92.5396 Y186.5260
 X92.4051 Y186.3330
 X92.2929 Y186.0940
 X92.2021 Y185.8080
 X91.2015 Y185.9430
 X91.2768 Y186.2350
 X91.3754 Y186.4990
 X91.4963 Y186.7350
 X91.6383 Y186.9390
 X91.8067 Y187.1170
 X92.0097 Y187.2740
 X92.2468 Y187.4100
 X92.5176 Y187.5240
 X92.8154 Y187.6110
 X93.1374 Y187.6750
 X93.4826 Y187.7150
 X93.8506 Y187.7280
 X94.2078 Y187.7170
 X94.5311 Y187.6830
 X94.8197 Y187.6290
 X95.0728 Y187.5530
 X95.2910 Y187.4580
 X95.4794 Y187.3540
 X95.6374 Y187.2400
 X95.7640 Y187.1140
 X95.8656 Y186.9720
 X95.9514 Y186.8140
 X96.0208 Y186.6390
 X96.0736 Y186.4460
 X96.0942 Y186.2920
 X96.1099 Y186.0900
 X96.1200 Y185.8370
 X96.1236 Y185.5320
 Y184.2100
 X96.1242 Y183.8780
 X96.1267 Y183.5790
 X96.1314 Y183.3130
 X96.1381 Y183.0780
 X96.1465 Y182.8750
 X96.1571 Y182.7040
 X96.1694 Y182.5640
 X96.1835 Y182.4570
 X96.2718 Y182.0940
 X96.4208 Y181.7510
 X95.3933
 X95.3250 Y181.9140
 X95.2712 Y182.0900
 X95.2312 Y182.2790
 X95.2042 Y182.4820
G0 Z2.0000
 X97.6421 Y181.7510
G1 Z0.0000
 Y189.8100
 X98.6428
 Y181.7510
 X97.6421
G0 Z2.0000
 X100.2150
G1 Z0.0000
 Y187.5930
 X101.2160
 Y181.7510
 X100.2150
G0 Z2.0000
 Y188.6750
G1 Z0.0000
 Y189.8100
 X101.2160
 Y188.6750
 X100.2150
G0 Z2.0000
 X103.5890 Y181.7510
G1 Z0.0000
 X102.6690
 Y189.8100
 X103.6700
 Y186.9440
 X103.8320 Y187.1260
 X104.0050 Y187.2850
 X104.1890 Y187.4190
 X104.3840 Y187.5310
 X104.5900 Y187.6170
 X104.8070 Y187.6780
 X105.0350 Y187.7150
 X105.2740 Y187.7280
 X105.5400 Y187.7140
 X105.7990 Y187.6740
 X106.0510 Y187.6060
 X106.2960 Y187.5100
 X106.5250 Y187.3890
 X106.7340 Y187.2470
 X106.9230 Y187.0850
 X107.0900 Y186.8990
 X107.2350 Y186.6900
 X107.3660 Y186.4640
 X107.4800 Y186.2170
 X107.5770 Y185.9490
 X107.6530 Y185.6650
 X107.7080 Y185.3740
 X107.7420 Y185.0710
 X107.7540 Y184.7600
 X107.7410 Y184.3940
 X107.7060 Y184.0500
 X107.6470 Y183.7280
 X107.5660 Y183.4260
 X107.4620 Y183.1470
 X107.3340 Y182.8890
 X107.1830 Y182.6510
 X107.0080 Y182.4360
 X106.8160 Y182.2430
 X106.6150 Y182.0760
 X106.4050 Y181.9360
 X106.1860 Y181.8210
 X105.9580 Y181.7310
 X105.7210 Y181.6670
 X105.4740 Y181.6290
 X105.2180 Y181.6150
 X104.9660 Y181.6290
 X104.7270 Y181.6690
 X104.5020 Y181.7360
 X104.2920 Y181.8310
 X104.0950 Y181.9510
 X103.9120 Y182.1000
 X103.7440 Y182.2750
 X103.5890 Y182.4760
 Y181.7510
G0 Z2.0000
 X108.9590
G1 Z0.0000
 Y187.5930
 X109.8240
 Y186.7060
 X109.9910 Y186.9900
 X110.1530 Y187.2220
 X110.3090 Y187.4030
 X110.4590 Y187.5290
 X110.6070 Y187.6170
 X110.7630 Y187.6780
 X110.9270 Y187.7150
 X111.0980 Y187.7280
 X111.3500 Y187.7070
 X111.6050 Y187.6470
 X111.8630 Y187.5460
 X112.1230 Y187.4060
 X111.7760 Y186.4970
 X111.5960 Y186.5850
 X111.4180 Y186.6490
 X111.2400 Y186.6880
 X111.0620 Y186.7000
 X110.9040 Y186.6880
 X110.7570 Y186.6510
 X110.6190 Y186.5900
 X110.4880 Y186.5040
 X110.3690 Y186.3970
 X110.2690 Y186.2710
 X110.1880 Y186.1260
 X110.1240 Y185.9620
 X110.0510 Y185.6930
 X110.0000 Y185.4100
 X109.9700 Y185.1150
 X109.9600 Y184.8080
 Y181.7510
 X108.9590
G0 Z2.0000
 X116.5700 Y182.4820
G1 Z0.0000
 X116.3040 Y182.2600
 X116.0410 Y182.0750
 X115.7800 Y181.9260
 X115.5220 Y181.8110
 X115.2600 Y181.7250
 X114.9890 Y181.6640
 X114.7100 Y181.6280
 X114.4210 Y181.6150
 X114.1840 Y181.6240
 X113.9620 Y181.6440
 X113.7540 Y181.6820
 X113.5610 Y181.7330
 X113.3810 Y181.7990
 X113.2160 Y181.8810
 X113.0640 Y181.9760
 X112.9270 Y182.0860
 X112.6970 Y182.3370
 X112.5340 Y182.6220
 X112.4370 Y182.9390
 X112.4050 Y183.2890
 X112.4170 Y183.4970
 X112.4540 Y183.6970
 X112.5160 Y183.8900
 X112.6020 Y184.0720
 X112.7070 Y184.2400
 X112.8290 Y184.3920
 X112.9660 Y184.5250
 X113.1190 Y184.6420
 X113.4570 Y184.8310
 X113.8380 Y184.9670
 X114.0030 Y185.0040
 X114.2070 Y185.0420
 X114.4480 Y185.0790
 X114.7270 Y185.1150
 X115.2920 Y185.1900
 X115.7780 Y185.2710
 X116.1840 Y185.3600
 X116.5100 Y185.4560
 X116.5130 Y185.6220
 X116.5160 Y185.7170
 X116.4980 Y185.9990
 X116.4450 Y186.2360
 X116.3570 Y186.4310
 X116.2340 Y186.5780
 X116.0180 Y186.7250
 X115.7580 Y186.8310
 X115.4520 Y186.8940
 X115.1000 Y186.9170
 X114.7710 Y186.9000
 X114.4890 Y186.8540
 X114.2530 Y186.7780
 X114.0630 Y186.6720
 X113.9050 Y186.5260
 X113.7710 Y186.3330
 X113.6590 Y186.0940
 X113.5680 Y185.8080
 X112.5670 Y185.9430
 X112.6420 Y186.2350
 X112.7410 Y186.4990
 X112.8620 Y186.7350
 X113.0040 Y186.9390
 X113.1720 Y187.1170
 X113.3750 Y187.2740
 X113.6130 Y187.4100
 X113.8830 Y187.5240
 X114.1810 Y187.6110
 X114.5030 Y187.6750
 X114.8480 Y187.7150
 X115.2160 Y187.7280
 X115.5730 Y187.7170
 X115.8970 Y187.6830
 X116.1850 Y187.6290
 X116.4380 Y187.5530
 X116.6570 Y187.4580
 X116.8450 Y187.3540
 X117.0030 Y187.2400
 X117.1300 Y187.1140
 X117.2310 Y186.9720
 X117.3170 Y186.8140
 X117.3870 Y186.6390
 X117.4390 Y186.4460
 X117.4600 Y186.2920
 X117.4760 Y186.0900
 X117.4860 Y185.8370
 X117.4890 Y185.5320
 Y184.2100
 X117.4900 Y183.8780
 X117.4930 Y183.5790
 X117.4970 Y183.3130
 X117.5040 Y183.0780
 X117.5120 Y182.8750
 X117.5230 Y182.7040
 X117.5350 Y182.5640
 X117.5490 Y182.4570
 X117.6380 Y182.0940
 X117.7870 Y181.7510
 X116.7590
 X116.6910 Y181.9140
 X116.6370 Y182.0900
 X116.5970 Y182.2790
 X116.5700 Y182.4820
G0 Z2.0000
 X121.1710 Y182.6330
G1 Z0.0000
 X121.3070 Y181.7600
 X120.9130 Y181.6920
 X120.5630 Y181.6690
 X120.3090 Y181.6810
 X120.0870 Y181.7120
 X119.8950 Y181.7670
 X119.7330 Y181.8400
 X119.5940 Y181.9320
 X119.4800 Y182.0390
 X119.3880 Y182.1580
 X119.3170 Y182.2900
 X119.2630 Y182.4670
 X119.2260 Y182.7220
 X119.2040 Y183.0540
 X119.1970 Y183.4640
 Y186.8350
 X118.4670
 Y187.5930
 X119.1970
 Y189.0380
 X120.1980 Y189.6310
 Y187.5930
 X121.1710
 Y186.8350
 X120.1980
 Y183.4240
 X120.2000 Y183.2310
 X120.2100 Y183.0760
 X120.2260 Y182.9600
 X120.2490 Y182.8810
 X120.2770 Y182.8220
 X120.3140 Y182.7710
 X120.3610 Y182.7260
 X120.4150 Y182.6880
 X120.5540 Y182.6330
 X120.7460 Y182.6170
 X120.9320 Y182.6210
 X121.1710 Y182.6330
G0 Z2.0000
 X122.1980 Y181.7510
G1 Z0.0000
 Y187.5930
 X123.1990
 Y181.7510
 X122.1980
G0 Z2.0000
 Y188.6750
G1 Z0.0000
 Y189.8100
 X123.1990
 Y188.6750
 X122.1980
G0 Z2.0000
 X124.3010 Y184.6720
G1 Z0.0000
 X124.3140 Y185.0640
 X124.3560 Y185.4310
 X124.4250 Y185.7710
 X124.5230 Y186.0850
 X124.6490 Y186.3720
 X124.8020 Y186.6350
 X124.9830 Y186.8690
 X125.1920 Y187.0780
 X125.3830 Y187.2290
 X125.5840 Y187.3610
 X125.7950 Y187.4740
 X126.0170 Y187.5640
 X126.2500 Y187.6360
 X126.4920 Y187.6880
 X126.7450 Y187.7180
 X127.0080 Y187.7280
 X127.2980 Y187.7150
 X127.5750 Y187.6780
 X127.8390 Y187.6170
 X128.0890 Y187.5290
 X128.3260 Y187.4180
 X128.5490 Y187.2830
 X128.7580 Y187.1220
 X128.9540 Y186.9380
 X129.1300 Y186.7310
 X129.2840 Y186.5040
 X129.4130 Y186.2600
 X129.5200 Y185.9960
 X129.6030 Y185.7140
 X129.6620 Y185.4130
 X129.6970 Y185.0930
 X129.7090 Y184.7540
 X129.6870 Y184.2190
 X129.6240 Y183.7460
 X129.5210 Y183.3320
 X129.3750 Y182.9790
 X129.1880 Y182.6720
 X128.9640 Y182.4030
 X128.7020 Y182.1710
 X128.4020 Y181.9740
 X128.0740 Y181.8170
 X127.7330 Y181.7060
 X127.3780 Y181.6390
 X127.0080 Y181.6150
 X126.7120 Y181.6280
 X126.4300 Y181.6650
 X126.1640 Y181.7260
 X125.9110 Y181.8130
 X125.6740 Y181.9240
 X125.4510 Y182.0580
 X125.2420 Y182.2180
 X125.0480 Y182.4030
 X124.8730 Y182.6100
 X124.7210 Y182.8390
 X124.5930 Y183.0890
 X124.4870 Y183.3620
 X124.4060 Y183.6570
 X124.3470 Y183.9740
 X124.3120 Y184.3130
 X124.3010 Y184.6720
G0 Z2.0000
 X130.9960 Y181.7510
G1 Z0.0000
 Y187.5930
 X131.8880
 Y186.7630
 X132.0540 Y186.9870
 X132.2380 Y187.1830
 X132.4400 Y187.3490
 X132.6590 Y187.4850
 X132.8970 Y187.5920
 X133.1520 Y187.6670
 X133.4240 Y187.7120
 X133.7140 Y187.7280
 X133.9670 Y187.7150
 X134.2110 Y187.6790
 X134.4440 Y187.6210
 X134.6670 Y187.5380
 X134.8690 Y187.4350
 X135.0460 Y187.3170
 X135.1960 Y187.1860
 X135.3180 Y187.0400
 X135.4170 Y186.8760
 X135.5010 Y186.7010
 X135.5690 Y186.5130
 X135.6200 Y186.3080
 X135.6430 Y186.1440
 X135.6600 Y185.9290
 X135.6710 Y185.6630
 X135.6740 Y185.3440
 Y181.7510
 X134.6470
 Y185.3010
 X134.6390 Y185.5830
 X134.6190 Y185.8290
 X134.5840 Y186.0360
 X134.5360 Y186.2060
 X134.4690 Y186.3470
 X134.3820 Y186.4740
 X134.2730 Y186.5860
 X134.1430 Y186.6830
 X133.9960 Y186.7610
 X133.8370 Y186.8180
 X133.6660 Y186.8510
 X133.4820 Y186.8620
 X133.1890 Y186.8370
 X132.9170 Y186.7630
 X132.6660 Y186.6360
 X132.4360 Y186.4610
 X132.3330 Y186.3500
 X132.2440 Y186.2150
 X132.1680 Y186.0580
 X132.1060 Y185.8790
 X132.0580 Y185.6780
 X132.0240 Y185.4540
 X132.0030 Y185.2080
 X131.9970 Y184.9390
 Y181.7510
 X130.9960
G0 Z2.0000
 X140.4920
G1 Z0.0000
 Y189.8100
 X143.5260
 X143.9010 Y189.8060
 X144.2310 Y189.7900
 X144.5140 Y189.7670
 X144.7490 Y189.7330
 X145.0320 Y189.6710
 X145.2920 Y189.5870
 X145.5290 Y189.4830
 X145.7420 Y189.3560
 X145.9320 Y189.2030
 X146.1030 Y189.0220
 X146.2540 Y188.8140
 X146.3860 Y188.5780
 X146.4920 Y188.3190
 X146.5680 Y188.0510
 X146.6150 Y187.7710
 X146.6310 Y187.4780
 X146.6190 Y187.2250
 X146.5890 Y186.9820
 X146.5380 Y186.7500
 X146.4670 Y186.5260
 X146.3750 Y186.3140
 X146.2630 Y186.1110
 X146.1290 Y185.9190
 X145.9760 Y185.7360
 X145.7960 Y185.5680
 X145.5830 Y185.4220
 X145.3370 Y185.3000
 X145.0580 Y185.2000
 X144.7460 Y185.1220
 X144.4010 Y185.0680
 X144.0240 Y185.0350
 X143.6140 Y185.0240
 X141.5460
 Y181.7510
 X140.4920
G0 Z2.0000
 X151.7370 Y182.4820
G1 Z0.0000
 X151.4720 Y182.2600
 X151.2080 Y182.0750
 X150.9490 Y181.9260
 X150.6900 Y181.8110
 X150.4280 Y181.7250
 X150.1570 Y181.6640
 X149.8780 Y181.6280
 X149.5890 Y181.6150
 X149.3510 Y181.6240
 X149.1310 Y181.6440
 X148.9220 Y181.6820
 X148.7280 Y181.7330
 X148.5490 Y181.7990
 X148.3830 Y181.8810
 X148.2320 Y181.9760
 X148.0940 Y182.0860
 X147.8650 Y182.3370
 X147.7010 Y182.6220
 X147.6040 Y182.9390
 X147.5720 Y183.2890
 X147.5850 Y183.4970
 X147.6220 Y183.6970
 X147.6830 Y183.8900
 X147.7690 Y184.0720
 X147.8750 Y184.2400
 X147.9970 Y184.3920
 X148.1350 Y184.5250
 X148.2860 Y184.6420
 X148.6250 Y184.8310
 X149.0060 Y184.9670
 X149.1710 Y185.0040
 X149.3750 Y185.0420
 X149.6170 Y185.0790
 X149.8940 Y185.1150
 X150.4600 Y185.1900
 X150.9460 Y185.2710
 X151.3510 Y185.3600
 X151.6780 Y185.4560
 X151.6810 Y185.6220
 X151.6830 Y185.7170
 X151.6650 Y185.9990
 X151.6120 Y186.2360
 X151.5250 Y186.4310
 X151.4010 Y186.5780
 X151.1860 Y186.7250
 X150.9250 Y186.8310
 X150.6190 Y186.8940
 X150.2680 Y186.9170
 X149.9390 Y186.9000
 X149.6570 Y186.8540
 X149.4210 Y186.7780
 X149.2310 Y186.6720
 X149.0740 Y186.5260
 X148.9390 Y186.3330
 X148.8260 Y186.0940
 X148.7360 Y185.8080
 X147.7350 Y185.9430
 X147.8100 Y186.2350
 X147.9080 Y186.4990
 X148.0310 Y186.7350
 X148.1720 Y186.9390
 X148.3400 Y187.1170
 X148.5430 Y187.2740
 X148.7810 Y187.4100
 X149.0510 Y187.5240
 X149.3490 Y187.6110
 X149.6710 Y187.6750
 X150.0170 Y187.7150
 X150.3850 Y187.7280
 X150.7420 Y187.7170
 X151.0650 Y187.6830
 X151.3530 Y187.6290
 X151.6070 Y187.5530
 X151.8250 Y187.4580
 X152.0130 Y187.3540
 X152.1710 Y187.2400
 X152.2970 Y187.1140
 X152.3990 Y186.9720
 X152.4850 Y186.8140
 X152.5540 Y186.6390
 X152.6070 Y186.4460
 X152.6280 Y186.2920
 X152.6430 Y186.0900
 X152.6540 Y185.8370
 X152.6570 Y185.5320
 Y184.2100
 X152.6580 Y183.8780
 X152.6600 Y183.5790
 X152.6650 Y183.3130
 X152.6720 Y183.0780
 X152.6810 Y182.8750
 X152.6900 Y182.7040
 X152.7030 Y182.5640
 X152.7170 Y182.4570
 X152.8060 Y182.0940
 X152.9540 Y181.7510
 X151.9260
 X151.8580 Y181.9140
 X151.8040 Y182.0900
 X151.7650 Y182.2790
 X151.7370 Y182.4820
G0 Z2.0000
 X166.7260 Y181.7510
G1 Z0.0000
 Y187.5930
 X167.5920
 Y186.7060
 X167.7580 Y186.9900
 X167.9210 Y187.2220
 X168.0780 Y187.4030
 X168.2260 Y187.5290
 X168.3750 Y187.6170
 X168.5310 Y187.6780
 X168.6940 Y187.7150
 X168.8670 Y187.7280
 X169.1180 Y187.7070
 X169.3740 Y187.6470
 X169.6310 Y187.5460
 X169.8900 Y187.4060
 X169.5430 Y186.4970
 X169.3640 Y186.5850
 X169.1860 Y186.6490
 X169.0080 Y186.6880
 X168.8290 Y186.7000
 X168.6720 Y186.6880
 X168.5250 Y186.6510
 X168.3860 Y186.5900
 X168.2560 Y186.5040
 X168.1360 Y186.3970
 X168.0380 Y186.2710
 X167.9560 Y186.1260
 X167.8920 Y185.9620
 X167.8190 Y185.6930
 X167.7680 Y185.4100
 X167.7370 Y185.1150
 X167.7280 Y184.8080
 Y181.7510
 X166.7260
G0 Z2.0000
 X170.5510
G1 Z0.0000
 Y187.5930
 X171.4440
 Y186.7630
 X171.6100 Y186.9870
 X171.7930 Y187.1830
 X171.9960 Y187.3490
 X172.2150 Y187.4850
 X172.4530 Y187.5920
 X172.7070 Y187.6670
 X172.9790 Y187.7120
 X173.2690 Y187.7280
 X173.5240 Y187.7150
 X173.7670 Y187.6790
 X174.0000 Y187.6210
 X174.2220 Y187.5380
 X174.4250 Y187.4350
 X174.6010 Y187.3170
 X174.7510 Y187.1860
 X174.8740 Y187.0400
 X174.9720 Y186.8760
 X175.0560 Y186.7010
 X175.1250 Y186.5130
 X175.1760 Y186.3080
 X175.1990 Y186.1440
 X175.2150 Y185.9290
 X175.2260 Y185.6630
 X175.2310 Y185.3440
 Y181.7510
 X174.2030
 Y185.3010
 X174.1940 Y185.5830
 X174.1740 Y185.8290
 X174.1400 Y186.0360
 X174.0920 Y186.2060
 X174.0250 Y186.3470
 X173.9380 Y186.4740
 X173.8290 Y186.5860
 X173.6990 Y186.6830
 X173.5510 Y186.7610
 X173.3930 Y186.8180
 X173.2210 Y186.8510
 X173.0380 Y186.8620
 X172.7440 Y186.8370
 X172.4720 Y186.7630
 X172.2220 Y186.6360
 X171.9920 Y186.4610
 X171.8890 Y186.3500
 X171.7990 Y186.2150
 X171.7240 Y186.0580
 X171.6610 Y185.8790
 X171.6140 Y185.6780
 X171.5790 Y185.4540
 X171.5580 Y185.2080
 X171.5530 Y184.9390
 Y181.7510
 X170.5510
G0 Z2.0000
 X164.4820 Y183.6440
G1 Z0.0000
 X165.4890 Y183.5080
 X165.3400 Y183.0830
 X165.1400 Y182.7100
 X164.8880 Y182.3860
 X164.5830 Y182.1120
 X164.2310 Y181.8960
 X163.8310 Y181.7400
 X163.3860 Y181.6470
 X162.8960 Y181.6150
 X162.5790 Y181.6280
 X162.2810 Y181.6650
 X161.9990 Y181.7260
 X161.7350 Y181.8130
 X161.4870 Y181.9240
 X161.2560 Y182.0600
 X161.0420 Y182.2210
 X160.8430 Y182.4060
 X160.6650 Y182.6140
 X160.5100 Y182.8400
 X160.3810 Y183.0870
 X160.2740 Y183.3560
 X160.1920 Y183.6420
 X160.1320 Y183.9490
 X160.0970 Y184.2760
 X160.0860 Y184.6220
 X160.0970 Y184.9810
 X160.1330 Y185.3180
 X160.1930 Y185.6350
 X160.2760 Y185.9320
 X160.3850 Y186.2080
 X160.5170 Y186.4640
 X160.6720 Y186.6990
 X160.8510 Y186.9130
 X161.0500 Y187.1030
 X161.2630 Y187.2680
 X161.4900 Y187.4080
 X161.7310 Y187.5240
 X161.9870 Y187.6120
 X162.2570 Y187.6760
 X162.5420 Y187.7150
 X162.8390 Y187.7280
 X163.1280 Y187.7150
 X163.4030 Y187.6780
 X163.6640 Y187.6150
 X163.9130 Y187.5280
 X164.1490 Y187.4170
 X164.3690 Y187.2790
 X164.5780 Y187.1180
 X164.7720 Y186.9320
 X164.9470 Y186.7220
 X165.0990 Y186.4930
 X165.2280 Y186.2430
 X165.3330 Y185.9740
 X165.4150 Y185.6830
 X165.4740 Y185.3740
 X165.5100 Y185.0430
 X165.5210 Y184.6920
 X165.5190 Y184.5810
 X165.5170 Y184.4280
 X161.1140
 X161.1330 Y184.1920
 X161.1680 Y183.9710
 X161.2170 Y183.7630
 X161.2790 Y183.5710
 X161.3560 Y183.3930
 X161.4460 Y183.2280
 X161.5500 Y183.0790
 X161.6680 Y182.9430
 X161.9320 Y182.7150
 X162.2280 Y182.5540
 X162.5560 Y182.4580
 X162.9130 Y182.4280
 X163.1780 Y182.4440
 X163.4250 Y182.4990
 X163.6530 Y182.5900
 X163.8600 Y182.7180
 X164.0460 Y182.8830
 X164.2120 Y183.0930
 X164.3570 Y183.3470
 X164.4820 Y183.6440
G0 Z2.0000
 X159.4750 Y182.6330
G1 Z0.0000
 X159.6110 Y181.7600
 X159.2170 Y181.6920
 X158.8680 Y181.6690
 X158.6140 Y181.6810
 X158.3920 Y181.7120
 X158.1990 Y181.7670
 X158.0380 Y181.8400
 X157.8990 Y181.9320
 X157.7850 Y182.0390
 X157.6920 Y182.1580
 X157.6220 Y182.2900
 X157.5670 Y182.4670
 X157.5310 Y182.7220
 X157.5080 Y183.0540
 X157.5010 Y183.4640
 Y186.8350
 X156.7710
 Y187.5930
 X157.5010
 Y189.0380
 X158.5010 Y189.6310
 Y187.5930
 X159.4750
 Y186.8350
 X158.5010
 Y183.4240
 X158.5040 Y183.2310
 X158.5140 Y183.0760
 X158.5310 Y182.9600
 X158.5530 Y182.8810
 X158.5810 Y182.8220
 X158.6180 Y182.7710
 X158.6650 Y182.7260
 X158.7190 Y182.6880
 X158.8580 Y182.6330
 X159.0500 Y182.6170
 X159.2360 Y182.6210
 X159.4750 Y182.6330
G0 Z2.0000
 X156.3390
G1 Z0.0000
 X156.4750 Y181.7600
 X156.0810 Y181.6920
 X155.7310 Y181.6690
 X155.4780 Y181.6810
 X155.2540 Y181.7120
 X155.0630 Y181.7670
 X154.9000 Y181.8400
 X154.7630 Y181.9320
 X154.6470 Y182.0390
 X154.5560 Y182.1580
 X154.4850 Y182.2900
 X154.4310 Y182.4670
 X154.3930 Y182.7220
 X154.3720 Y183.0540
 X154.3650 Y183.4640
 Y186.8350
 X153.6350
 Y187.5930
 X154.3650
 Y189.0380
 X155.3650 Y189.6310
 Y187.5930
 X156.3390
 Y186.8350
 X155.3650
 Y183.4240
 X155.3680 Y183.2310
 X155.3780 Y183.0760
 X155.3940 Y182.9600
 X155.4170 Y182.8810
 X155.4440 Y182.8220
 X155.4820 Y182.7710
 X155.5290 Y182.7260
 X155.5830 Y182.6880
 X155.7220 Y182.6330
 X155.9140 Y182.6170
 X156.1000 Y182.6210
 X156.3390 Y182.6330
G0 Z2.0000
 X127.0000 Y177.8000
G1 Z0.0000
 Y101.6000
G0 Z2.0000
 X98.7778
G1 Z0.0000
 X101.6000 Y104.4220
G0 Z2.0000
 X95.9556 Y101.6000
G1 Z0.0000
 X101.6000 Y107.2440
G0 Z2.0000
 X93.1333 Y101.6000
G1 Z0.0000
 X101.6000 Y110.0670
G0 Z2.0000
 X90.3111 Y101.6000
G1 Z0.0000
 X101.6000 Y112.8890
G0 Z2.0000
 X87.4889 Y101.6000
G1 Z0.0000
 X101.6000 Y115.7110
G0 Z2.0000
 X84.6667 Y101.6000
G1 Z0.0000
 X101.6000 Y118.5330
G0 Z2.0000
 X59.2667 Y127.0000
G1 Z0.0000
 Y101.6000
G0 Z2.0000
 X25.4000 Y127.0000
G1 Z0.0000
 X177.8000
G0 Z2.0000
 X152.4000
G1 Z0.0000
 X127.0000 Y152.4000
G0 Z2.0000
 X132.6440 Y146.7560
G1 Z0.0000
 X146.7560
 Y132.6440
 X132.6440
 Y146.7560
G0 Z2.0000
 X127.0000 Y127.0000
G1 Z0.0000
 X152.4000 Y152.4000
G0 Z2.0000
 Y177.8000
G1 Z0.0000
 Y101.6000
G0 Z2.0000
 X140.6900 Y96.1857
G1 Z0.0000
 X140.5320 Y97.0956
 Y97.8783
 X141.1970
 Y97.0956
 X141.0420 Y96.1857
 X140.6900
G0 Z2.0000
 X139.6250
G1 Z0.0000
 X139.4640 Y97.0956
 Y97.8783
 X140.1290
 Y97.0956
 X139.9830 Y96.1857
 X139.6250
G0 Z2.0000
 X135.7440 Y94.3682
G1 Z0.0000
 X136.3410 Y94.4515
 X136.3970 Y94.2235
 X136.4720 Y94.0314
 X136.5650 Y93.8740
 X136.6750 Y93.7503
 X136.8000 Y93.6556
 X136.9390 Y93.5886
 X137.0920 Y93.5489
 X137.2600 Y93.5357
 X137.4580 Y93.5517
 X137.6390 Y93.6051
 X137.8040 Y93.6950
 X137.9510 Y93.8200
 X138.0700 Y93.9699
 X138.1570 Y94.1376
 X138.2100 Y94.3228
 X138.2280 Y94.5246
 X138.2100 Y94.7158
 X138.1620 Y94.8899
 X138.0810 Y95.0464
 X137.9680 Y95.1854
 X137.8290 Y95.2979
 X137.6730 Y95.3793
 X137.5000 Y95.4289
 X137.3080 Y95.4457
 X137.1240 Y95.4286
 X136.9010 Y95.3810
 X136.9660 Y95.8944
 X137.0160 Y95.8882
 X137.0580 Y95.8879
 X137.2350 Y95.8994
 X137.4030 Y95.9358
 X137.5630 Y95.9968
 X137.7140 Y96.0819
 X137.8400 Y96.1914
 X137.9310 Y96.3279
 X137.9870 Y96.4910
 X138.0060 Y96.6800
 X137.9910 Y96.8325
 X137.9500 Y96.9719
 X137.8840 Y97.0981
 X137.7900 Y97.2101
 X137.6740 Y97.3011
 X137.5430 Y97.3669
 X137.3970 Y97.4069
 X137.2340 Y97.4204
 X137.0720 Y97.4060
 X136.9240 Y97.3664
 X136.7910 Y97.3011
 X136.6720 Y97.2089
 X136.5680 Y97.0892
 X136.4860 Y96.9438
 X136.4240 Y96.7724
 X136.3830 Y96.5743
 X135.7860 Y96.6714
 X135.8540 Y96.9474
 X135.9590 Y97.1919
 X136.0980 Y97.4040
 X136.2710 Y97.5828
 X136.4700 Y97.7236
 X136.6950 Y97.8247
 X136.9430 Y97.8857
 X137.2140 Y97.9061
 X137.4030 Y97.8944
 X137.5850 Y97.8633
 X137.7610 Y97.8118
 X137.9290 Y97.7390
 X138.0820 Y97.6467
 X138.2170 Y97.5404
 X138.3330 Y97.4196
 X138.4290 Y97.2831
 X138.5040 Y97.1350
 X138.5580 Y96.9842
 X138.5910 Y96.8293
 X138.6020 Y96.6699
 X138.5900 Y96.5179
 X138.5600 Y96.3743
 X138.5090 Y96.2381
 X138.4370 Y96.1083
 X138.3430 Y95.9879
 X138.2310 Y95.8810
 X138.1000 Y95.7871
 X137.9480 Y95.7061
 X138.1460 Y95.6439
 X138.3230 Y95.5562
 X138.4780 Y95.4425
 X138.6110 Y95.3026
 X138.7160 Y95.1396
 X138.7910 Y94.9578
 X138.8370 Y94.7569
 X138.8520 Y94.5368
 X138.8220 Y94.2375
 X138.7370 Y93.9621
 X138.5970 Y93.7104
 X138.3990 Y93.4824
 X138.1570 Y93.2929
 X137.8850 Y93.1579
 X137.5840 Y93.0769
 X137.2530 Y93.0500
 X136.9520 Y93.0729
 X136.6800 Y93.1418
 X136.4340 Y93.2564
 X136.2150 Y93.4169
 X136.0290 Y93.6133
 X135.8890 Y93.8376
 X135.7950 Y94.0894
 X135.7440 Y94.3682
G0 Z2.0000
 X141.1110 Y114.3000
G1 Z0.0000
 X141.1040 Y114.1560
 X141.0820 Y114.0150
 X141.0470 Y113.8800
 X141.0000 Y113.7510
 X140.9400 Y113.6270
 X140.8710 Y113.5110
 X140.7890 Y113.4020
 X140.6990 Y113.3020
 X140.5970 Y113.2110
 X140.4890 Y113.1300
 X140.3720 Y113.0590
 X140.2500 Y113.0000
 X140.1190 Y112.9520
 X139.9850 Y112.9180
 X139.8440 Y112.8960
 X139.7000 Y112.8890
 X139.5560 Y112.8960
 X139.4150 Y112.9180
 X139.2810 Y112.9520
 X139.1500 Y113.0000
 X139.0260 Y113.0590
 X138.9110 Y113.1300
 X138.8020 Y113.2110
 X138.7020 Y113.3020
 X138.6110 Y113.4020
 X138.5300 Y113.5110
 X138.4590 Y113.6270
 X138.4000 Y113.7510
 X138.3520 Y113.8800
 X138.3180 Y114.0150
 X138.2960 Y114.1560
 X138.2890 Y114.3000
 X138.2960 Y114.4440
 X138.3180 Y114.5850
 X138.3520 Y114.7200
 X138.4000 Y114.8500
 X138.4590 Y114.9730
 X138.5300 Y115.0890
 X138.6110 Y115.1980
 X138.7020 Y115.2980
 X138.8020 Y115.3890
 X138.9110 Y115.4700
 X139.0260 Y115.5410
 X139.1500 Y115.6000
 X139.2810 Y115.6480
 X139.4150 Y115.6820
 X139.5560 Y115.7040
 X139.7000 Y115.7110
 X139.8440 Y115.7040
 X139.9850 Y115.6820
 X140.1190 Y115.6480
 X140.2500 Y115.6000
 X140.3720 Y115.5410
 X140.4890 Y115.4700
 X140.5970 Y115.3890
 X140.6990 Y115.2980
 X140.7890 Y115.1980
 X140.8710 Y115.0890
 X140.9400 Y114.9730
 X141.0000 Y114.8500
 X141.0470 Y114.7200
 X141.0820 Y114.5850
 X141.1040 Y114.4440
 X141.1110 Y114.3000
G0 Z2.0000
 X143.9330
G1 Z0.0000
 X143.9110 Y113.8670
 X143.8470 Y113.4470
 X143.7430 Y113.0410
 X143.6010 Y112.6520
 X143.4220 Y112.2820
 X143.2110 Y111.9330
 X142.9670 Y111.6070
 X142.6930 Y111.3060
 X142.3930 Y111.0330
 X142.0670 Y110.7900
 X141.7180 Y110.5780
 X141.3490 Y110.3990
 X140.9600 Y110.2570
 X140.5530 Y110.1530
 X140.1330 Y110.0890
 X139.7000 Y110.0670
 X139.2670 Y110.0890
 X138.8470 Y110.1530
 X138.4410 Y110.2570
 X138.0520 Y110.3990
 X137.6820 Y110.5780
 X137.3330 Y110.7900
 X137.0070 Y111.0330
 X136.7060 Y111.3060
 X136.4330 Y111.6070
 X136.1890 Y111.9330
 X135.9770 Y112.2820
 X135.7990 Y112.6520
 X135.6570 Y113.0410
 X135.5530 Y113.4470
 X135.4880 Y113.8670
 X135.4670 Y114.3000
 X135.4880 Y114.7330
 X135.5530 Y115.1530
 X135.6570 Y115.5590
 X135.7990 Y115.9480
 X135.9770 Y116.3180
 X136.1890 Y116.6670
 X136.4330 Y116.9930
 X136.7060 Y117.2940
 X137.0070 Y117.5670
 X137.3330 Y117.8110
 X137.6820 Y118.0230
 X138.0520 Y118.2010
 X138.4410 Y118.3430
 X138.8470 Y118.4470
 X139.2670 Y118.5120
 X139.7000 Y118.5330
 X140.1330 Y118.5120
 X140.5530 Y118.4470
 X140.9600 Y118.3430
 X141.3490 Y118.2010
 X141.7180 Y118.0230
 X142.0670 Y117.8110
 X142.3930 Y117.5670
 X142.6930 Y117.2940
 X142.9670 Y116.9930
 X143.2110 Y116.6670
 X143.4220 Y116.3180
 X143.6010 Y115.9480
 X143.7430 Y115.5590
 X143.8470 Y115.1530
 X143.9110 Y114.7330
 X143.9330 Y114.3000
G0 Z2.0000
 X146.7560
G1 Z0.0000
 X146.7460 Y113.9370
 X146.7190 Y113.5780
 X146.6740 Y113.2250
 X146.6120 Y112.8780
 X146.5330 Y112.5370
 X146.4390 Y112.2020
 X146.3280 Y111.8740
 X146.2010 Y111.5530
 X146.0600 Y111.2410
 X145.9040 Y110.9370
 X145.7350 Y110.6410
 X145.5500 Y110.3550
 X145.3540 Y110.0780
 X145.1440 Y109.8120
 X144.9220 Y109.5560
 X144.6890 Y109.3110
 X144.4440 Y109.0770
 X144.1880 Y108.8550
 X143.9220 Y108.6460
 X143.6440 Y108.4490
 X143.3580 Y108.2660
 X143.0640 Y108.0960
 X142.7580 Y107.9400
 X142.4460 Y107.7990
 X142.1260 Y107.6720
 X141.7990 Y107.5620
 X141.4640 Y107.4670
 X141.1220 Y107.3880
 X140.7750 Y107.3260
 X140.4210 Y107.2810
 X140.0630 Y107.2540
 X139.7000 Y107.2440
 X139.3370 Y107.2540
 X138.9780 Y107.2810
 X138.6250 Y107.3260
 X138.2780 Y107.3880
 X137.9370 Y107.4670
 X137.6020 Y107.5620
 X137.2740 Y107.6720
 X136.9530 Y107.7990
 X136.6410 Y107.9400
 X136.3370 Y108.0960
 X136.0410 Y108.2660
 X135.7550 Y108.4490
 X135.4780 Y108.6460
 X135.2120 Y108.8550
 X134.9560 Y109.0770
 X134.7110 Y109.3110
 X134.4770 Y109.5560
 X134.2550 Y109.8120
 X134.0460 Y110.0780
 X133.8490 Y110.3550
 X133.6660 Y110.6410
 X133.4960 Y110.9370
 X133.3400 Y111.2410
 X133.1990 Y111.5530
 X133.0720 Y111.8740
 X132.9620 Y112.2020
 X132.8670 Y112.5370
 X132.7880 Y112.8780
 X132.7260 Y113.2250
 X132.6810 Y113.5780
 X132.6540 Y113.9370
 X132.6440 Y114.3000
 X132.6540 Y114.6630
 X132.6810 Y115.0220
 X132.7260 Y115.3750
 X132.7880 Y115.7220
 X132.8670 Y116.0630
 X132.9620 Y116.3980
 X133.0720 Y116.7260
 X133.1990 Y117.0470
 X133.3400 Y117.3590
 X133.4960 Y117.6630
 X133.6660 Y117.9590
 X133.8490 Y118.2450
 X134.0460 Y118.5220
 X134.2550 Y118.7880
 X134.4770 Y119.0440
 X134.7110 Y119.2890
 X134.9560 Y119.5230
 X135.2120 Y119.7450
 X135.4780 Y119.9540
 X135.7550 Y120.1510
 X136.0410 Y120.3340
 X136.3370 Y120.5040
 X136.6410 Y120.6600
 X136.9530 Y120.8010
 X137.2740 Y120.9280
 X137.6020 Y121.0380
 X137.9370 Y121.1330
 X138.2780 Y121.2120
 X138.6250 Y121.2740
 X138.9780 Y121.3190
 X139.3370 Y121.3460
 X139.7000 Y121.3560
 X140.0630 Y121.3460
 X140.4210 Y121.3190
 X140.7750 Y121.2740
 X141.1220 Y121.2120
 X141.4640 Y121.1330
 X141.7990 Y121.0380
 X142.1260 Y120.9280
 X142.4460 Y120.8010
 X142.7580 Y120.6600
 X143.0640 Y120.5040
 X143.3580 Y120.3340
 X143.6440 Y120.1510
 X143.9220 Y119.9540
 X144.1880 Y119.7450
 X144.4440 Y119.5230
 X144.6890 Y119.2890
 X144.9220 Y119.0440
 X145.1440 Y118.7880
 X145.3540 Y118.5220
 X145.5500 Y118.2450
 X145.7350 Y117.9590
 X145.9040 Y117.6630
 X146.0600 Y117.3590
 X146.2010 Y117.0470
 X146.3280 Y116.7260
 X146.4390 Y116.3980
 X146.5330 Y116.0630
 X146.6120 Y115.7220
 X146.6740 Y115.3750
 X146.7190 Y115.0220
 X146.7460 Y114.6630
 X146.7560 Y114.3000
G0 Z2.0000
 X149.5780
G1 Z0.0000
 X149.5650 Y113.7920
 X149.5260 Y113.2900
 X149.4640 Y112.7960
 X149.3780 Y112.3090
 X149.2670 Y111.8310
 X149.1330 Y111.3630
 X148.9780 Y110.9030
 X148.8010 Y110.4550
 X148.6040 Y110.0170
 X148.3860 Y109.5920
 X148.1470 Y109.1780
 X147.8900 Y108.7770
 X147.6150 Y108.3900
 X147.3220 Y108.0170
 X147.0130 Y107.6580
 X146.6850 Y107.3150
 X146.3420 Y106.9880
 X145.9830 Y106.6780
 X145.6100 Y106.3840
 X145.2220 Y106.1090
 X144.8220 Y105.8520
 X144.4080 Y105.6140
 X143.9820 Y105.3960
 X143.5440 Y105.1980
 X143.0960 Y105.0220
 X142.6380 Y104.8660
 X142.1680 Y104.7330
 X141.6900 Y104.6230
 X141.2040 Y104.5360
 X140.7100 Y104.4730
 X140.2080 Y104.4350
 X139.7000 Y104.4220
 X139.1920 Y104.4350
 X138.6900 Y104.4730
 X138.1960 Y104.5360
 X137.7090 Y104.6230
 X137.2310 Y104.7330
 X136.7630 Y104.8660
 X136.3030 Y105.0220
 X135.8550 Y105.1980
 X135.4170 Y105.3960
 X134.9920 Y105.6140
 X134.5780 Y105.8520
 X134.1770 Y106.1090
 X133.7900 Y106.3840
 X133.4170 Y106.6780
 X133.0580 Y106.9880
 X132.7150 Y107.3150
 X132.3880 Y107.6580
 X132.0780 Y108.0170
 X131.7840 Y108.3900
 X131.5090 Y108.7770
 X131.2520 Y109.1780
 X131.0140 Y109.5920
 X130.7960 Y110.0170
 X130.5980 Y110.4550
 X130.4220 Y110.9030
 X130.2660 Y111.3630
 X130.1330 Y111.8310
 X130.0230 Y112.3090
 X129.9360 Y112.7960
 X129.8730 Y113.2900
 X129.8350 Y113.7920
 X129.8220 Y114.3000
 X129.8350 Y114.8080
 X129.8730 Y115.3100
 X129.9360 Y115.8040
 X130.0230 Y116.2910
 X130.1330 Y116.7690
 X130.2660 Y117.2370
 X130.4220 Y117.6960
 X130.5980 Y118.1450
 X130.7960 Y118.5830
 X131.0140 Y119.0080
 X131.2520 Y119.4220
 X131.5090 Y119.8230
 X131.7840 Y120.2100
 X132.0780 Y120.5830
 X132.3880 Y120.9420
 X132.7150 Y121.2850
 X133.0580 Y121.6120
 X133.4170 Y121.9220
 X133.7900 Y122.2160
 X134.1770 Y122.4910
 X134.5780 Y122.7480
 X134.9920 Y122.9860
 X135.4170 Y123.2040
 X135.8550 Y123.4020
 X136.3030 Y123.5780
 X136.7630 Y123.7340
 X137.2310 Y123.8670
 X137.7090 Y123.9770
 X138.1960 Y124.0640
 X138.6900 Y124.1270
 X139.1920 Y124.1650
 X139.7000 Y124.1780
 X140.2080 Y124.1650
 X140.7100 Y124.1270
 X141.2040 Y124.0640
 X141.6900 Y123.9770
 X142.1680 Y123.8670
 X142.6380 Y123.7340
 X143.0960 Y123.5780
 X143.5440 Y123.4020
 X143.9820 Y123.2040
 X144.4080 Y122.9860
 X144.8220 Y122.7480
 X145.2220 Y122.4910
 X145.6100 Y122.2160
 X145.9830 Y121.9220
 X146.3420 Y121.6120
 X146.6850 Y121.2850
 X147.0130 Y120.9420
 X147.3220 Y120.5830
 X147.6150 Y120.2100
 X147.8900 Y119.8230
 X148.1470 Y119.4220
 X148.3860 Y119.0080
 X148.6040 Y118.5830
 X148.8010 Y118.1450
 X148.9780 Y117.6960
 X149.1330 Y117.2370
 X149.2670 Y116.7690
 X149.3780 Y116.2910
 X149.4640 Y115.8040
 X149.5260 Y115.3100
 X149.5650 Y114.8080
 X149.5780 Y114.3000
G0 Z2.0000
 X152.4000
G1 Z0.0000
 X152.3830 Y113.6460
 X152.3350 Y113.0020
 X152.2540 Y112.3660
 X152.1420 Y111.7400
 X152.0000 Y111.1260
 X151.8290 Y110.5230
 X151.6290 Y109.9330
 X151.4010 Y109.3570
 X151.1470 Y108.7940
 X150.8670 Y108.2460
 X150.5610 Y107.7140
 X150.2310 Y107.1990
 X149.8760 Y106.7010
 X149.5000 Y106.2220
 X149.1010 Y105.7610
 X148.6810 Y105.3200
 X148.2390 Y104.8990
 X147.7790 Y104.5000
 X147.2990 Y104.1230
 X146.8010 Y103.7690
 X146.2860 Y103.4390
 X145.7540 Y103.1330
 X145.2060 Y102.8520
 X144.6430 Y102.5980
 X144.0670 Y102.3710
 X143.4760 Y102.1710
 X142.8740 Y102.0000
 X142.2600 Y101.8580
 X141.6350 Y101.7460
 X140.9990 Y101.6660
 X140.3540 Y101.6170
 X139.7000 Y101.6000
 X139.0460 Y101.6170
 X138.4010 Y101.6660
 X137.7660 Y101.7460
 X137.1400 Y101.8580
 X136.5260 Y102.0000
 X135.9230 Y102.1710
 X135.3330 Y102.3710
 X134.7560 Y102.5980
 X134.1940 Y102.8520
 X133.6460 Y103.1330
 X133.1140 Y103.4390
 X132.5990 Y103.7690
 X132.1010 Y104.1230
 X131.6220 Y104.5000
 X131.1610 Y104.8990
 X130.7200 Y105.3200
 X130.2990 Y105.7610
 X129.9000 Y106.2220
 X129.5230 Y106.7010
 X129.1690 Y107.1990
 X128.8390 Y107.7140
 X128.5330 Y108.2460
 X128.2520 Y108.7940
 X127.9980 Y109.3570
 X127.7710 Y109.9330
 X127.5710 Y110.5230
 X127.4000 Y111.1260
 X127.2580 Y111.7400
 X127.1460 Y112.3660
 X127.0660 Y113.0020
 X127.0170 Y113.6460
 X127.0000 Y114.3000
 X126.9830 Y113.6460
 X126.9340 Y113.0020
 X126.8540 Y112.3660
 X126.7420 Y111.7400
 X126.6000 Y111.1260
 X126.4290 Y110.5230
 X126.2290 Y109.9330
 X126.0020 Y109.3570
 X125.7480 Y108.7940
 X125.4670 Y108.2460
 X125.1610 Y107.7140
 X124.8310 Y107.1990
 X124.4770 Y106.7010
 X124.1000 Y106.2220
 X123.7010 Y105.7610
 X123.2800 Y105.3200
 X122.8390 Y104.8990
 X122.3780 Y104.5000
 X121.8990 Y104.1230
 X121.4010 Y103.7690
 X120.8860 Y103.4390
 X120.3540 Y103.1330
 X119.8060 Y102.8520
 X119.2430 Y102.5980
 X118.6670 Y102.3710
 X118.0770 Y102.1710
 X117.4740 Y102.0000
 X116.8600 Y101.8580
 X116.2340 Y101.7460
 X115.5980 Y101.6660
 X114.9540 Y101.6170
 X114.3000 Y101.6000
 X113.6460 Y101.6170
 X113.0020 Y101.6660
 X112.3660 Y101.7460
 X111.7400 Y101.8580
 X111.1260 Y102.0000
 X110.5230 Y102.1710
 X109.9330 Y102.3710
 X109.3560 Y102.5980
 X108.7940 Y102.8520
 X108.2460 Y103.1330
 X107.7140 Y103.4390
 X107.1990 Y103.7690
 X106.7010 Y104.1230
 X106.2220 Y104.5000
 X105.7610 Y104.8990
 X105.3200 Y105.3200
 X104.8990 Y105.7610
 X104.5000 Y106.2220
 X104.1230 Y106.7010
 X103.7690 Y107.1990
 X103.4380 Y107.7140
 X103.1330 Y108.2460
 X102.8520 Y108.7940
 X102.5980 Y109.3570
 X102.3710 Y109.9330
 X102.1710 Y110.5230
 X102.0000 Y111.1260
 X101.8580 Y111.7400
 X101.7460 Y112.3660
 X101.6660 Y113.0020
 X101.6170 Y113.6460
 X101.6000 Y114.3000
 X101.6170 Y114.9540
 X101.6660 Y115.5980
 X101.7460 Y116.2340
 X101.8580 Y116.8600
 X102.0000 Y117.4740
 X102.1710 Y118.0770
 X102.3710 Y118.6670
 X102.5980 Y119.2440
 X102.8520 Y119.8060
 X103.1330 Y120.3540
 X103.4380 Y120.8860
 X103.7690 Y121.4010
 X104.1230 Y121.8990
 X104.5000 Y122.3780
 X104.8990 Y122.8390
 X105.3200 Y123.2800
 X105.7610 Y123.7010
 X106.2220 Y124.1000
 X106.7010 Y124.4770
 X107.1990 Y124.8310
 X107.7140 Y125.1620
 X108.2460 Y125.4670
 X108.7940 Y125.7480
 X109.3560 Y126.0020
 X109.9330 Y126.2290
 X110.5230 Y126.4290
 X111.1260 Y126.6000
 X111.7400 Y126.7420
 X112.3660 Y126.8540
 X113.0020 Y126.9340
 X113.6460 Y126.9830
 X114.3000 Y127.0000
 X114.9540 Y126.9830
 X115.5980 Y126.9340
 X116.2340 Y126.8540
 X116.8600 Y126.7420
 X117.4740 Y126.6000
 X118.0770 Y126.4290
 X118.6670 Y126.2290
 X119.2430 Y126.0020
 X119.8060 Y125.7480
 X120.3540 Y125.4670
 X120.8860 Y125.1620
 X121.4010 Y124.8310
 X121.8990 Y124.4770
 X122.3780 Y124.1000
 X122.8390 Y123.7010
 X123.2800 Y123.2800
 X123.7010 Y122.8390
 X124.1000 Y122.3780
 X124.4770 Y121.8990
 X124.8310 Y121.4010
 X125.1610 Y120.8860
 X125.4670 Y120.3540
 X125.7480 Y119.8060
 X126.0020 Y119.2440
 X126.2290 Y118.6670
 X126.4290 Y118.0770
 X126.6000 Y117.4740
 X126.7420 Y116.8600
 X126.8540 Y116.2340
 X126.9340 Y115.5980
 X126.9830 Y114.9540
 X127.0000 Y114.3000
 X127.0170 Y114.9540
 X127.0660 Y115.5980
 X127.1460 Y116.2340
 X127.2580 Y116.8600
 X127.4000 Y117.4740
 X127.5710 Y118.0770
 X127.7710 Y118.6670
 X127.9980 Y119.2440
 X128.2520 Y119.8060
 X128.5330 Y120.3540
 X128.8390 Y120.8860
 X129.1690 Y121.4010
 X129.5230 Y121.8990
 X129.9000 Y122.3780
 X130.2990 Y122.8390
 X130.7200 Y123.2800
 X131.1610 Y123.7010
 X131.6220 Y124.1000
 X132.1010 Y124.4770
 X132.5990 Y124.8310
 X133.1140 Y125.1620
 X133.6460 Y125.4670
 X134.1940 Y125.7480
 X134.7560 Y126.0020
 X135.3330 Y126.2290
 X135.9230 Y126.4290
 X136.5260 Y126.6000
 X137.1400 Y126.7420
 X137.7660 Y126.8540
 X138.4010 Y126.9340
 X139.0460 Y126.9830
 X139.7000 Y127.0000
 X140.3540 Y126.9830
 X140.9990 Y126.9340
 X141.6350 Y126.8540
 X142.2600 Y126.7420
 X142.8740 Y126.6000
 X143.4760 Y126.4290
 X144.0670 Y126.2290
 X144.6430 Y126.0020
 X145.2060 Y125.7480
 X145.7540 Y125.4670
 X146.2860 Y125.1620
 X146.8010 Y124.8310
 X147.2990 Y124.4770
 X147.7790 Y124.1000
 X148.2390 Y123.7010
 X148.6810 Y123.2800
 X149.1010 Y122.8390
 X149.5000 Y122.3780
 X149.8760 Y121.8990
 X150.2310 Y121.4010
 X150.5610 Y120.8860
 X150.8670 Y120.3540
 X151.1470 Y119.8060
 X151.4010 Y119.2440
 X151.6290 Y118.6670
 X151.8290 Y118.0770
 X152.0000 Y117.4740
 X152.1420 Y116.8600
 X152.2540 Y116.2340
 X152.3350 Y115.5980
 X152.3830 Y114.9540
 X152.4000 Y114.3000
G0 Z2.0000
 X177.8000 Y101.6000
G1 Z0.0000
 X101.6000
 Y25.4000
G0 Z2.0000
 X98.7778 Y50.8000
G1 Z0.0000
 X104.4220
G0 Z2.0000
 X107.4560 Y60.9600
G1 Z0.0000
 X106.8740
 Y64.6790
 X106.6290 Y64.4767
 X106.3220 Y64.2771
 X105.9970 Y64.0999
 X105.7080 Y63.9757
 Y64.5397
 X105.9430 Y64.6594
 X106.1650 Y64.7929
 X106.3720 Y64.9393
 X106.5630 Y65.0974
 X106.7310 Y65.2582
 X106.8740 Y65.4185
 X106.9910 Y65.5771
 X107.0810 Y65.7328
 X107.4560
 Y60.9600
G0 Z2.0000
 X109.1460 Y64.0124
G1 Z0.0000
 X108.9830 Y64.9222
 Y65.7050
 X109.6490
 Y64.9222
 X109.5030 Y64.0124
 X109.1460
G0 Z2.0000
 X110.2110
G1 Z0.0000
 X110.0510 Y64.9222
 Y65.7050
 X110.7170
 Y64.9222
 X110.5620 Y64.0124
 X110.2110
G0 Z2.0000
 X98.7778 Y76.2000
G1 Z0.0000
 X104.4220
G0 Z2.0000
 X80.9094 Y65.1032
G1 Z0.0000
 X80.7237 Y66.1721
 Y67.0912
 X81.5018
 Y66.1721
 X81.3197 Y65.1032
 X80.9094
G0 Z2.0000
 X79.6513
G1 Z0.0000
 X79.4615 Y66.1721
 Y67.0912
 X80.2396
 Y66.1721
 X80.0688 Y65.1032
 X79.6513
G0 Z2.0000
 X76.1251 Y64.5496
G1 Z0.0000
 X75.9233 Y64.6339
 X75.7503 Y64.7364
 X75.6053 Y64.8561
 X75.4881 Y64.9919
 X75.3964 Y65.1414
 X75.3318 Y65.3064
 X75.2936 Y65.4862
 X75.2810 Y65.6799
 X75.3071 Y65.9700
 X75.3890 Y66.2362
 X75.5261 Y66.4786
 X75.7174 Y66.6968
 X75.9536 Y66.8762
 X76.2261 Y67.0050
 X76.5347 Y67.0826
 X76.8793 Y67.1086
 X77.2244 Y67.0822
 X77.5357 Y67.0032
 X77.8119 Y66.8715
 X78.0522 Y66.6872
 X78.2464 Y66.4636
 X78.3853 Y66.2188
 X78.4688 Y65.9515
 X78.4967 Y65.6610
 X78.4836 Y65.4729
 X78.4453 Y65.2992
 X78.3814 Y65.1386
 X78.2921 Y64.9901
 X78.1758 Y64.8546
 X78.0339 Y64.7364
 X77.8657 Y64.6350
 X77.6710 Y64.5496
 X77.9112 Y64.4518
 X78.1222 Y64.3301
 X78.3031 Y64.1835
 X78.4531 Y64.0108
 X78.5685 Y63.8158
 X78.6525 Y63.6029
 X78.7039 Y63.3719
 X78.7213 Y63.1228
 X78.6892 Y62.7803
 X78.5946 Y62.4662
 X78.4372 Y62.1808
 X78.2168 Y61.9237
 X77.9426 Y61.7099
 X77.6307 Y61.5582
 X77.2799 Y61.4681
 X76.8889 Y61.4381
 X76.4963 Y61.4671
 X76.1443 Y61.5586
 X75.8326 Y61.7118
 X75.5607 Y61.9256
 X75.3385 Y62.1828
 X75.1810 Y62.4719
 X75.0872 Y62.7921
 X75.0561 Y63.1418
 X75.0726 Y63.4013
 X75.1249 Y63.6396
 X75.2121 Y63.8561
 X75.3339 Y64.0506
 X75.4868 Y64.2174
 X75.6700 Y64.3569
 X75.8829 Y64.4681
 X76.1251 Y64.5496
G0 Z2.0000
 X72.9233 Y61.5244
G1 Z0.0000
 Y62.8557
 X70.4856
 Y63.4781
 X73.0789 Y67.0912
 X73.6149
 Y63.4781
 X74.3756
 Y62.8557
 X73.6149
 Y61.5244
 X72.9233
G0 Z2.0000
 X68.9199
G1 Z0.0000
 Y62.3025
 X69.6979
 Y61.5244
 X68.9199
G0 Z2.0000
 X65.2626 Y64.5496
G1 Z0.0000
 X65.0608 Y64.6339
 X64.8878 Y64.7364
 X64.7428 Y64.8561
 X64.6256 Y64.9919
 X64.5340 Y65.1414
 X64.4693 Y65.3064
 X64.4311 Y65.4862
 X64.4185 Y65.6799
 X64.4446 Y65.9700
 X64.5265 Y66.2362
 X64.6636 Y66.4786
 X64.8549 Y66.6968
 X65.0912 Y66.8762
 X65.3636 Y67.0050
 X65.6722 Y67.0826
 X66.0168 Y67.1086
 X66.3621 Y67.0822
 X66.6732 Y67.0032
 X66.9494 Y66.8715
 X67.1897 Y66.6872
 X67.3839 Y66.4636
 X67.5228 Y66.2188
 X67.6064 Y65.9515
 X67.6342 Y65.6610
 X67.6211 Y65.4729
 X67.5828 Y65.2992
 X67.5190 Y65.1386
 X67.4296 Y64.9901
 X67.3133 Y64.8546
 X67.1714 Y64.7364
 X67.0032 Y64.6350
 X66.8085 Y64.5496
 X67.0487 Y64.4518
 X67.2597 Y64.3301
 X67.4407 Y64.1835
 X67.5906 Y64.0108
 X67.7060 Y63.8158
 X67.7900 Y63.6029
 X67.8414 Y63.3719
 X67.8589 Y63.1228
 X67.8267 Y62.7803
 X67.7321 Y62.4662
 X67.5749 Y62.1808
 X67.3543 Y61.9237
 X67.0801 Y61.7099
 X66.7683 Y61.5582
 X66.4174 Y61.4681
 X66.0264 Y61.4381
 X65.6337 Y61.4671
 X65.2819 Y61.5586
 X64.9703 Y61.7118
 X64.6982 Y61.9256
 X64.4760 Y62.1828
 X64.3185 Y62.4719
 X64.2247 Y62.7921
 X64.1938 Y63.1418
 X64.2103 Y63.4013
 X64.2624 Y63.6396
 X64.3496 Y63.8561
 X64.4715 Y64.0506
 X64.6243 Y64.2174
 X64.8075 Y64.3569
 X65.0204 Y64.4681
 X65.2626 Y64.5496
G0 Z2.0000
 X60.2400 Y64.7921
G1 Z0.0000
 Y65.5700
 X61.0181
 Y64.7921
 X60.2400
G0 Z2.0000
 Y61.5244
G1 Z0.0000
 Y62.3025
 X61.0181
 Y61.5244
 X60.2400
G0 Z2.0000
 X55.5822 Y61.2307
G1 Z0.0000
 X56.2739 Y61.1440
 X56.3022 Y60.9915
 X56.3506 Y60.8622
 X56.4179 Y60.7554
 X56.5035 Y60.6706
 X56.6404 Y60.5817
 X56.8011 Y60.5192
 X56.9851 Y60.4821
 X57.1922 Y60.4697
 X57.4124 Y60.4812
 X57.6074 Y60.5160
 X57.7765 Y60.5738
 X57.9183 Y60.6547
 X58.0358 Y60.7556
 X58.1328 Y60.8758
 X58.2093 Y61.0149
 X58.2649 Y61.1722
 X58.2876 Y61.3006
 X58.3033 Y61.4861
 X58.3121 Y61.7282
 X58.3137 Y62.0258
 X58.0739 Y61.8062
 X57.8078 Y61.6496
 X57.5144 Y61.5558
 X57.1933 Y61.5244
 X56.9893 Y61.5339
 X56.7978 Y61.5621
 X56.6186 Y61.6090
 X56.4514 Y61.6747
 X56.2963 Y61.7593
 X56.1529 Y61.8626
 X56.0213 Y61.9847
 X55.9012 Y62.1256
 X55.6994 Y62.4407
 X55.5568 Y62.7862
 X55.4719 Y63.1619
 X55.4439 Y63.5675
 X55.4551 Y63.8508
 X55.4947 Y64.1233
 X55.5614 Y64.3846
 X55.6538 Y64.6347
 X55.7704 Y64.8635
 X55.9108 Y65.0664
 X56.0749 Y65.2424
 X56.2625 Y65.3899
 X56.4689 Y65.5060
 X56.6947 Y65.5893
 X56.9387 Y65.6396
 X57.1999 Y65.6564
 X57.5421 Y65.6187
 X57.8536 Y65.5086
 X58.1342 Y65.3256
 X58.3829 Y65.0688
 Y65.5700
 X59.0054
 Y62.0833
 X58.9926 Y61.6462
 X58.9567 Y61.2782
 X58.8971 Y60.9790
 X58.8133 Y60.7482
 X58.7021 Y60.5618
 X58.5642 Y60.3961
 X58.3985 Y60.2514
 X58.2046 Y60.1271
 X57.9829 Y60.0267
 X57.7389 Y59.9556
 X57.4715 Y59.9132
 X57.1799 Y59.8993
 X56.8339 Y59.9182
 X56.5249 Y59.9806
 X56.2511 Y60.0854
 X56.0119 Y60.2312
 X55.8165 Y60.4165
 X55.6806 Y60.6456
 X55.6028 Y60.9174
 X55.5822 Y61.2307
G0 Z2.0000
 X54.0129 Y62.0258
G1 Z0.0000
 X53.8279 Y61.8762
 X53.6463 Y61.7507
 X53.4667 Y61.6489
 X53.2883 Y61.5707
 X52.9181 Y61.4707
 X52.5240 Y61.4381
 X52.2053 Y61.4568
 X51.9268 Y61.5178
 X51.6879 Y61.6199
 X51.4878 Y61.7621
 X51.3274 Y61.9351
 X51.2146 Y62.1310
 X51.1478 Y62.3494
 X51.1257 Y62.5903
 X51.1325 Y62.7333
 X51.1583 Y62.8715
 X51.2021 Y63.0042
 X51.2625 Y63.1301
 X51.4192 Y63.3494
 X51.6210 Y63.5224
 X51.8556 Y63.6506
 X52.1203 Y63.7458
 X52.2344 Y63.7703
 X52.3757 Y63.7964
 X52.5435 Y63.8228
 X52.7371 Y63.8482
 X53.1276 Y63.8993
 X53.4649 Y63.9557
 X53.7476 Y64.0172
 X53.9744 Y64.0833
 X53.9774 Y64.1981
 X53.9785 Y64.2624
 X53.9656 Y64.4564
 X53.9290 Y64.6196
 X53.8683 Y64.7519
 X53.7831 Y64.8532
 X53.6344 Y64.9537
 X53.4544 Y65.0265
 X53.2425 Y65.0710
 X52.9986 Y65.0858
 X52.7699 Y65.0746
 X52.5746 Y65.0432
 X52.4119 Y64.9913
 X52.2807 Y64.9182
 X52.1724 Y64.8176
 X52.0793 Y64.6856
 X52.0013 Y64.5215
 X51.9382 Y64.3253
 X51.2467 Y64.4117
 X51.2988 Y64.6146
 X51.3671 Y64.7989
 X51.4507 Y64.9631
 X51.5489 Y65.1062
 X51.6651 Y65.2292
 X51.8056 Y65.3389
 X51.9699 Y65.4340
 X52.1575 Y65.5136
 X52.3639 Y65.5757
 X52.5867 Y65.6203
 X52.8253 Y65.6474
 X53.0797 Y65.6564
 X53.3265 Y65.6478
 X53.5503 Y65.6250
 X53.7501 Y65.5875
 X53.9254 Y65.5344
 X54.0764 Y65.4682
 X54.2069 Y65.3956
 X54.3164 Y65.3157
 X54.4040 Y65.2276
 X54.5324 Y65.0176
 X54.6182 Y64.7613
 X54.6325 Y64.6560
 X54.6433 Y64.5158
 X54.6503 Y64.3406
 X54.6526 Y64.1304
 Y63.2196
 X54.6535 Y62.7868
 X54.6615 Y62.4414
 X54.6756 Y62.1832
 X54.6943 Y62.0124
 X54.7551 Y61.7629
 X54.8601 Y61.5244
 X54.1511
 X54.0615 Y61.7569
 X54.0129 Y62.0258
G0 Z2.0000
 X49.6412 Y61.5244
G1 Z0.0000
 Y65.5700
 X50.3326
 Y61.5244
 X49.6412
G0 Z2.0000
 Y66.3133
G1 Z0.0000
 Y67.0912
 X50.3326
 Y66.3133
 X49.6412
G0 Z2.0000
 X44.0672 Y61.5244
G1 Z0.0000
 Y67.0912
 X45.9835
 X46.2876 Y67.0847
 X46.5546 Y67.0700
 X46.7835 Y67.0460
 X46.9738 Y67.0117
 X47.2024 Y66.9453
 X47.4153 Y66.8568
 X47.6114 Y66.7460
 X47.7894 Y66.6131
 X47.9946 Y66.4132
 X48.1732 Y66.1885
 X48.3246 Y65.9381
 X48.4479 Y65.6617
 X48.5414 Y65.3601
 X48.6097 Y65.0397
 X48.6518 Y64.6996
 X48.6660 Y64.3383
 X48.6554 Y64.0290
 X48.6278 Y63.7392
 X48.5824 Y63.4678
 X48.5181 Y63.2142
 X48.4388 Y62.9785
 X48.3492 Y62.7654
 X48.2490 Y62.5740
 X48.1386 Y62.4033
 X47.8951 Y62.1163
 X47.6322 Y61.8983
 X47.4869 Y61.8101
 X47.3282 Y61.7350
 X47.1553 Y61.6718
 X46.9681 Y61.6193
 X46.7657 Y61.5763
 X46.5496 Y61.5468
 X46.3193 Y61.5299
 X46.0744 Y61.5244
 X44.0672
G0 Z2.0000
 X25.4000 Y177.8000
G1 Z0.0000
 X177.8000
 Y25.4000
 X25.4000
 Y177.8000
G0 Z2.0000
 X16.9333 Y25.4000
G1 Z0.0000
 X22.5778
G0 Z2.0000
 X19.7556
G1 Z0.0000
 Y177.8000
G0 Z2.0000
 X16.9333
G1 Z0.0000
 X22.5778
G0 Z2.0000
 X26.4783 Y184.3470
G1 Z0.0000
 X27.4790 Y184.4280
 X27.5261 Y184.1380
 X27.5969 Y183.8750
 X27.6914 Y183.6400
 X27.8093 Y183.4320
 X27.9554 Y183.2470
 X28.1390 Y183.0810
 X28.3593 Y182.9320
 X28.6151 Y182.8030
 X28.8951 Y182.6960
 X29.1942 Y182.6210
 X29.5110 Y182.5780
 X29.8444 Y182.5630
 X30.1381 Y182.5740
 X30.4147 Y182.6070
 X30.6739 Y182.6650
 X30.9151 Y182.7440
 X31.1317 Y182.8430
 X31.3193 Y182.9600
 X31.4776 Y183.0930
 X31.6061 Y183.2440
 X31.7050 Y183.4060
 X31.7758 Y183.5750
 X31.8186 Y183.7510
 X31.8329 Y183.9350
 X31.8179 Y184.1170
 X31.7762 Y184.2880
 X31.7074 Y184.4470
 X31.6103 Y184.5940
 X31.4806 Y184.7280
 X31.3169 Y184.8530
 X31.1190 Y184.9670
 X30.8861 Y185.0690
 X30.7929 Y185.1010
 X30.6756 Y185.1390
 X30.5342 Y185.1820
 X30.3685 Y185.2290
 X30.1785 Y185.2810
 X29.9640 Y185.3360
 X29.7253 Y185.3970
 X29.4621 Y185.4620
 X28.9506 Y185.5930
 X28.5231 Y185.7210
 X28.1785 Y185.8440
 X27.9158 Y185.9650
 X27.6454 Y186.1250
 X27.4126 Y186.3040
 X27.2171 Y186.5010
 X27.0581 Y186.7170
 X26.9331 Y186.9460
 X26.8451 Y187.1920
 X26.7931 Y187.4500
 X26.7758 Y187.7210
 X26.7965 Y188.0210
 X26.8613 Y188.3110
 X26.9694 Y188.5930
 X27.1206 Y188.8640
 X27.3122 Y189.1120
 X27.5443 Y189.3310
 X27.8163 Y189.5170
 X28.1279 Y189.6710
 X28.4669 Y189.7900
 X28.8261 Y189.8760
 X29.2043 Y189.9280
 X29.6006 Y189.9460
 X30.0319 Y189.9280
 X30.4389 Y189.8740
 X30.8200 Y189.7830
 X31.1746 Y189.6570
 X31.4954 Y189.4960
 X31.7772 Y189.3000
 X32.0197 Y189.0710
 X32.2229 Y188.8080
 X32.3839 Y188.5180
 X32.5039 Y188.2100
 X32.5819 Y187.8830
 X32.6172 Y187.5390
 X31.5897 Y187.4570
 X31.5243 Y187.8140
 X31.4101 Y188.1250
 X31.2474 Y188.3900
 X31.0358 Y188.6100
 X30.7715 Y188.7780
 X30.4513 Y188.9000
 X30.0747 Y188.9740
 X29.6419 Y188.9990
 X29.4090 Y188.9920
 X29.1929 Y188.9750
 X28.9936 Y188.9470
 X28.8107 Y188.9080
 X28.6443 Y188.8600
 X28.4943 Y188.7990
 X28.3604 Y188.7280
 X28.2426 Y188.6440
 X28.0504 Y188.4570
 X27.9132 Y188.2530
 X27.8308 Y188.0310
 X27.8035 Y187.7900
 X27.8221 Y187.5810
 X27.8804 Y187.3930
 X27.9781 Y187.2250
 X28.1144 Y187.0750
 X28.2051 Y187.0040
 X28.3271 Y186.9330
 X28.4804 Y186.8620
 X28.6647 Y186.7900
 X28.8800 Y186.7190
 X29.1260 Y186.6470
 X29.4028 Y186.5740
 X29.7101 Y186.5000
 X30.0192 Y186.4260
 X30.3036 Y186.3570
 X30.5631 Y186.2890
 X30.7978 Y186.2240
 X31.0074 Y186.1610
 X31.1918 Y186.1010
 X31.3510 Y186.0430
 X31.4849 Y185.9870
 X31.8131 Y185.8150
 X32.0962 Y185.6210
 X32.3338 Y185.4040
 X32.5250 Y185.1670
 X32.6711 Y184.9080
 X32.7761 Y184.6320
 X32.8394 Y184.3370
 X32.8607 Y184.0240
 X32.8368 Y183.7060
 X32.7681 Y183.3990
 X32.6542 Y183.1030
 X32.4942 Y182.8140
 X32.2907 Y182.5460
 X32.0476 Y182.3080
 X31.7646 Y182.1040
 X31.4415 Y181.9310
 X31.0868 Y181.7920
 X30.7114 Y181.6930
 X30.3147 Y181.6350
 X29.8964 Y181.6150
 X29.3740 Y181.6350
 X28.8961 Y181.6960
 X28.4624 Y181.7960
 X28.0725 Y181.9350
 X27.7229 Y182.1150
 X27.4147 Y182.3350
 X27.1469 Y182.5960
 X26.9185 Y182.8960
 X26.7328 Y183.2260
 X26.5981 Y183.5790
 X26.5136 Y183.9530
 X26.4783 Y184.3470
G0 Z2.0000
 X34.2896 Y181.7510
G1 Z0.0000
 Y189.8100
 X35.2903
 Y186.9380
 X35.4642 Y187.1220
 X35.6496 Y187.2830
 X35.8464 Y187.4180
 X36.0544 Y187.5290
 X36.2736 Y187.6170
 X36.5040 Y187.6780
 X36.7454 Y187.7150
 X36.9978 Y187.7280
 X37.3031 Y187.7110
 X37.5887 Y187.6640
 X37.8539 Y187.5830
 X38.0982 Y187.4720
 X38.3138 Y187.3310
 X38.4978 Y187.1650
 X38.6490 Y186.9780
 X38.7668 Y186.7650
 X38.8533 Y186.5130
 X38.9164 Y186.2100
 X38.9551 Y185.8580
 X38.9682 Y185.4560
 Y181.7510
 X37.9675
 Y185.4650
 X37.9476 Y185.8130
 X37.8894 Y186.1080
 X37.7929 Y186.3540
 X37.6575 Y186.5500
 X37.4844 Y186.6970
 X37.2814 Y186.8040
 X37.0471 Y186.8680
 X36.7803 Y186.8890
 X36.5697 Y186.8740
 X36.3672 Y186.8310
 X36.1717 Y186.7600
 X35.9821 Y186.6600
 X35.8081 Y186.5350
 X35.6615 Y186.3900
 X35.5421 Y186.2250
 X35.4493 Y186.0390
 X35.3778 Y185.8240
 X35.3283 Y185.5720
 X35.2996 Y185.2830
 X35.2903 Y184.9580
 Y181.7510
 X34.2896
G0 Z2.0000
 X25.4000 Y177.8000
G1 Z0.0000
 X177.8000 Y25.4000
G0 Z2.0000
 Y22.5778
G1 Z0.0000
 Y16.9333
G0 Z2.0000
 X104.8310 Y13.6592
G1 Z0.0000
 X104.5600 Y15.2001
 Y16.5260
 X105.6950
 Y15.2001
 X105.4300 Y13.6592
 X104.8310
G0 Z2.0000
 X103.0250
G1 Z0.0000
 X102.7480 Y15.2001
 Y16.5260
 X103.8840
 Y15.2001
 X103.6340 Y13.6592
 X103.0250
G0 Z2.0000
 X101.5540 Y14.5515
G1 Z0.0000
 X100.5260 Y14.4704
 X100.4550 Y14.7415
 X100.3720 Y14.9735
 X100.2740 Y15.1657
 X100.1640 Y15.3178
 X99.9582 Y15.5028
 X99.7300 Y15.6351
 X99.4790 Y15.7150
 X99.2056 Y15.7417
 X98.9826 Y15.7236
 X98.7721 Y15.6742
 X98.5738 Y15.5924
 X98.3879 Y15.4771
 X98.1790 Y15.2853
 X97.9928 Y15.0557
 X97.8289 Y14.7875
 X97.6874 Y14.4797
 X97.5712 Y14.1154
 X97.4878 Y13.6840
 X97.4363 Y13.1842
 X97.4158 Y12.6149
 X97.6014 Y12.8680
 X97.8068 Y13.0876
 X98.0321 Y13.2727
 X98.2769 Y13.4224
 X98.5343 Y13.5362
 X98.7981 Y13.6188
 X99.0681 Y13.6691
 X99.3440 Y13.6861
 X99.5818 Y13.6737
 X99.8113 Y13.6391
 X100.0320 Y13.5823
 X100.2450 Y13.5030
 X100.4480 Y13.4012
 X100.6420 Y13.2766
 X100.8280 Y13.1293
 X101.0040 Y12.9591
 X101.1640 Y12.7701
 X101.3020 Y12.5682
 X101.4200 Y12.3532
 X101.5170 Y12.1251
 X101.5920 Y11.8838
 X101.6460 Y11.6293
 X101.6780 Y11.3614
 X101.6890 Y11.0802
 X101.6670 Y10.7080
 X101.6060 Y10.3495
 X101.5050 Y10.0045
 X101.3630 Y9.6729
 X101.1840 Y9.3652
 X100.9760 Y9.0973
 X100.7370 Y8.8683
 X100.4680 Y8.6770
 X100.1720 Y8.5256
 X99.8585 Y8.4176
 X99.5268 Y8.3530
 X99.1754 Y8.3315
 X98.8733 Y8.3454
 X98.5861 Y8.3878
 X98.3136 Y8.4588
 X98.0556 Y8.5583
 X97.8118 Y8.6862
 X97.5825 Y8.8426
 X97.3671 Y9.0273
 X97.1658 Y9.2403
 X96.9833 Y9.4851
 X96.8254 Y9.7671
 X96.6917 Y10.0864
 X96.5824 Y10.4427
 X96.4975 Y10.8359
 X96.4368 Y11.2661
 X96.4004 Y11.7330
 X96.3883 Y12.2364
 X96.4015 Y12.7994
 X96.4417 Y13.3229
 X96.5089 Y13.8068
 X96.6032 Y14.2511
 X96.7243 Y14.6556
 X96.8722 Y15.0204
 X97.0472 Y15.3453
 X97.2490 Y15.6303
 X97.4447 Y15.8456
 X97.6569 Y16.0324
 X97.8854 Y16.1910
 X98.1303 Y16.3208
 X98.3914 Y16.4222
 X98.6689 Y16.4947
 X98.9626 Y16.5383
 X99.2726 Y16.5528
 X99.5033 Y16.5443
 X99.7240 Y16.5192
 X99.9343 Y16.4776
 X100.1340 Y16.4196
 X100.3240 Y16.3449
 X100.5020 Y16.2535
 X100.6700 Y16.1456
 X100.8270 Y16.0210
 X100.9700 Y15.8804
 X101.0980 Y15.7279
 X101.2120 Y15.5632
 X101.3110 Y15.3861
 X101.3940 Y15.1967
 X101.4620 Y14.9944
 X101.5160 Y14.7794
 X101.5540 Y14.5515
G0 Z2.0000
 X25.4000 Y22.5778
G1 Z0.0000
 Y16.9333
G0 Z2.0000
 Y19.7556
G1 Z0.0000
 X177.8000
G0 Z2.0000
 Y101.6000
G1 Z0.0000
 X177.7750 Y99.6332
 X177.7010 Y97.6788
 X177.5780 Y95.7372
 X177.4070 Y93.8090
 X177.1880 Y91.8950
 X176.9220 Y89.9956
 X176.6100 Y88.1114
 X176.2510 Y86.2431
 X175.8490 Y84.3912
 X175.4010 Y82.5565
 X174.9100 Y80.7393
 X174.3740 Y78.9406
 X173.7960 Y77.1606
 X173.1760 Y75.4000
 X172.5140 Y73.6594
 X171.8110 Y71.9396
 X171.0680 Y70.2410
 X170.2860 Y68.5643
 X169.4640 Y66.9100
 X168.6030 Y65.2786
 X167.7040 Y63.6710
 X166.7680 Y62.0876
 X165.7960 Y60.5290
 X164.7860 Y58.9960
 X163.7420 Y57.4889
 X162.6610 Y56.0085
 X161.5470 Y54.5553
 X160.4000 Y53.1299
 X159.2180 Y51.7329
 X158.0040 Y50.3649
 X156.7580 Y49.0267
 X155.4820 Y47.7185
 X154.1740 Y46.4413
 X152.8350 Y45.1954
 X151.4670 Y43.9817
 X150.0710 Y42.8004
 X148.6440 Y41.6525
 X147.1920 Y40.5383
 X145.7110 Y39.4586
 X144.2040 Y38.4139
 X142.6710 Y37.4047
 X141.1120 Y36.4318
 X139.5290 Y35.4957
 X137.9210 Y34.5969
 X136.2900 Y33.7363
 X134.6360 Y32.9142
 X132.9590 Y32.1314
 X131.2600 Y31.3882
 X129.5410 Y30.6856
 X127.8000 Y30.0239
 X126.0390 Y29.4038
 X124.2590 Y28.8258
 X122.4610 Y28.2907
 X120.6430 Y27.7990
 X118.8090 Y27.3513
 X116.9570 Y26.9482
 X115.0890 Y26.5903
 X113.2040 Y26.2781
 X111.3050 Y26.0122
 X109.3910 Y25.7935
 X107.4630 Y25.6222
 X105.5210 Y25.4992
 X103.5670 Y25.4249
 X101.6000 Y25.4000
 X99.6332 Y25.4249
 X97.6788 Y25.4992
 X95.7371 Y25.6222
 X93.8090 Y25.7935
 X91.8949 Y26.0122
 X89.9956 Y26.2781
 X88.1114 Y26.5903
 X86.2431 Y26.9482
 X84.3912 Y27.3513
 X82.5565 Y27.7990
 X80.7393 Y28.2907
 X78.9404 Y28.8258
 X77.1604 Y29.4038
 X75.3999 Y30.0239
 X73.6594 Y30.6856
 X71.9396 Y31.3882
 X70.2410 Y32.1314
 X68.5642 Y32.9142
 X66.9099 Y33.7363
 X65.2786 Y34.5969
 X63.6710 Y35.4957
 X62.0875 Y36.4318
 X60.5290 Y37.4047
 X58.9958 Y38.4139
 X57.4889 Y39.4586
 X56.0083 Y40.5383
 X54.5551 Y41.6525
 X53.1297 Y42.8004
 X51.7328 Y43.9817
 X50.3649 Y45.1954
 X49.0265 Y46.4413
 X47.7185 Y47.7185
 X46.4413 Y49.0267
 X45.1954 Y50.3649
 X43.9817 Y51.7329
 X42.8004 Y53.1299
 X41.6525 Y54.5553
 X40.5382 Y56.0085
 X39.4585 Y57.4889
 X38.4138 Y58.9960
 X37.4047 Y60.5290
 X36.4318 Y62.0876
 X35.4957 Y63.6710
 X34.5969 Y65.2786
 X33.7363 Y66.9100
 X32.9142 Y68.5643
 X32.1312 Y70.2410
 X31.3882 Y71.9396
 X30.6856 Y73.6594
 X30.0237 Y75.4000
 X29.4038 Y77.1606
 X28.8258 Y78.9406
 X28.2907 Y80.7393
 X27.7990 Y82.5565
 X27.3513 Y84.3912
 X26.9481 Y86.2431
 X26.5901 Y88.1114
 X26.2781 Y89.9956
 X26.0122 Y91.8950
 X25.7935 Y93.8090
 X25.6222 Y95.7372
 X25.4992 Y97.6788
 X25.4249 Y99.6332
 X25.4000 Y101.6000
 X25.4249 Y103.5670
 X25.4992 Y105.5210
 X25.6222 Y107.4630
 X25.7935 Y109.3910
 X26.0122 Y111.3050
 X26.2781 Y113.2040
 X26.5901 Y115.0890
 X26.9481 Y116.9570
 X27.3513 Y118.8090
 X27.7990 Y120.6430
 X28.2907 Y122.4610
 X28.8258 Y124.2590
 X29.4038 Y126.0390
 X30.0237 Y127.8000
 X30.6856 Y129.5410
 X31.3882 Y131.2600
 X32.1312 Y132.9590
 X32.9142 Y134.6360
 X33.7363 Y136.2900
 X34.5969 Y137.9210
 X35.4957 Y139.5290
 X36.4318 Y141.1120
 X37.4047 Y142.6710
 X38.4138 Y144.2040
 X39.4585 Y145.7110
 X40.5382 Y147.1920
 X41.6525 Y148.6440
 X42.8004 Y150.0710
 X43.9817 Y151.4670
 X45.1954 Y152.8350
 X46.4413 Y154.1740
 X47.7185 Y155.4820
 X49.0265 Y156.7580
 X50.3649 Y158.0040
 X51.7328 Y159.2180
 X53.1297 Y160.4000
 X54.5551 Y161.5470
 X56.0083 Y162.6610
 X57.4889 Y163.7420
 X58.9958 Y164.7860
 X60.5290 Y165.7960
 X62.0875 Y166.7680
 X63.6710 Y167.7040
 X65.2786 Y168.6030
 X66.9099 Y169.4640
 X68.5642 Y170.2860
 X70.2410 Y171.0680
 X71.9396 Y171.8110
 X73.6594 Y172.5140
 X75.3999 Y173.1760
 X77.1604 Y173.7960
 X78.9404 Y174.3740
 X80.7393 Y174.9100
 X82.5565 Y175.4010
 X84.3912 Y175.8490
 X86.2431 Y176.2510
 X88.1114 Y176.6100
 X89.9956 Y176.9220
 X91.8949 Y177.1880
 X93.8090 Y177.4070
 X95.7371 Y177.5780
 X97.6788 Y177.7010
 X99.6332 Y177.7750
 X101.6000 Y177.8000
 X103.5670 Y177.7750
 X105.5210 Y177.7010
 X107.4630 Y177.5780
 X109.3910 Y177.4070
 X111.3050 Y177.1880
 X113.2040 Y176.9220
 X115.0890 Y176.6100
 X116.9570 Y176.2510
 X118.8090 Y175.8490
 X120.6430 Y175.4010
 X122.4610 Y174.9100
 X124.2590 Y174.3740
 X126.0390 Y173.7960
 X127.8000 Y173.1760
 X129.5410 Y172.5140
 X131.2600 Y171.8110
 X132.9590 Y171.0680
 X134.6360 Y170.2860
 X136.2900 Y169.4640
 X137.9210 Y168.6030
 X139.5290 Y167.7040
 X141.1120 Y166.7680
 X142.6710 Y165.7960
 X144.2040 Y164.7860
 X145.7110 Y163.7420
 X147.1920 Y162.6610
 X148.6440 Y161.5470
 X150.0710 Y160.4000
 X151.4670 Y159.2180
 X152.8350 Y158.0040
 X154.1740 Y156.7580
 X155.4820 Y155.4820
 X156.7580 Y154.1740
 X158.0040 Y152.8350
 X159.2180 Y151.4670
 X160.4000 Y150.0710
 X161.5470 Y148.6440
 X162.6610 Y147.1920
 X163.7420 Y145.7110
 X164.7860 Y144.2040
 X165.7960 Y142.6710
 X166.7680 Y141.1120
 X167.7040 Y139.5290
 X168.6030 Y137.9210
 X169.4640 Y136.2900
 X170.2860 Y134.6360
 X171.0680 Y132.9590
 X171.8110 Y131.2600
 X172.5140 Y129.5410
 X173.1760 Y127.8000
 X173.7960 Y126.0390
 X174.3740 Y124.2590
 X174.9100 Y122.4610
 X175.4010 Y120.6430
 X175.8490 Y118.8090
 X176.2510 Y116.9570
 X176.6100 Y115.0890
 X176.9220 Y113.2040
 X177.1880 Y111.3050
 X177.4070 Y109.3910
 X177.5780 Y107.4630
 X177.7010 Y105.5210
 X177.7750 Y103.5670
 X177.8000 Y101.6000
G0 Z2.0000
 X161.1400 Y185.2400
G1 Z0.0000
 X164.4940
 X164.4430 Y185.5850
 X164.3620 Y185.8830
 X164.2510 Y186.1380
 X164.1100 Y186.3440
 X163.8460 Y186.5930
 X163.5490 Y186.7720
 X163.2170 Y186.8810
 X162.8490 Y186.9170
 X162.5110 Y186.8860
 X162.2030 Y186.8010
 X161.9220 Y186.6600
 X161.6690 Y186.4600
 X161.4560 Y186.2120
 X161.2970 Y185.9260
 X161.1920 Y185.6030
 X161.1400 Y185.2400
G0 Z2.0000
 X151.6830 Y184.6720
G1 Z0.0000
 X151.3750 Y184.5670
 X150.9990 Y184.4690
 X150.5540 Y184.3810
 X150.0420 Y184.3000
 X149.7510 Y184.2540
 X149.5100 Y184.2070
 X149.3140 Y184.1570
 X149.1640 Y184.1040
 X149.0420 Y184.0420
 X148.9350 Y183.9680
 X148.8440 Y183.8830
 X148.7670 Y183.7850
 X148.6630 Y183.5610
 X148.6280 Y183.3180
 X148.6460 Y183.1280
 X148.7030 Y182.9560
 X148.7990 Y182.8010
 X148.9320 Y182.6630
 X149.1010 Y182.5460
 X149.3060 Y182.4650
 X149.5460 Y182.4170
 X149.8210 Y182.4000
 X150.1030 Y182.4140
 X150.3690 Y182.4610
 X150.6190 Y182.5400
 X150.8530 Y182.6510
 X151.0630 Y182.7860
 X151.2440 Y182.9440
 X151.3940 Y183.1280
 X151.5170 Y183.3320
 X151.5860 Y183.5170
 X151.6380 Y183.7420
 X151.6680 Y184.0070
 X151.6780 Y184.3130
 X151.6830 Y184.6720
G0 Z2.0000
 X141.5460 Y185.9690
G1 Z0.0000
 X143.6250
 X143.8720 Y185.9750
 X144.1010 Y185.9930
 X144.3130 Y186.0220
 X144.5040 Y186.0650
 X144.6790 Y186.1190
 X144.8350 Y186.1880
 X144.9710 Y186.2650
 X145.0890 Y186.3570
 X145.2780 Y186.5680
 X145.4130 Y186.8210
 X145.4940 Y187.1120
 X145.5220 Y187.4440
 X145.5060 Y187.6880
 X145.4570 Y187.9140
 X145.3780 Y188.1240
 X145.2670 Y188.3140
 X145.1290 Y188.4790
 X144.9710 Y188.6140
 X144.7930 Y188.7180
 X144.5960 Y188.7920
 X144.4310 Y188.8210
 X144.2110 Y188.8440
 X143.9360 Y188.8580
 X143.6030 Y188.8640
 X141.5460
 Y185.9690
G0 Z2.0000
 X125.3280 Y184.6750
G1 Z0.0000
 X125.3350 Y184.4010
 X125.3580 Y184.1460
 X125.3950 Y183.9080
 X125.4470 Y183.6890
 X125.5140 Y183.4870
 X125.5970 Y183.3030
 X125.6940 Y183.1360
 X125.8060 Y182.9870
 X126.0590 Y182.7420
 X126.3440 Y182.5670
 X126.6600 Y182.4620
 X127.0080 Y182.4280
 X127.3520 Y182.4610
 X127.6660 Y182.5670
 X127.9500 Y182.7430
 X128.2040 Y182.9900
 X128.3160 Y183.1400
 X128.4130 Y183.3080
 X128.4940 Y183.4960
 X128.5620 Y183.7010
 X128.6140 Y183.9250
 X128.6520 Y184.1680
 X128.6740 Y184.4280
 X128.6820 Y184.7080
 X128.6730 Y184.9710
 X128.6500 Y185.2170
 X128.6130 Y185.4470
 X128.5600 Y185.6630
 X128.4930 Y185.8600
 X128.4110 Y186.0420
 X128.3140 Y186.2070
 X128.2020 Y186.3560
 X127.9470 Y186.6000
 X127.6630 Y186.7750
 X127.3500 Y186.8810
 X127.0080 Y186.9170
 X126.6600 Y186.8790
 X126.3450 Y186.7750
 X126.0600 Y186.6030
 X125.8060 Y186.3580
 X125.6930 Y186.2100
 X125.5960 Y186.0430
 X125.5130 Y185.8580
 X125.4470 Y185.6570
 X125.3950 Y185.4390
 X125.3580 Y185.2010
 X125.3360 Y184.9470
 X125.3280 Y184.6750
G0 Z2.0000
 X116.5160 Y184.6720
G1 Z0.0000
 X116.2070 Y184.5670
 X115.8310 Y184.4690
 X115.3860 Y184.3810
 X114.8730 Y184.3000
 X114.5840 Y184.2540
 X114.3420 Y184.2070
 X114.1460 Y184.1570
 X113.9960 Y184.1040
 X113.8730 Y184.0420
 X113.7670 Y183.9680
 X113.6760 Y183.8830
 X113.5990 Y183.7850
 X113.4940 Y183.5610
 X113.4600 Y183.3180
 X113.4780 Y183.1280
 X113.5350 Y182.9560
 X113.6300 Y182.8010
 X113.7640 Y182.6630
 X113.9330 Y182.5460
 X114.1380 Y182.4650
 X114.3780 Y182.4170
 X114.6530 Y182.4000
 X114.9350 Y182.4140
 X115.2010 Y182.4610
 X115.4510 Y182.5400
 X115.6850 Y182.6510
 X115.8950 Y182.7860
 X116.0760 Y182.9440
 X116.2270 Y183.1280
 X116.3480 Y183.3320
 X116.4190 Y183.5170
 X116.4690 Y183.7420
 X116.5000 Y184.0070
 X116.5100 Y184.3130
 X116.5160 Y184.6720
G0 Z2.0000
 X103.5620 Y184.7150
G1 Z0.0000
 X103.5650 Y184.4610
 X103.5780 Y184.2250
 X103.6000 Y184.0070
 X103.6320 Y183.8080
 X103.6730 Y183.6280
 X103.7230 Y183.4640
 X103.7820 Y183.3190
 X103.8490 Y183.1940
 X103.9710 Y183.0130
 X104.1040 Y182.8570
 X104.2470 Y182.7250
 X104.4020 Y182.6170
 X104.5660 Y182.5330
 X104.7410 Y182.4750
 X104.9260 Y182.4390
 X105.1220 Y182.4280
 X105.4370 Y182.4610
 X105.7300 Y182.5670
 X106.0010 Y182.7440
 X106.2500 Y182.9930
 X106.3610 Y183.1420
 X106.4570 Y183.3100
 X106.5390 Y183.4930
 X106.6060 Y183.6960
 X106.6590 Y183.9150
 X106.6960 Y184.1510
 X106.7180 Y184.4060
 X106.7260 Y184.6780
 X106.7180 Y184.9540
 X106.6960 Y185.2120
 X106.6600 Y185.4510
 X106.6110 Y185.6740
 X106.5470 Y185.8760
 X106.4690 Y186.0600
 X106.3770 Y186.2250
 X106.2700 Y186.3710
 X106.0280 Y186.6080
 X105.7640 Y186.7790
 X105.4770 Y186.8820
 X105.1660 Y186.9170
 X104.8500 Y186.8790
 X104.5570 Y186.7740
 X104.2860 Y186.5970
 X104.0380 Y186.3510
 X103.9260 Y186.2010
 X103.8290 Y186.0360
 X103.7470 Y185.8560
 X103.6810 Y185.6600
 X103.6280 Y185.4470
 X103.5910 Y185.2190
 X103.5690 Y184.9750
 X103.5620 Y184.7150
G0 Z2.0000
 X95.1499 Y184.6720
G1 Z0.0000
 X94.8415 Y184.5670
 X94.4651 Y184.4690
 X94.0206 Y184.3810
 X93.5075 Y184.3000
 X93.2182 Y184.2540
 X92.9763 Y184.2070
 X92.7807 Y184.1570
 X92.6301 Y184.1040
 X92.5075 Y184.0420
 X92.4013 Y183.9680
 X92.3103 Y183.8830
 X92.2336 Y183.7850
 X92.1285 Y183.5610
 X92.0939 Y183.3180
 X92.1125 Y183.1280
 X92.1696 Y182.9560
 X92.2647 Y182.8010
 X92.3979 Y182.6630
 X92.5674 Y182.5460
 X92.7721 Y182.4650
 X93.0121 Y182.4170
 X93.2872 Y182.4000
 X93.5692 Y182.4140
 X93.8351 Y182.4610
 X94.0851 Y182.5400
 X94.3192 Y182.6510
 X94.5293 Y182.7860
 X94.7103 Y182.9440
 X94.8614 Y183.1280
 X94.9825 Y183.3320
 X95.0531 Y183.5170
 X95.1036 Y183.7420
 X95.1342 Y184.0070
 X95.1444 Y184.3130
 X95.1499 Y184.6720
G0 Z2.0000
 X74.4614 Y184.6750
G1 Z0.0000
 X74.4685 Y184.4010
 X74.4907 Y184.1460
 X74.5279 Y183.9080
 X74.5803 Y183.6890
 X74.6475 Y183.4870
 X74.7297 Y183.3030
 X74.8268 Y183.1360
 X74.9387 Y182.9870
 X75.1918 Y182.7420
 X75.4769 Y182.5670
 X75.7935 Y182.4620
 X76.1407 Y182.4280
 X76.4847 Y182.4610
 X76.7990 Y182.5670
 X77.0833 Y182.7430
 X77.3372 Y182.9900
 X77.4488 Y183.1400
 X77.5456 Y183.3080
 X77.6276 Y183.4960
 X77.6949 Y183.7010
 X77.7472 Y183.9250
 X77.7847 Y184.1680
 X77.8074 Y184.4280
 X77.8149 Y184.7080
 X77.8064 Y184.9710
 X77.7835 Y185.2170
 X77.7458 Y185.4470
 X77.6936 Y185.6630
 X77.6264 Y185.8600
 X77.5443 Y186.0420
 X77.4471 Y186.2070
 X77.3346 Y186.3560
 X77.0796 Y186.6000
 X76.7957 Y186.7750
 X76.4828 Y186.8810
 X76.1407 Y186.9170
 X75.7936 Y186.8790
 X75.4778 Y186.7750
 X75.1929 Y186.6030
 X74.9387 Y186.3580
 X74.8261 Y186.2100
 X74.7286 Y186.0430
 X74.6465 Y185.8580
 X74.5796 Y185.6570
 X74.5278 Y185.4390
 X74.4908 Y185.2010
 X74.4688 Y184.9470
 X74.4614 Y184.6750
G0 Z2.0000
 X60.2638 Y185.6470
G1 Z0.0000
 X60.2749 Y185.2940
 X60.3110 Y184.9610
 X60.3718 Y184.6470
 X60.4575 Y184.3530
 X60.5676 Y184.0780
 X60.7024 Y183.8220
 X60.8612 Y183.5860
 X61.0444 Y183.3680
 X61.2457 Y183.1720
 X61.4596 Y183.0030
 X61.6858 Y182.8600
 X61.9244 Y182.7430
 X62.1756 Y182.6510
 X62.4390 Y182.5870
 X62.7150 Y182.5490
 X63.0033 Y182.5350
 X63.2967 Y182.5470
 X63.5767 Y182.5870
 X63.8435 Y182.6530
 X64.0971 Y182.7440
 X64.3374 Y182.8640
 X64.5644 Y183.0080
 X64.7782 Y183.1790
 X64.9786 Y183.3760
 X65.1599 Y183.5970
 X65.3172 Y183.8400
 X65.4504 Y184.1060
 X65.5594 Y184.3930
 X65.6444 Y184.7030
 X65.7051 Y185.0330
 X65.7415 Y185.3860
 X65.7538 Y185.7610
 X65.7328 Y186.2330
 X65.6707 Y186.6750
 X65.5672 Y187.0870
 X65.4222 Y187.4680
 X65.2368 Y187.8110
 X65.0136 Y188.1140
 X64.7522 Y188.3760
 X64.4524 Y188.5970
 X64.1226 Y188.7710
 X63.7743 Y188.8970
 X63.4069 Y188.9740
 X63.0199 Y188.9990
 X62.7422 Y188.9860
 X62.4747 Y188.9490
 X62.2171 Y188.8890
 X61.9694 Y188.8040
 X61.7317 Y188.6960
 X61.5038 Y188.5640
 X61.2857 Y188.4070
 X61.0774 Y188.2260
 X60.8861 Y188.0170
 X60.7206 Y187.7750
 X60.5807 Y187.5010
 X60.4665 Y187.1940
 X60.3776 Y186.8570
 X60.3143 Y186.4860
 X60.2764 Y186.0830
 X60.2638 Y185.6470
G0 Z2.0000
 X53.7850 Y185.2400
G1 Z0.0000
 X57.1385
 X57.0875 Y185.5850
 X57.0071 Y185.8830
 X56.8961 Y186.1380
 X56.7539 Y186.3440
 X56.4907 Y186.5930
 X56.1936 Y186.7720
 X55.8614 Y186.8810
 X55.4928 Y186.9170
 X55.1557 Y186.8860
 X54.8469 Y186.8010
 X54.5663 Y186.6600
 X54.3133 Y186.4600
 X54.1006 Y186.2120
 X53.9418 Y185.9260
 X53.8368 Y185.6030
 X53.7850 Y185.2400
G0 Z2.0000
 X47.6958 Y184.6330
G1 Z0.0000
 X47.7019 Y184.3600
 X47.7228 Y184.1060
 X47.7583 Y183.8690
 X47.8086 Y183.6510
 X47.8732 Y183.4530
 X47.9522 Y183.2720
 X48.0454 Y183.1100
 X48.1526 Y182.9670
 X48.3917 Y182.7290
 X48.6563 Y182.5610
 X48.9456 Y182.4610
 X49.2586 Y182.4280
 X49.5761 Y182.4610
 X49.8708 Y182.5650
 X50.1421 Y182.7400
 X50.3894 Y182.9860
 X50.4987 Y183.1330
 X50.5938 Y183.3010
 X50.6746 Y183.4890
 X50.7411 Y183.6960
 X50.7929 Y183.9220
 X50.8301 Y184.1680
 X50.8526 Y184.4320
 X50.8601 Y184.7150
 X50.8521 Y184.9860
 X50.8301 Y185.2370
 X50.7942 Y185.4740
 X50.7440 Y185.6920
 X50.6797 Y185.8920
 X50.6011 Y186.0750
 X50.5081 Y186.2400
 X50.4006 Y186.3880
 X50.1585 Y186.6290
 X49.8953 Y186.8030
 X49.6103 Y186.9080
 X49.3028 Y186.9430
 X48.9944 Y186.9060
 X48.7054 Y186.7940
 X48.4350 Y186.6100
 X48.1828 Y186.3530
 X48.0675 Y186.1960
 X47.9681 Y186.0220
 X47.8842 Y185.8330
 X47.8160 Y185.6260
 X47.7632 Y185.4030
 X47.7257 Y185.1640
 X47.7033 Y184.9070
 X47.6958 Y184.6330
G0 Z2.0000
 X44.2999 Y184.6720
G1 Z0.0000
 X43.9915 Y184.5670
 X43.6153 Y184.4690
 X43.1707 Y184.3810
 X42.6575 Y184.3000
 X42.3682 Y184.2540
 X42.1264 Y184.2070
 X41.9307 Y184.1570
 X41.7801 Y184.1040
 X41.6576 Y184.0420
 X41.5514 Y183.9680
 X41.4603 Y183.8830
 X41.3837 Y183.7850
 X41.2785 Y183.5610
 X41.2439 Y183.3180
 X41.2626 Y183.1280
 X41.3197 Y182.9560
 X41.4149 Y182.8010
 X41.5479 Y182.6630
 X41.7175 Y182.5460
 X41.9222 Y182.4650
 X42.1622 Y182.4170
 X42.4372 Y182.4000
 X42.7193 Y182.4140
 X42.9853 Y182.4610
 X43.2353 Y182.5400
 X43.4692 Y182.6510
 X43.6793 Y182.7860
 X43.8603 Y182.9440
 X44.0115 Y183.1280
 X44.1326 Y183.3320
 X44.2032 Y183.5170
 X44.2538 Y183.7420
 X44.2842 Y184.0070
 X44.2944 Y184.3130
 X44.2999 Y184.6720
G0 Z2.0000
 X7.2130 Y95.7449
G1 Z0.0000
 X7.2246 Y95.4918
 X7.2650 Y95.2443
 X7.3331 Y95.0025
 X7.4276 Y94.7660
 X7.5444 Y94.5451
 X7.6827 Y94.3535
 X7.8419 Y94.1899
 X8.0216 Y94.0539
 X8.2146 Y93.9464
 X8.4153 Y93.8700
 X8.6234 Y93.8244
 X8.8386 Y93.8093
 X9.1413 Y93.8397
 X9.4218 Y93.9347
 X9.6788 Y94.0935
 X9.9111 Y94.3153
 X10.1028 Y94.5907
 X10.2400 Y94.9117
 X10.3225 Y95.2781
 X10.3502 Y95.6897
 X10.3214 Y96.0853
 X10.2403 Y96.4365
 X10.1057 Y96.7436
 X9.9166 Y97.0064
 X9.6830 Y97.2153
 X9.4197 Y97.3658
 X9.1257 Y97.4569
 X8.8005 Y97.4875
 X8.4809 Y97.4565
 X8.1870 Y97.3664
 X7.9185 Y97.2165
 X7.6750 Y97.0064
 X7.4724 Y96.7454
 X7.3281 Y96.4490
 X7.2417 Y96.1158
 X7.2130 Y95.7449
G0 Z2.0000
 X44.8108 Y62.1814
G1 Z0.0000
 X45.9950
 X46.2538 Y62.1872
 X46.4836 Y62.2065
 X46.6844 Y62.2389
 X46.8554 Y62.2838
 X47.0031 Y62.3390
 X47.1354 Y62.4063
 X47.2522 Y62.4844
 X47.3531 Y62.5726
 X47.4761 Y62.7140
 X47.5850 Y62.8789
 X47.6796 Y63.0667
 X47.7597 Y63.2768
 X47.8226 Y63.5094
 X47.8682 Y63.7661
 X47.8960 Y64.0463
 X47.9054 Y64.3497
 X47.8857 Y64.7604
 X47.8324 Y65.1214
 X47.7440 Y65.4321
 X47.6196 Y65.6919
 X47.4685 Y65.9071
 X47.3026 Y66.0835
 X47.1218 Y66.2214
 X46.9256 Y66.3204
 X46.7549 Y66.3697
 X46.5400 Y66.4054
 X46.2806 Y66.4271
 X45.9761 Y66.4344
 X44.8108
 Y62.1814
G0 Z2.0000
 X53.9785 Y63.5472
G1 Z0.0000
 X53.7633 Y63.4732
 X53.5015 Y63.4063
 X53.1924 Y63.3456
 X52.8354 Y63.2901
 X52.6354 Y63.2586
 X52.4671 Y63.2256
 X52.3303 Y63.1907
 X52.2251 Y63.1537
 X52.0665 Y63.0603
 X51.9492 Y62.9326
 X51.8758 Y62.7783
 X51.8519 Y62.6093
 X51.8646 Y62.4786
 X51.9043 Y62.3594
 X51.9706 Y62.2518
 X52.0632 Y62.1553
 X52.1804 Y62.0751
 X52.3231 Y62.0186
 X52.4904 Y61.9850
 X52.6822 Y61.9739
 X52.8765 Y61.9840
 X53.0618 Y62.0167
 X53.2367 Y62.0711
 X53.4000 Y62.1471
 X53.5454 Y62.2399
 X53.6714 Y62.3501
 X53.7772 Y62.4767
 X53.8618 Y62.6185
 X53.9093 Y62.7458
 X53.9447 Y62.9022
 X53.9668 Y63.0867
 X53.9744 Y63.2981
 X53.9785 Y63.5472
G0 Z2.0000
 X56.1528 Y63.6169
G1 Z0.0000
 X56.1704 Y63.2458
 X56.2297 Y62.9299
 X56.3293 Y62.6679
 X56.4678 Y62.4593
 X56.6340 Y62.2993
 X56.8215 Y62.1856
 X57.0296 Y62.1175
 X57.2574 Y62.0950
 X57.4821 Y62.1175
 X57.6890 Y62.1856
 X57.8774 Y62.2989
 X58.0467 Y62.4574
 X58.1856 Y62.6642
 X58.2853 Y62.9226
 X58.3454 Y63.2328
 X58.3656 Y63.5943
 X58.3444 Y63.9415
 X58.2831 Y64.2432
 X58.1807 Y64.4994
 X58.0372 Y64.7100
 X57.8633 Y64.8738
 X57.6742 Y64.9914
 X57.4686 Y65.0622
 X57.2460 Y65.0858
 X57.0254 Y65.0619
 X56.8235 Y64.9926
 X56.6392 Y64.8774
 X56.4715 Y64.7157
 X56.3303 Y64.5068
 X56.2308 Y64.2547
 X56.1721 Y63.9583
 X56.1528 Y63.6169
G0 Z2.0000
 X64.9025 Y63.1436
G1 Z0.0000
 X64.9349 Y62.8561
 X65.0354 Y62.5800
 X65.1108 Y62.4515
 X65.2040 Y62.3383
 X65.3150 Y62.2406
 X65.4439 Y62.1582
 X65.7279 Y62.0449
 X66.0319 Y62.0086
 X66.2662 Y62.0265
 X66.4794 Y62.0857
 X66.6704 Y62.1847
 X66.8382 Y62.3226
 X66.9731 Y62.4894
 X67.0707 Y62.6785
 X67.1300 Y62.8892
 X67.1500 Y63.1210
 X67.1294 Y63.3544
 X67.0692 Y63.5686
 X66.9690 Y63.7624
 X66.8286 Y63.9344
 X66.6568 Y64.0742
 X66.4629 Y64.1747
 X66.2472 Y64.2356
 X66.0092 Y64.2560
 X65.7765 Y64.2349
 X65.5664 Y64.1754
 X65.3783 Y64.0768
 X65.2124 Y63.9381
 X65.0753 Y63.7678
 X64.9786 Y63.5793
 X64.9214 Y63.3715
 X64.9025 Y63.1436
G0 Z2.0000
 X65.1272 Y65.6961
G1 Z0.0000
 X65.1415 Y65.5090
 X65.1881 Y65.3406
 X65.2661 Y65.1901
 X65.3749 Y65.0575
 X65.5081 Y64.9482
 X65.6626 Y64.8708
 X65.8381 Y64.8247
 X66.0338 Y64.8094
 X66.2222 Y64.8238
 X66.3936 Y64.8700
 X66.5463 Y64.9475
 X66.6793 Y65.0556
 X66.7862 Y65.1851
 X66.8631 Y65.3290
 X66.9096 Y65.4869
 X66.9253 Y65.6586
 X66.9092 Y65.8360
 X66.8617 Y66.0000
 X66.7825 Y66.1499
 X66.6718 Y66.2844
 X66.5347 Y66.3940
 X66.3824 Y66.4735
 X66.2132 Y66.5218
 X66.0264 Y66.5382
 X65.8367 Y66.5207
 X65.6658 Y66.4744
 X65.5133 Y66.3978
 X65.3788 Y66.2899
 X65.2674 Y66.1596
 X65.1889 Y66.0172
 X65.1425 Y65.8629
 X65.1272 Y65.6961
G0 Z2.0000
 X72.9233 Y63.4781
G1 Z0.0000
 Y65.9618
 X71.1625 Y63.4781
 X72.9233
G0 Z2.0000
 X75.9897 Y65.6961
G1 Z0.0000
 X76.0040 Y65.5090
 X76.0506 Y65.3406
 X76.1286 Y65.1901
 X76.2374 Y65.0575
 X76.3706 Y64.9482
 X76.5251 Y64.8708
 X76.7006 Y64.8247
 X76.8962 Y64.8094
 X77.0847 Y64.8238
 X77.2560 Y64.8700
 X77.4088 Y64.9475
 X77.5418 Y65.0556
 X77.6486 Y65.1851
 X77.7256 Y65.3290
 X77.7721 Y65.4869
 X77.7876 Y65.6586
 X77.7717 Y65.8360
 X77.7242 Y66.0000
 X77.6450 Y66.1499
 X77.5342 Y66.2844
 X77.3972 Y66.3940
 X77.2449 Y66.4735
 X77.0757 Y66.5218
 X76.8889 Y66.5382
 X76.6992 Y66.5207
 X76.5283 Y66.4744
 X76.3757 Y66.3978
 X76.2413 Y66.2899
 X76.1297 Y66.1596
 X76.0514 Y66.0172
 X76.0050 Y65.8629
 X75.9897 Y65.6961
G0 Z2.0000
 X75.7649 Y63.1436
G1 Z0.0000
 X75.7974 Y62.8561
 X75.8979 Y62.5800
 X75.9733 Y62.4515
 X76.0665 Y62.3383
 X76.1775 Y62.2406
 X76.3064 Y62.1582
 X76.5904 Y62.0449
 X76.8944 Y62.0086
 X77.1288 Y62.0265
 X77.3418 Y62.0857
 X77.5328 Y62.1847
 X77.7007 Y62.3226
 X77.8356 Y62.4894
 X77.9331 Y62.6785
 X77.9925 Y62.8892
 X78.0125 Y63.1210
 X77.9919 Y63.3544
 X77.9317 Y63.5686
 X77.8315 Y63.7624
 X77.6911 Y63.9344
 X77.5192 Y64.0742
 X77.3254 Y64.1747
 X77.1096 Y64.2356
 X76.8717 Y64.2560
 X76.6390 Y64.2349
 X76.4289 Y64.1754
 X76.2408 Y64.0768
 X76.0749 Y63.9381
 X75.9378 Y63.7678
 X75.8411 Y63.5793
 X75.7838 Y63.3715
 X75.7649 Y63.1436
G0 Z2.0000
 X97.5242 Y11.0782
G1 Z0.0000
 X97.5357 Y10.8252
 X97.5761 Y10.5777
 X97.6442 Y10.3358
 X97.7387 Y10.0993
 X97.8556 Y9.8785
 X97.9939 Y9.6867
 X98.1531 Y9.5232
 X98.3328 Y9.3873
 X98.5258 Y9.2797
 X98.7264 Y9.2034
 X98.9346 Y9.1578
 X99.1499 Y9.1427
 X99.4524 Y9.1730
 X99.7329 Y9.2680
 X99.9900 Y9.4268
 X100.2220 Y9.6485
 X100.4140 Y9.9240
 X100.5510 Y10.2450
 X100.6340 Y10.6114
 X100.6610 Y11.0231
 X100.6330 Y11.4186
 X100.5510 Y11.7699
 X100.4170 Y12.0770
 X100.2280 Y12.3397
 X99.9942 Y12.5486
 X99.7308 Y12.6991
 X99.4368 Y12.7903
 X99.1115 Y12.8209
 X98.7919 Y12.7898
 X98.4981 Y12.6997
 X98.2296 Y12.5499
 X97.9861 Y12.3397
 X97.7836 Y12.0788
 X97.6393 Y11.7823
 X97.5528 Y11.4492
 X97.5242 Y11.0782
G0 Z2.0000
M5 (stop spindle)
G04 P3 (wait for 3 seconds)
G0 Z2.0000
M2 (end program)
