; This file was generated with "Universal Gcode Sender 2.0-19"
;
; Tool: 3.0mm
; Depth per pass: 1.0mm
; Feed speed: 1000mm/min
; Plunge speed: 400mm/min
; Safe height: 5.0mm
; Tool step over: 0.3mm
; Spindle speed: 1000rpm

G21 ; millimeters
G90 ; absolute coordinate
G17 ; XY plane
G94 ; units per minute feed rate mode
M3 S1000 ; Turning on spindle

; U - On path (1/25)
G0 Z5
G0 X95.531Y107.042
G0 Z0
G1 F400 X95.531Y107.042Z-0
G1 F1000 X95.531Y107.042Z-0
G1 X95.531Y107.042Z-0
G1 X95.454Y106.321Z-0
G1 X95.226Y105.632Z-0
G1 X94.845Y104.974Z-0
G1 X94.311Y104.349Z-0
G1 X93.685Y103.838Z-0
G1 X93.028Y103.472Z-0
G1 X92.339Y103.253Z-0
G1 X91.618Y103.18Z-0
G1 X72.409Y103.18Z-0
G1 X71.688Y103.253Z-0
G1 X70.998Y103.472Z-0
G1 X70.341Y103.838Z-0
G1 X69.715Y104.349Z-0
G1 X69.204Y104.974Z-0
G1 X68.839Y105.632Z-0
G1 X68.619Y106.321Z-0
G1 X68.546Y107.042Z-0
G1 X68.546Y146.214Z-0
G1 X79.93Y146.214Z-0
G1 X79.93Y110.954Z-0
G1 X84.046Y110.954Z-0
G1 X84.046Y146.213Z-0
G1 X95.531Y146.213Z-0
G1 X95.531Y107.042Z-0
G0 Z5
G0 X95.531Y107.042
G0 Z0
G1 F400 X95.531Y107.042Z-1
G1 F1000 X95.531Y107.042Z-1
G1 X95.531Y107.042Z-1
G1 X95.454Y106.321Z-1
G1 X95.226Y105.632Z-1
G1 X94.845Y104.974Z-1
G1 X94.311Y104.349Z-1
G1 X93.685Y103.838Z-1
G1 X93.028Y103.472Z-1
G1 X92.339Y103.253Z-1
G1 X91.618Y103.18Z-1
G1 X72.409Y103.18Z-1
G1 X71.688Y103.253Z-1
G1 X70.998Y103.472Z-1
G1 X70.341Y103.838Z-1
G1 X69.715Y104.349Z-1
G1 X69.204Y104.974Z-1
G1 X68.839Y105.632Z-1
G1 X68.619Y106.321Z-1
G1 X68.546Y107.042Z-1
G1 X68.546Y146.214Z-1
G1 X79.93Y146.214Z-1
G1 X79.93Y110.954Z-1
G1 X84.046Y110.954Z-1
G1 X84.046Y146.213Z-1
G1 X95.531Y146.213Z-1
G1 X95.531Y107.042Z-1
G0 Z5
; N - On path (2/25)
G0 Z5
G0 X124.365Y103.18
G0 Z0
G1 F400 X124.365Y103.18Z-0
G1 F1000 X124.365Y103.18Z-0
G1 X124.365Y103.18Z-0
G1 X112.88Y103.18Z-0
G1 X112.88Y138.135Z-0
G1 X108.764Y138.135Z-0
G1 X108.764Y103.18Z-0
G1 X97.33Y103.18Z-0
G1 X97.33Y146.214Z-0
G1 X108.764Y146.214Z-0
G1 X108.764Y143.368Z-0
G1 X109.336Y144.448Z-0
G1 X110.238Y145.35Z-0
G1 X110.781Y145.728Z-0
G1 X111.343Y145.998Z-0
G1 X111.924Y146.16Z-0
G1 X112.525Y146.214Z-0
G1 X120.452Y146.214Z-0
G1 X121.173Y146.137Z-0
G1 X121.862Y145.909Z-0
G1 X122.52Y145.528Z-0
G1 X123.146Y144.994Z-0
G1 X123.679Y144.391Z-0
G1 X124.06Y143.749Z-0
G1 X124.289Y143.07Z-0
G1 X124.365Y142.352Z-0
G1 X124.365Y103.18Z-0
G0 Z5
G0 X124.365Y103.18
G0 Z0
G1 F400 X124.365Y103.18Z-1
G1 F1000 X124.365Y103.18Z-1
G1 X124.365Y103.18Z-1
G1 X112.88Y103.18Z-1
G1 X112.88Y138.135Z-1
G1 X108.764Y138.135Z-1
G1 X108.764Y103.18Z-1
G1 X97.33Y103.18Z-1
G1 X97.33Y146.214Z-1
G1 X108.764Y146.214Z-1
G1 X108.764Y143.368Z-1
G1 X109.336Y144.448Z-1
G1 X110.238Y145.35Z-1
G1 X110.781Y145.728Z-1
G1 X111.343Y145.998Z-1
G1 X111.924Y146.16Z-1
G1 X112.525Y146.214Z-1
G1 X120.452Y146.214Z-1
G1 X121.173Y146.137Z-1
G1 X121.862Y145.909Z-1
G1 X122.52Y145.528Z-1
G1 X123.146Y144.994Z-1
G1 X123.679Y144.391Z-1
G1 X124.06Y143.749Z-1
G1 X124.289Y143.07Z-1
G1 X124.365Y142.352Z-1
G1 X124.365Y103.18Z-1
G0 Z5
; I - On path (3/25)
G0 Z5
G0 X137.698Y103.18
G0 Z0
G1 F400 X137.698Y103.18Z-0
G1 F1000 X137.698Y103.18Z-0
G1 X137.698Y103.18Z-0
G1 X126.213Y103.18Z-0
G1 X126.213Y146.214Z-0
G1 X137.698Y146.214Z-0
G1 X137.698Y103.18Z-0
G0 Z5
G0 X137.698Y103.18
G0 Z0
G1 F400 X137.698Y103.18Z-1
G1 F1000 X137.698Y103.18Z-1
G1 X137.698Y103.18Z-1
G1 X126.213Y103.18Z-1
G1 X126.213Y146.214Z-1
G1 X137.698Y146.214Z-1
G1 X137.698Y103.18Z-1
G0 Z5
; V - On path (4/25)
G0 Z5
G0 X171.579Y146.213
G0 Z0
G1 F400 X171.579Y146.213Z-0
G1 F1000 X171.579Y146.213Z-0
G1 X171.579Y146.213Z-0
G1 X161.415Y103.18Z-0
G1 X149.677Y103.18Z-0
G1 X139.513Y146.213Z-0
G1 X151.15Y146.213Z-0
G1 X155.571Y127.567Z-0
G1 X159.942Y146.213Z-0
G1 X171.579Y146.213Z-0
G0 Z5
G0 X171.579Y146.213
G0 Z0
G1 F400 X171.579Y146.213Z-1
G1 F1000 X171.579Y146.213Z-1
G1 X171.579Y146.213Z-1
G1 X161.415Y103.18Z-1
G1 X149.677Y103.18Z-1
G1 X139.513Y146.213Z-1
G1 X151.15Y146.213Z-1
G1 X155.571Y127.567Z-1
G1 X159.942Y146.213Z-1
G1 X171.579Y146.213Z-1
G0 Z5
; E - On path (5/25)
G0 Z5
G0 X192.006Y110.954
G0 Z0
G1 F400 X192.006Y110.954Z-0
G1 F1000 X192.006Y110.954Z-0
G1 X192.006Y110.954Z-0
G1 X190.126Y103.18Z-0
G1 X173.458Y103.18Z-0
G1 X173.458Y146.213Z-0
G1 X190.126Y146.213Z-0
G1 X192.006Y138.44Z-0
G1 X184.943Y138.44Z-0
G1 X184.943Y129.803Z-0
G1 X191.752Y129.803Z-0
G1 X191.752Y122.03Z-0
G1 X184.943Y122.03Z-0
G1 X184.943Y110.954Z-0
G1 X192.006Y110.954Z-0
G0 Z5
G0 X192.006Y110.954
G0 Z0
G1 F400 X192.006Y110.954Z-1
G1 F1000 X192.006Y110.954Z-1
G1 X192.006Y110.954Z-1
G1 X190.126Y103.18Z-1
G1 X173.458Y103.18Z-1
G1 X173.458Y146.213Z-1
G1 X190.126Y146.213Z-1
G1 X192.006Y138.44Z-1
G1 X184.943Y138.44Z-1
G1 X184.943Y129.803Z-1
G1 X191.752Y129.803Z-1
G1 X191.752Y122.03Z-1
G1 X184.943Y122.03Z-1
G1 X184.943Y110.954Z-1
G1 X192.006Y110.954Z-1
G0 Z5
; R - On path (6/25)
G0 Z5
G0 X222.923Y103.18
G0 Z0
G1 F400 X222.923Y103.18Z-0
G1 F1000 X222.923Y103.18Z-0
G1 X222.923Y103.18Z-0
G1 X211.083Y103.18Z-0
G1 X205.442Y119.845Z-0
G1 X205.188Y119.845Z-0
G1 X205.188Y103.18Z-0
G1 X193.805Y103.18Z-0
G1 X193.805Y146.214Z-0
G1 X216.114Y146.214Z-0
G1 X216.832Y146.137Z-0
G1 X217.511Y145.909Z-0
G1 X218.153Y145.528Z-0
G1 X218.757Y144.994Z-0
G1 X219.29Y144.391Z-0
G1 X219.671Y143.749Z-0
G1 X219.9Y143.07Z-0
G1 X219.976Y142.352Z-0
G1 X219.976Y123.706Z-0
G1 X219.925Y123.128Z-0
G1 X219.773Y122.563Z-0
G1 X219.163Y121.471Z-0
G1 X218.274Y120.607Z-0
G1 X217.232Y120.048Z-0
G1 X222.923Y103.18Z-0
G0 Z5
G0 X222.923Y103.18
G0 Z0
G1 F400 X222.923Y103.18Z-1
G1 F1000 X222.923Y103.18Z-1
G1 X222.923Y103.18Z-1
G1 X211.083Y103.18Z-1
G1 X205.442Y119.845Z-1
G1 X205.188Y119.845Z-1
G1 X205.188Y103.18Z-1
G1 X193.805Y103.18Z-1
G1 X193.805Y146.214Z-1
G1 X216.114Y146.214Z-1
G1 X216.832Y146.137Z-1
G1 X217.511Y145.909Z-1
G1 X218.153Y145.528Z-1
G1 X218.757Y144.994Z-1
G1 X219.29Y144.391Z-1
G1 X219.671Y143.749Z-1
G1 X219.9Y143.07Z-1
G1 X219.976Y142.352Z-1
G1 X219.976Y123.706Z-1
G1 X219.925Y123.128Z-1
G1 X219.773Y122.563Z-1
G1 X219.163Y121.471Z-1
G1 X218.274Y120.607Z-1
G1 X217.232Y120.048Z-1
G1 X222.923Y103.18Z-1
G0 Z5
G0 X209.558Y127.669
G0 Z0
G1 F400 X209.558Y127.669Z-0
G1 F1000 X209.558Y127.669Z-0
G1 X209.558Y127.669Z-0
G1 X209.558Y138.44Z-0
G1 X205.188Y138.44Z-0
G1 X205.188Y127.669Z-0
G1 X209.558Y127.669Z-0
G0 Z5
G0 X209.558Y127.669
G0 Z0
G1 F400 X209.558Y127.669Z-1
G1 F1000 X209.558Y127.669Z-1
G1 X209.558Y127.669Z-1
G1 X209.558Y138.44Z-1
G1 X205.188Y138.44Z-1
G1 X205.188Y127.669Z-1
G1 X209.558Y127.669Z-1
G0 Z5
; S - On path (7/25)
G0 Z5
G0 X247.022Y138.44
G0 Z0
G1 F400 X247.022Y138.44Z-0
G1 F1000 X247.022Y138.44Z-0
G1 X247.022Y138.44Z-0
G1 X235.74Y138.44Z-0
G1 X235.74Y129.803Z-0
G1 X241.736Y129.803Z-0
G1 X242.457Y129.727Z-0
G1 X243.147Y129.498Z-0
G1 X243.804Y129.117Z-0
G1 X244.43Y128.584Z-0
G1 X244.963Y127.98Z-0
G1 X245.345Y127.339Z-0
G1 X245.573Y126.659Z-0
G1 X245.65Y125.942Z-0
G1 X245.65Y107.042Z-0
G1 X245.573Y106.321Z-0
G1 X245.345Y105.632Z-0
G1 X244.963Y104.974Z-0
G1 X244.43Y104.349Z-0
G1 X243.804Y103.838Z-0
G1 X243.147Y103.472Z-0
G1 X242.457Y103.253Z-0
G1 X241.736Y103.18Z-0
G1 X225.221Y103.18Z-0
G1 X223.391Y110.954Z-0
G1 X234.215Y110.954Z-0
G1 X234.215Y122.03Z-0
G1 X228.219Y122.03Z-0
G1 X227.498Y122.106Z-0
G1 X226.809Y122.334Z-0
G1 X226.151Y122.715Z-0
G1 X225.526Y123.249Z-0
G1 X225.014Y123.874Z-0
G1 X224.649Y124.532Z-0
G1 X224.43Y125.221Z-0
G1 X224.357Y125.942Z-0
G1 X224.357Y142.352Z-0
G1 X224.43Y143.07Z-0
G1 X224.649Y143.749Z-0
G1 X225.014Y144.391Z-0
G1 X225.526Y144.994Z-0
G1 X226.151Y145.528Z-0
G1 X226.809Y145.909Z-0
G1 X227.498Y146.137Z-0
G1 X228.219Y146.213Z-0
G1 X245.243Y146.213Z-0
G1 X247.022Y138.44Z-0
G0 Z5
G0 X247.022Y138.44
G0 Z0
G1 F400 X247.022Y138.44Z-1
G1 F1000 X247.022Y138.44Z-1
G1 X247.022Y138.44Z-1
G1 X235.74Y138.44Z-1
G1 X235.74Y129.803Z-1
G1 X241.736Y129.803Z-1
G1 X242.457Y129.727Z-1
G1 X243.147Y129.498Z-1
G1 X243.804Y129.117Z-1
G1 X244.43Y128.584Z-1
G1 X244.963Y127.98Z-1
G1 X245.345Y127.339Z-1
G1 X245.573Y126.659Z-1
G1 X245.65Y125.942Z-1
G1 X245.65Y107.042Z-1
G1 X245.573Y106.321Z-1
G1 X245.345Y105.632Z-1
G1 X244.963Y104.974Z-1
G1 X244.43Y104.349Z-1
G1 X243.804Y103.838Z-1
G1 X243.147Y103.472Z-1
G1 X242.457Y103.253Z-1
G1 X241.736Y103.18Z-1
G1 X225.221Y103.18Z-1
G1 X223.391Y110.954Z-1
G1 X234.215Y110.954Z-1
G1 X234.215Y122.03Z-1
G1 X228.219Y122.03Z-1
G1 X227.498Y122.106Z-1
G1 X226.809Y122.334Z-1
G1 X226.151Y122.715Z-1
G1 X225.526Y123.249Z-1
G1 X225.014Y123.874Z-1
G1 X224.649Y124.532Z-1
G1 X224.43Y125.221Z-1
G1 X224.357Y125.942Z-1
G1 X224.357Y142.352Z-1
G1 X224.43Y143.07Z-1
G1 X224.649Y143.749Z-1
G1 X225.014Y144.391Z-1
G1 X225.526Y144.994Z-1
G1 X226.151Y145.528Z-1
G1 X226.809Y145.909Z-1
G1 X227.498Y146.137Z-1
G1 X228.219Y146.213Z-1
G1 X245.243Y146.213Z-1
G1 X247.022Y138.44Z-1
G0 Z5
; A - On path (8/25)
G0 Z5
G0 X279.123Y103.18
G0 Z0
G1 F400 X279.123Y103.18Z-0
G1 F1000 X279.123Y103.18Z-0
G1 X279.123Y103.18Z-0
G1 X267.486Y103.18Z-0
G1 X266.825Y106.178Z-0
G1 X266.724Y106.28Z-0
G1 X259.406Y106.28Z-0
G1 X258.695Y103.181Z-0
G1 X247.058Y103.181Z-0
G1 X255.341Y138.44Z-0
G1 X251.479Y138.44Z-0
G1 X253.257Y146.214Z-0
G1 X268.96Y146.214Z-0
G1 X279.123Y103.18Z-0
G0 Z5
G0 X279.123Y103.18
G0 Z0
G1 F400 X279.123Y103.18Z-1
G1 F1000 X279.123Y103.18Z-1
G1 X279.123Y103.18Z-1
G1 X267.486Y103.18Z-1
G1 X266.825Y106.178Z-1
G1 X266.724Y106.28Z-1
G1 X259.406Y106.28Z-1
G1 X258.695Y103.181Z-1
G1 X247.058Y103.181Z-1
G1 X255.341Y138.44Z-1
G1 X251.479Y138.44Z-1
G1 X253.257Y146.214Z-1
G1 X268.96Y146.214Z-1
G1 X279.123Y103.18Z-1
G0 Z5
G0 X264.945Y114.053
G0 Z0
G1 F400 X264.945Y114.053Z-0
G1 F1000 X264.945Y114.053Z-0
G1 X264.945Y114.053Z-0
G1 X263.065Y121.826Z-0
G1 X261.236Y114.053Z-0
G1 X264.945Y114.053Z-0
G0 Z5
G0 X264.945Y114.053
G0 Z0
G1 F400 X264.945Y114.053Z-1
G1 F1000 X264.945Y114.053Z-1
G1 X264.945Y114.053Z-1
G1 X263.065Y121.826Z-1
G1 X261.236Y114.053Z-1
G1 X264.945Y114.053Z-1
G0 Z5
; L - On path (9/25)
G0 Z5
G0 X299.445Y110.954
G0 Z0
G1 F400 X299.445Y110.954Z-0
G1 F1000 X299.445Y110.954Z-0
G1 X297.616Y103.18Z-0
G1 X281.049Y103.18Z-0
G1 X281.049Y146.213Z-0
G1 X292.483Y146.213Z-0
G1 X292.483Y110.954Z-0
G1 X299.445Y110.954Z-0
G0 Z5
G0 X299.445Y110.954
G0 Z0
G1 F400 X299.445Y110.954Z-1
G1 F1000 X299.445Y110.954Z-1
G1 X297.616Y103.18Z-1
G1 X281.049Y103.18Z-1
G1 X281.049Y146.213Z-1
G1 X292.483Y146.213Z-1
G1 X292.483Y110.954Z-1
G1 X299.445Y110.954Z-1
G0 Z5
; G - On path (10/25)
G0 Z5
G0 X93.803Y56.235
G0 Z0
G1 F400 X93.803Y56.235Z-0
G1 F1000 X93.803Y56.235Z-0
G1 X93.724Y55.514Z-0
G1 X93.485Y54.825Z-0
G1 X93.088Y54.168Z-0
G1 X92.532Y53.542Z-0
G1 X91.907Y53.031Z-0
G1 X91.249Y52.666Z-0
G1 X90.56Y52.447Z-0
G1 X89.839Y52.374Z-0
G1 X72.409Y52.374Z-0
G1 X71.688Y52.447Z-0
G1 X70.998Y52.666Z-0
G1 X70.341Y53.031Z-0
G1 X69.715Y53.542Z-0
G1 X69.204Y54.168Z-0
G1 X68.839Y54.825Z-0
G1 X68.619Y55.514Z-0
G1 X68.546Y56.235Z-0
G1 X68.546Y91.546Z-0
G1 X68.619Y92.263Z-0
G1 X68.839Y92.943Z-0
G1 X69.204Y93.584Z-0
G1 X69.715Y94.188Z-0
G1 X70.341Y94.721Z-0
G1 X70.998Y95.102Z-0
G1 X71.688Y95.331Z-0
G1 X72.409Y95.407Z-0
G1 X90.805Y95.407Z-0
G1 X92.583Y87.633Z-0
G1 X79.93Y87.633Z-0
G1 X79.93Y60.147Z-0
G1 X82.318Y60.147Z-0
G1 X82.318Y78.336Z-0
G1 X93.803Y78.336Z-0
G1 X93.803Y56.235Z-0
G0 Z5
G0 X93.803Y56.235
G0 Z0
G1 F400 X93.803Y56.235Z-1
G1 F1000 X93.803Y56.235Z-1
G1 X93.724Y55.514Z-1
G1 X93.485Y54.825Z-1
G1 X93.088Y54.168Z-1
G1 X92.532Y53.542Z-1
G1 X91.907Y53.031Z-1
G1 X91.249Y52.666Z-1
G1 X90.56Y52.447Z-1
G1 X89.839Y52.374Z-1
G1 X72.409Y52.374Z-1
G1 X71.688Y52.447Z-1
G1 X70.998Y52.666Z-1
G1 X70.341Y53.031Z-1
G1 X69.715Y53.542Z-1
G1 X69.204Y54.168Z-1
G1 X68.839Y54.825Z-1
G1 X68.619Y55.514Z-1
G1 X68.546Y56.235Z-1
G1 X68.546Y91.546Z-1
G1 X68.619Y92.263Z-1
G1 X68.839Y92.943Z-1
G1 X69.204Y93.584Z-1
G1 X69.715Y94.188Z-1
G1 X70.341Y94.721Z-1
G1 X70.998Y95.102Z-1
G1 X71.688Y95.331Z-1
G1 X72.409Y95.407Z-1
G1 X90.805Y95.407Z-1
G1 X92.583Y87.633Z-1
G1 X79.93Y87.633Z-1
G1 X79.93Y60.147Z-1
G1 X82.318Y60.147Z-1
G1 X82.318Y78.336Z-1
G1 X93.803Y78.336Z-1
G1 X93.803Y56.235Z-1
G0 Z5
; - - On path (11/25)
G0 Z5
G0 X110.227Y67.971
G0 Z0
G1 F400 X110.227Y67.971Z-0
G1 F1000 X110.227Y67.971Z-0
G1 X110.227Y67.971Z-0
G1 X95.643Y67.971Z-0
G1 X95.643Y79.708Z-0
G1 X110.227Y79.708Z-0
G1 X110.227Y67.971Z-0
G0 Z5
G0 X110.227Y67.971
G0 Z0
G1 F400 X110.227Y67.971Z-1
G1 F1000 X110.227Y67.971Z-1
G1 X110.227Y67.971Z-1
G1 X95.643Y67.971Z-1
G1 X95.643Y79.708Z-1
G1 X110.227Y79.708Z-1
G1 X110.227Y67.971Z-1
G0 Z5
; C - On path (12/25)
G0 Z5
G0 X132.499Y52.374
G0 Z0
G1 F400 X132.499Y52.374Z-0
G1 F1000 X132.499Y52.374Z-0
G1 X132.499Y52.374Z-0
G1 X115.882Y52.374Z-0
G1 X115.161Y52.447Z-0
G1 X114.472Y52.666Z-0
G1 X113.814Y53.031Z-0
G1 X113.188Y53.542Z-0
G1 X112.677Y54.168Z-0
G1 X112.312Y54.825Z-0
G1 X112.093Y55.514Z-0
G1 X112.02Y56.235Z-0
G1 X112.02Y91.545Z-0
G1 X112.093Y92.263Z-0
G1 X112.312Y92.943Z-0
G1 X112.677Y93.584Z-0
G1 X113.188Y94.187Z-0
G1 X113.814Y94.721Z-0
G1 X114.472Y95.102Z-0
G1 X115.161Y95.331Z-0
G1 X115.882Y95.407Z-0
G1 X132.499Y95.407Z-0
G1 X132.499Y87.633Z-0
G1 X123.454Y87.633Z-0
G1 X123.454Y60.147Z-0
G1 X132.499Y60.147Z-0
G1 X132.499Y52.374Z-0
G0 Z5
G0 X132.499Y52.374
G0 Z0
G1 F400 X132.499Y52.374Z-1
G1 F1000 X132.499Y52.374Z-1
G1 X132.499Y52.374Z-1
G1 X115.882Y52.374Z-1
G1 X115.161Y52.447Z-1
G1 X114.472Y52.666Z-1
G1 X113.814Y53.031Z-1
G1 X113.188Y53.542Z-1
G1 X112.677Y54.168Z-1
G1 X112.312Y54.825Z-1
G1 X112.093Y55.514Z-1
G1 X112.02Y56.235Z-1
G1 X112.02Y91.545Z-1
G1 X112.093Y92.263Z-1
G1 X112.312Y92.943Z-1
G1 X112.677Y93.584Z-1
G1 X113.188Y94.187Z-1
G1 X113.814Y94.721Z-1
G1 X114.472Y95.102Z-1
G1 X115.161Y95.331Z-1
G1 X115.882Y95.407Z-1
G1 X132.499Y95.407Z-1
G1 X132.499Y87.633Z-1
G1 X123.454Y87.633Z-1
G1 X123.454Y60.147Z-1
G1 X132.499Y60.147Z-1
G1 X132.499Y52.374Z-1
G0 Z5
; O - On path (13/25)
G0 Z5
G0 X161.336Y56.235
G0 Z0
G1 F400 X161.336Y56.235Z-0
G1 F1000 X161.336Y56.235Z-0
G1 X161.336Y56.235Z-0
G1 X161.26Y55.514Z-0
G1 X161.031Y54.825Z-0
G1 X160.65Y54.168Z-0
G1 X160.116Y53.542Z-0
G1 X159.491Y53.031Z-0
G1 X158.833Y52.666Z-0
G1 X158.144Y52.447Z-0
G1 X157.423Y52.374Z-0
G1 X138.214Y52.374Z-0
G1 X137.493Y52.447Z-0
G1 X136.804Y52.666Z-0
G1 X136.146Y53.031Z-0
G1 X135.52Y53.542Z-0
G1 X135.009Y54.168Z-0
G1 X134.644Y54.825Z-0
G1 X134.425Y55.514Z-0
G1 X134.352Y56.235Z-0
G1 X134.352Y91.546Z-0
G1 X134.425Y92.263Z-0
G1 X134.644Y92.943Z-0
G1 X135.009Y93.584Z-0
G1 X135.52Y94.188Z-0
G1 X136.146Y94.721Z-0
G1 X136.804Y95.102Z-0
G1 X137.493Y95.331Z-0
G1 X138.214Y95.407Z-0
G1 X157.423Y95.407Z-0
G1 X158.144Y95.331Z-0
G1 X158.833Y95.102Z-0
G1 X159.491Y94.721Z-0
G1 X160.116Y94.188Z-0
G1 X160.65Y93.584Z-0
G1 X161.031Y92.943Z-0
G1 X161.26Y92.263Z-0
G1 X161.336Y91.546Z-0
G1 X161.336Y56.235Z-0
G0 Z5
G0 X161.336Y56.235
G0 Z0
G1 F400 X161.336Y56.235Z-1
G1 F1000 X161.336Y56.235Z-1
G1 X161.336Y56.235Z-1
G1 X161.26Y55.514Z-1
G1 X161.031Y54.825Z-1
G1 X160.65Y54.168Z-1
G1 X160.116Y53.542Z-1
G1 X159.491Y53.031Z-1
G1 X158.833Y52.666Z-1
G1 X158.144Y52.447Z-1
G1 X157.423Y52.374Z-1
G1 X138.214Y52.374Z-1
G1 X137.493Y52.447Z-1
G1 X136.804Y52.666Z-1
G1 X136.146Y53.031Z-1
G1 X135.52Y53.542Z-1
G1 X135.009Y54.168Z-1
G1 X134.644Y54.825Z-1
G1 X134.425Y55.514Z-1
G1 X134.352Y56.235Z-1
G1 X134.352Y91.546Z-1
G1 X134.425Y92.263Z-1
G1 X134.644Y92.943Z-1
G1 X135.009Y93.584Z-1
G1 X135.52Y94.188Z-1
G1 X136.146Y94.721Z-1
G1 X136.804Y95.102Z-1
G1 X137.493Y95.331Z-1
G1 X138.214Y95.407Z-1
G1 X157.423Y95.407Z-1
G1 X158.144Y95.331Z-1
G1 X158.833Y95.102Z-1
G1 X159.491Y94.721Z-1
G1 X160.116Y94.188Z-1
G1 X160.65Y93.584Z-1
G1 X161.031Y92.943Z-1
G1 X161.26Y92.263Z-1
G1 X161.336Y91.546Z-1
G1 X161.336Y56.235Z-1
G0 Z5
G0 X149.851Y60.147
G0 Z0
G1 F400 X149.851Y60.147Z-0
G1 F1000 X149.851Y60.147Z-0
G1 X149.851Y60.147Z-0
G1 X149.851Y87.633Z-0
G1 X145.735Y87.633Z-0
G1 X145.735Y60.147Z-0
G1 X149.851Y60.147Z-0
G0 Z5
G0 X149.851Y60.147
G0 Z0
G1 F400 X149.851Y60.147Z-1
G1 F1000 X149.851Y60.147Z-1
G1 X149.851Y60.147Z-1
G1 X149.851Y87.633Z-1
G1 X145.735Y87.633Z-1
G1 X145.735Y60.147Z-1
G1 X149.851Y60.147Z-1
G0 Z5
; D - On path (14/25)
G0 Z5
G0 X190.12Y56.235
G0 Z0
G1 F400 X190.12Y56.235Z-0
G1 F1000 X190.12Y56.235Z-0
G1 X190.12Y56.235Z-0
G1 X190.043Y55.514Z-0
G1 X189.815Y54.825Z-0
G1 X189.434Y54.168Z-0
G1 X188.9Y53.542Z-0
G1 X188.274Y53.031Z-0
G1 X187.617Y52.666Z-0
G1 X186.928Y52.447Z-0
G1 X186.207Y52.374Z-0
G1 X163.135Y52.374Z-0
G1 X163.135Y95.407Z-0
G1 X186.207Y95.407Z-0
G1 X186.928Y95.331Z-0
G1 X187.617Y95.102Z-0
G1 X188.274Y94.721Z-0
G1 X188.9Y94.188Z-0
G1 X189.434Y93.584Z-0
G1 X189.815Y92.943Z-0
G1 X190.043Y92.263Z-0
G1 X190.12Y91.546Z-0
G1 X190.12Y56.235Z-0
G0 Z5
G0 X190.12Y56.235
G0 Z0
G1 F400 X190.12Y56.235Z-1
G1 F1000 X190.12Y56.235Z-1
G1 X190.12Y56.235Z-1
G1 X190.043Y55.514Z-1
G1 X189.815Y54.825Z-1
G1 X189.434Y54.168Z-1
G1 X188.9Y53.542Z-1
G1 X188.274Y53.031Z-1
G1 X187.617Y52.666Z-1
G1 X186.928Y52.447Z-1
G1 X186.207Y52.374Z-1
G1 X163.135Y52.374Z-1
G1 X163.135Y95.407Z-1
G1 X186.207Y95.407Z-1
G1 X186.928Y95.331Z-1
G1 X187.617Y95.102Z-1
G1 X188.274Y94.721Z-1
G1 X188.9Y94.188Z-1
G1 X189.434Y93.584Z-1
G1 X189.815Y92.943Z-1
G1 X190.043Y92.263Z-1
G1 X190.12Y91.546Z-1
G1 X190.12Y56.235Z-1
G0 Z5
G0 X178.635Y60.147
G0 Z0
G1 F400 X178.635Y60.147Z-0
G1 F1000 X178.635Y60.147Z-0
G1 X178.635Y60.147Z-0
G1 X178.635Y87.633Z-0
G1 X174.519Y87.633Z-0
G1 X174.519Y60.147Z-0
G1 X178.635Y60.147Z-0
G0 Z5
G0 X178.635Y60.147
G0 Z0
G1 F400 X178.635Y60.147Z-1
G1 F1000 X178.635Y60.147Z-1
G1 X178.635Y60.147Z-1
G1 X178.635Y87.633Z-1
G1 X174.519Y87.633Z-1
G1 X174.519Y60.147Z-1
G1 X178.635Y60.147Z-1
G0 Z5
; E - On path (15/25)
G0 Z5
G0 X210.467Y60.147
G0 Z0
G1 F400 X210.467Y60.147Z-0
G1 F1000 X210.467Y60.147Z-0
G1 X210.467Y60.147Z-0
G1 X208.587Y52.374Z-0
G1 X191.919Y52.374Z-0
G1 X191.919Y95.407Z-0
G1 X208.587Y95.407Z-0
G1 X210.467Y87.633Z-0
G1 X203.404Y87.633Z-0
G1 X203.404Y78.996Z-0
G1 X210.213Y78.996Z-0
G1 X210.213Y71.223Z-0
G1 X203.404Y71.223Z-0
G1 X203.404Y60.147Z-0
G1 X210.467Y60.147Z-0
G0 Z5
G0 X210.467Y60.147
G0 Z0
G1 F400 X210.467Y60.147Z-1
G1 F1000 X210.467Y60.147Z-1
G1 X210.467Y60.147Z-1
G1 X208.587Y52.374Z-1
G1 X191.919Y52.374Z-1
G1 X191.919Y95.407Z-1
G1 X208.587Y95.407Z-1
G1 X210.467Y87.633Z-1
G1 X203.404Y87.633Z-1
G1 X203.404Y78.996Z-1
G1 X210.213Y78.996Z-1
G1 X210.213Y71.223Z-1
G1 X203.404Y71.223Z-1
G1 X203.404Y60.147Z-1
G1 X210.467Y60.147Z-1
G0 Z5
; S - On path (16/25)
G0 Z5
G0 X92.177Y36.827
G0 Z0
G1 F400 X92.177Y36.827Z-0
G1 F1000 X92.177Y36.827Z-0
G1 X92.177Y36.827Z-0
G1 X80.895Y36.827Z-0
G1 X80.895Y28.19Z-0
G1 X86.892Y28.19Z-0
G1 X87.613Y28.113Z-0
G1 X88.302Y27.885Z-0
G1 X88.959Y27.504Z-0
G1 X89.585Y26.97Z-0
G1 X90.119Y26.367Z-0
G1 X90.5Y25.725Z-0
G1 X90.728Y25.046Z-0
G1 X90.805Y24.328Z-0
G1 X90.805Y5.428Z-0
G1 X90.728Y4.707Z-0
G1 X90.5Y4.018Z-0
G1 X90.119Y3.361Z-0
G1 X89.585Y2.735Z-0
G1 X88.959Y2.224Z-0
G1 X88.302Y1.859Z-0
G1 X87.613Y1.64Z-0
G1 X86.892Y1.567Z-0
G1 X70.376Y1.567Z-0
G1 X68.546Y9.34Z-0
G1 X79.371Y9.34Z-0
G1 X79.371Y20.416Z-0
G1 X73.374Y20.416Z-0
G1 X72.653Y20.492Z-0
G1 X71.964Y20.721Z-0
G1 X71.306Y21.102Z-0
G1 X70.681Y21.636Z-0
G1 X70.169Y22.261Z-0
G1 X69.804Y22.918Z-0
G1 X69.585Y23.608Z-0
G1 X69.512Y24.328Z-0
G1 X69.512Y40.739Z-0
G1 X69.585Y41.457Z-0
G1 X69.804Y42.136Z-0
G1 X70.169Y42.778Z-0
G1 X70.681Y43.381Z-0
G1 X71.306Y43.914Z-0
G1 X71.964Y44.295Z-0
G1 X72.653Y44.524Z-0
G1 X73.374Y44.6Z-0
G1 X90.398Y44.6Z-0
G1 X92.177Y36.827Z-0
G0 Z5
G0 X92.177Y36.827
G0 Z0
G1 F400 X92.177Y36.827Z-1
G1 F1000 X92.177Y36.827Z-1
G1 X92.177Y36.827Z-1
G1 X80.895Y36.827Z-1
G1 X80.895Y28.19Z-1
G1 X86.892Y28.19Z-1
G1 X87.613Y28.113Z-1
G1 X88.302Y27.885Z-1
G1 X88.959Y27.504Z-1
G1 X89.585Y26.97Z-1
G1 X90.119Y26.367Z-1
G1 X90.5Y25.725Z-1
G1 X90.728Y25.046Z-1
G1 X90.805Y24.328Z-1
G1 X90.805Y5.428Z-1
G1 X90.728Y4.707Z-1
G1 X90.5Y4.018Z-1
G1 X90.119Y3.361Z-1
G1 X89.585Y2.735Z-1
G1 X88.959Y2.224Z-1
G1 X88.302Y1.859Z-1
G1 X87.613Y1.64Z-1
G1 X86.892Y1.567Z-1
G1 X70.376Y1.567Z-1
G1 X68.546Y9.34Z-1
G1 X79.371Y9.34Z-1
G1 X79.371Y20.416Z-1
G1 X73.374Y20.416Z-1
G1 X72.653Y20.492Z-1
G1 X71.964Y20.721Z-1
G1 X71.306Y21.102Z-1
G1 X70.681Y21.636Z-1
G1 X70.169Y22.261Z-1
G1 X69.804Y22.918Z-1
G1 X69.585Y23.608Z-1
G1 X69.512Y24.328Z-1
G1 X69.512Y40.739Z-1
G1 X69.585Y41.457Z-1
G1 X69.804Y42.136Z-1
G1 X70.169Y42.778Z-1
G1 X70.681Y43.381Z-1
G1 X71.306Y43.914Z-1
G1 X71.964Y44.295Z-1
G1 X72.653Y44.524Z-1
G1 X73.374Y44.6Z-1
G1 X90.398Y44.6Z-1
G1 X92.177Y36.827Z-1
G0 Z5
; E - On path (17/25)
G0 Z5
G0 X112.603Y9.34
G0 Z0
G1 F400 X112.603Y9.34Z-0
G1 F1000 X112.603Y9.34Z-0
G1 X112.603Y9.34Z-0
G1 X110.723Y1.567Z-0
G1 X94.055Y1.567Z-0
G1 X94.055Y44.6Z-0
G1 X110.723Y44.6Z-0
G1 X112.603Y36.827Z-0
G1 X105.539Y36.827Z-0
G1 X105.539Y28.19Z-0
G1 X112.349Y28.19Z-0
G1 X112.349Y20.416Z-0
G1 X105.539Y20.416Z-0
G1 X105.539Y9.34Z-0
G1 X112.603Y9.34Z-0
G0 Z5
G0 X112.603Y9.34
G0 Z0
G1 F400 X112.603Y9.34Z-1
G1 F1000 X112.603Y9.34Z-1
G1 X112.603Y9.34Z-1
G1 X110.723Y1.567Z-1
G1 X94.055Y1.567Z-1
G1 X94.055Y44.6Z-1
G1 X110.723Y44.6Z-1
G1 X112.603Y36.827Z-1
G1 X105.539Y36.827Z-1
G1 X105.539Y28.19Z-1
G1 X112.349Y28.19Z-1
G1 X112.349Y20.416Z-1
G1 X105.539Y20.416Z-1
G1 X105.539Y9.34Z-1
G1 X112.603Y9.34Z-1
G0 Z5
; N - On path (18/25)
G0 Z5
G0 X141.437Y1.567
G0 Z0
G1 F400 X141.437Y1.567Z-0
G1 F1000 X141.437Y1.567Z-0
G1 X141.437Y1.567Z-0
G1 X129.952Y1.567Z-0
G1 X129.952Y36.522Z-0
G1 X125.836Y36.522Z-0
G1 X125.836Y1.567Z-0
G1 X114.402Y1.567Z-0
G1 X114.402Y44.6Z-0
G1 X125.836Y44.6Z-0
G1 X125.836Y41.755Z-0
G1 X126.407Y42.835Z-0
G1 X127.309Y43.736Z-0
G1 X127.853Y44.114Z-0
G1 X128.415Y44.384Z-0
G1 X128.996Y44.546Z-0
G1 X129.596Y44.6Z-0
G1 X137.524Y44.6Z-0
G1 X138.245Y44.524Z-0
G1 X138.934Y44.295Z-0
G1 X139.591Y43.914Z-0
G1 X140.217Y43.381Z-0
G1 X140.751Y42.777Z-0
G1 X141.132Y42.136Z-0
G1 X141.361Y41.456Z-0
G1 X141.437Y40.739Z-0
G1 X141.437Y1.567Z-0
G0 Z5
G0 X141.437Y1.567
G0 Z0
G1 F400 X141.437Y1.567Z-1
G1 F1000 X141.437Y1.567Z-1
G1 X141.437Y1.567Z-1
G1 X129.952Y1.567Z-1
G1 X129.952Y36.522Z-1
G1 X125.836Y36.522Z-1
G1 X125.836Y1.567Z-1
G1 X114.402Y1.567Z-1
G1 X114.402Y44.6Z-1
G1 X125.836Y44.6Z-1
G1 X125.836Y41.755Z-1
G1 X126.407Y42.835Z-1
G1 X127.309Y43.736Z-1
G1 X127.853Y44.114Z-1
G1 X128.415Y44.384Z-1
G1 X128.996Y44.546Z-1
G1 X129.596Y44.6Z-1
G1 X137.524Y44.6Z-1
G1 X138.245Y44.524Z-1
G1 X138.934Y44.295Z-1
G1 X139.591Y43.914Z-1
G1 X140.217Y43.381Z-1
G1 X140.751Y42.777Z-1
G1 X141.132Y42.136Z-1
G1 X141.361Y41.456Z-1
G1 X141.437Y40.739Z-1
G1 X141.437Y1.567Z-1
G0 Z5
; D - On path (19/25)
G0 Z5
G0 X170.269Y5.428
G0 Z0
G1 F400 X170.269Y5.428Z-0
G1 F1000 X170.269Y5.428Z-0
G1 X170.269Y5.428Z-0
G1 X170.193Y4.707Z-0
G1 X169.964Y4.018Z-0
G1 X169.583Y3.361Z-0
G1 X169.049Y2.735Z-0
G1 X168.424Y2.224Z-0
G1 X167.766Y1.859Z-0
G1 X167.077Y1.64Z-0
G1 X166.356Y1.567Z-0
G1 X143.285Y1.567Z-0
G1 X143.285Y44.6Z-0
G1 X166.356Y44.6Z-0
G1 X167.077Y44.524Z-0
G1 X167.766Y44.295Z-0
G1 X168.424Y43.914Z-0
G1 X169.049Y43.381Z-0
G1 X169.583Y42.777Z-0
G1 X169.964Y42.136Z-0
G1 X170.193Y41.456Z-0
G1 X170.269Y40.739Z-0
G1 X170.269Y5.428Z-0
G0 Z5
G0 X170.269Y5.428
G0 Z0
G1 F400 X170.269Y5.428Z-1
G1 F1000 X170.269Y5.428Z-1
G1 X170.269Y5.428Z-1
G1 X170.193Y4.707Z-1
G1 X169.964Y4.018Z-1
G1 X169.583Y3.361Z-1
G1 X169.049Y2.735Z-1
G1 X168.424Y2.224Z-1
G1 X167.766Y1.859Z-1
G1 X167.077Y1.64Z-1
G1 X166.356Y1.567Z-1
G1 X143.285Y1.567Z-1
G1 X143.285Y44.6Z-1
G1 X166.356Y44.6Z-1
G1 X167.077Y44.524Z-1
G1 X167.766Y44.295Z-1
G1 X168.424Y43.914Z-1
G1 X169.049Y43.381Z-1
G1 X169.583Y42.777Z-1
G1 X169.964Y42.136Z-1
G1 X170.193Y41.456Z-1
G1 X170.269Y40.739Z-1
G1 X170.269Y5.428Z-1
G0 Z5
G0 X158.784Y9.34
G0 Z0
G1 F400 X158.784Y9.34Z-0
G1 F1000 X158.784Y9.34Z-0
G1 X158.784Y9.34Z-0
G1 X158.784Y36.827Z-0
G1 X154.668Y36.827Z-0
G1 X154.668Y9.34Z-0
G1 X158.784Y9.34Z-0
G0 Z5
G0 X158.784Y9.34
G0 Z0
G1 F400 X158.784Y9.34Z-1
G1 F1000 X158.784Y9.34Z-1
G1 X158.784Y9.34Z-1
G1 X158.784Y36.827Z-1
G1 X154.668Y36.827Z-1
G1 X154.668Y9.34Z-1
G1 X158.784Y9.34Z-1
G0 Z5
; E - On path (20/25)
G0 Z5
G0 X190.617Y9.34
G0 Z0
G1 F400 X190.617Y9.34Z-0
G1 F1000 X190.617Y9.34Z-0
G1 X190.617Y9.34Z-0
G1 X188.736Y1.567Z-0
G1 X172.068Y1.567Z-0
G1 X172.068Y44.6Z-0
G1 X188.736Y44.6Z-0
G1 X190.617Y36.827Z-0
G1 X183.553Y36.827Z-0
G1 X183.553Y28.19Z-0
G1 X190.363Y28.19Z-0
G1 X190.363Y20.416Z-0
G1 X183.553Y20.416Z-0
G1 X183.553Y9.34Z-0
G1 X190.617Y9.34Z-0
G0 Z5
G0 X190.617Y9.34
G0 Z0
G1 F400 X190.617Y9.34Z-1
G1 F1000 X190.617Y9.34Z-1
G1 X190.617Y9.34Z-1
G1 X188.736Y1.567Z-1
G1 X172.068Y1.567Z-1
G1 X172.068Y44.6Z-1
G1 X188.736Y44.6Z-1
G1 X190.617Y36.827Z-1
G1 X183.553Y36.827Z-1
G1 X183.553Y28.19Z-1
G1 X190.363Y28.19Z-1
G1 X190.363Y20.416Z-1
G1 X183.553Y20.416Z-1
G1 X183.553Y9.34Z-1
G1 X190.617Y9.34Z-1
G0 Z5
; R - On path (21/25)
G0 Z5
G0 X221.534Y1.567
G0 Z0
G1 F400 X221.534Y1.567Z-0
G1 F1000 X221.534Y1.567Z-0
G1 X221.534Y1.567Z-0
G1 X209.693Y1.567Z-0
G1 X204.053Y18.231Z-0
G1 X203.799Y18.231Z-0
G1 X203.799Y1.567Z-0
G1 X192.415Y1.567Z-0
G1 X192.415Y44.6Z-0
G1 X214.724Y44.6Z-0
G1 X215.442Y44.524Z-0
G1 X216.122Y44.295Z-0
G1 X216.763Y43.914Z-0
G1 X217.367Y43.381Z-0
G1 X217.901Y42.777Z-0
G1 X218.282Y42.136Z-0
G1 X218.51Y41.456Z-0
G1 X218.587Y40.739Z-0
G1 X218.587Y22.093Z-0
G1 X218.536Y21.515Z-0
G1 X218.383Y20.95Z-0
G1 X217.773Y19.857Z-0
G1 X216.884Y18.994Z-0
G1 X215.842Y18.435Z-0
G1 X221.534Y1.567Z-0
G0 Z5
G0 X221.534Y1.567
G0 Z0
G1 F400 X221.534Y1.567Z-1
G1 F1000 X221.534Y1.567Z-1
G1 X221.534Y1.567Z-1
G1 X209.693Y1.567Z-1
G1 X204.053Y18.231Z-1
G1 X203.799Y18.231Z-1
G1 X203.799Y1.567Z-1
G1 X192.415Y1.567Z-1
G1 X192.415Y44.6Z-1
G1 X214.724Y44.6Z-1
G1 X215.442Y44.524Z-1
G1 X216.122Y44.295Z-1
G1 X216.763Y43.914Z-1
G1 X217.367Y43.381Z-1
G1 X217.901Y42.777Z-1
G1 X218.282Y42.136Z-1
G1 X218.51Y41.456Z-1
G1 X218.587Y40.739Z-1
G1 X218.587Y22.093Z-1
G1 X218.536Y21.515Z-1
G1 X218.383Y20.95Z-1
G1 X217.773Y19.857Z-1
G1 X216.884Y18.994Z-1
G1 X215.842Y18.435Z-1
G1 X221.534Y1.567Z-1
G0 Z5
G0 X208.169Y26.056
G0 Z0
G1 F400 X208.169Y26.056Z-0
G1 F1000 X208.169Y26.056Z-0
G1 X208.169Y26.056Z-0
G1 X208.169Y36.827Z-0
G1 X203.798Y36.827Z-0
G1 X203.798Y26.056Z-0
G1 X208.169Y26.056Z-0
G0 Z5
G0 X208.169Y26.056
G0 Z0
G1 F400 X208.169Y26.056Z-1
G1 F1000 X208.169Y26.056Z-1
G1 X208.169Y26.056Z-1
G1 X208.169Y36.827Z-1
G1 X203.798Y36.827Z-1
G1 X203.798Y26.056Z-1
G1 X208.169Y26.056Z-1
G0 Z5
; Tool outline - On path (22/25)
G0 Z5
G0 X29.172Y145.455
G0 Z0
G1 F400 X29.172Y145.455Z-0
G1 F1000 X29.172Y145.455Z-0
G1 X29.172Y145.455Z-0
G1 X0.506Y132.862Z-0
G1 X29.172Y-0.44Z-0
G1 X57.668Y132.862Z-0
G1 X29.172Y145.455Z-0
G0 Z5
G0 X29.172Y145.455
G0 Z0
G1 F400 X29.172Y145.455Z-1
G1 F1000 X29.172Y145.455Z-1
G1 X29.172Y145.455Z-1
G1 X0.506Y132.862Z-1
G1 X29.172Y-0.44Z-1
G1 X57.668Y132.862Z-1
G1 X29.172Y145.455Z-1
G0 Z5
; Tool top - On path (23/25)
G0 Z5
G0 X29.171Y145.453
G0 Z0
G1 F400 X29.171Y145.453Z-0
G1 F1000 X29.171Y145.453Z-0
G1 X29.171Y145.453Z-0
G1 X0.507Y132.861Z-0
G1 X0.541Y132.712Z-0
G1 X7.081Y131.473Z-0
G1 X14.163Y130.572Z-0
G1 X21.64Y130.024Z-0
G1 X29.366Y129.844Z-0
G1 X29.366Y129.844Z-0
G1 X36.945Y130.043Z-0
G1 X44.275Y130.596Z-0
G1 X51.218Y131.489Z-0
G1 X57.635Y132.708Z-0
G1 X57.669Y132.861Z-0
G1 X29.17Y145.453Z-0
G1 X29.171Y145.453Z-0
G0 Z5
G0 X29.171Y145.453
G0 Z0
G1 F400 X29.171Y145.453Z-1
G1 F1000 X29.171Y145.453Z-1
G1 X29.171Y145.453Z-1
G1 X0.507Y132.861Z-1
G1 X0.541Y132.712Z-1
G1 X7.081Y131.473Z-1
G1 X14.163Y130.572Z-1
G1 X21.64Y130.024Z-1
G1 X29.366Y129.844Z-1
G1 X29.366Y129.844Z-1
G1 X36.945Y130.043Z-1
G1 X44.275Y130.596Z-1
G1 X51.218Y131.489Z-1
G1 X57.635Y132.708Z-1
G1 X57.669Y132.861Z-1
G1 X29.17Y145.453Z-1
G1 X29.171Y145.453Z-1
G0 Z5
; Tool highlight - On path (24/25)
G0 Z5
G0 X29.172Y145.455
G0 Z0
G1 F400 X29.172Y145.455Z-0
G1 F1000 X29.172Y145.455Z-0
G1 X29.172Y145.455Z-0
G1 X23.118Y129.826Z-0
G1 X29.172Y-0.44Z-0
G0 Z5
G0 X29.172Y145.455
G0 Z0
G1 F400 X29.172Y145.455Z-1
G1 F1000 X29.172Y145.455Z-1
G1 X29.172Y145.455Z-1
G1 X23.118Y129.826Z-1
G1 X29.172Y-0.44Z-1
G0 Z5
; Tool shadow - On path (25/25)
G0 Z5
G0 X29.172Y-0.44
G0 Z0
G1 F400 X29.172Y-0.44Z-0
G1 F1000 X29.172Y-0.44Z-0
G1 X29.172Y-0.44Z-0
G1 X42.846Y130.648Z-0
G1 X29.172Y145.455Z-0
G0 Z5
G0 X29.172Y-0.44
G0 Z0
G1 F400 X29.172Y-0.44Z-1
G1 F1000 X29.172Y-0.44Z-1
G1 X29.172Y-0.44Z-1
G1 X42.846Y130.648Z-1
G1 X29.172Y145.455Z-1
G0 Z5

; Turning off spindle
M5
