gsw_meta:132                                      
%++++1++%
(1001)++++2++1001
(T12 D=1.4 CR=0 - ZMIN=-1 - flat end mill)++++3++T12 D=1.4 CR=0 - ZMIN=-1 - flat end mill
G90 G94++G90 G94++4++
G17++G17++5++
G21++G21++6++
G28 G91 Z0++G28 G91 Z0++7++
G90++G90++8++
++++9++
(2D Contour1)++++10++2D Contour1
M9++M9++11++
T12 M6++T12 M6++12++
Z10++Z10++13++
G54++G54++14++
M8++M8++15++
G0 X13.86 Y29.12++G0 X13.86 Y29.12++16++
S1000 M3++S1000 M3++17++
Z5++Z5++18++
G1 Z2 F200++G1 Z2 F200++19++
Z-0.86++Z-0.86++20++
G19 G2 Y28.98 Z-1 J-0.14++G19++21++
G19 G2 Y28.98 Z-1 J-0.14++G1X13.86Y28.98Z-1F200.0++21++
G1 Y28.84++G1 Y28.84++22++
G17 G3 X14 Y28.7 I0.14++G17++23++
G17 G3 X14 Y28.7 I0.14++G1X14Y28.7Z-1F200.0++23++
G2 Y-0.7 J-14.7++G1X14.981851716Y28.667173116Z-1F200.0++24++
G2 Y-0.7 J-14.7++G1X15.959318244Y28.568839076Z-1++24++
G2 Y-0.7 J-14.7++G1X16.928033981Y28.405437064Z-1++24++
G2 Y-0.7 J-14.7++G1X17.883672408Y28.177696873Z-1++24++
G2 Y-0.7 J-14.7++G1X18.82196541Y27.886635647Z-1++24++
G2 Y-0.7 J-14.7++G1X19.738722345Y27.533553334Z-1++24++
G2 Y-0.7 J-14.7++G1X20.629848752Y27.120026887Z-1++24++
G2 Y-0.7 J-14.7++G1X21.491364646Y26.647903215Z-1++24++
G2 Y-0.7 J-14.7++G1X22.319422287Y26.119290937Z-1++24++
G2 Y-0.7 J-14.7++G1X23.110323368Y25.536550964Z-1++24++
G2 Y-0.7 J-14.7++G1X23.860535533Y24.902285953Z-1++24++
G2 Y-0.7 J-14.7++G1X24.566708153Y24.219328687Z-1++24++
G2 Y-0.7 J-14.7++G1X25.225687289Y23.490729418Z-1++24++
G2 Y-0.7 J-14.7++G1X25.834529781Y22.719742248Z-1++24++
G2 Y-0.7 J-14.7++G1X26.39051639Y21.909810592Z-1++24++
G2 Y-0.7 J-14.7++G1X26.891163945Y21.064551801Z-1++24++
G2 Y-0.7 J-14.7++G1X27.334236432Y20.187741008Z-1++24++
G2 Y-0.7 J-14.7++G1X27.717754982Y19.283294261Z-1++24++
G2 Y-0.7 J-14.7++G1X28.040006709Y18.355251039Z-1++24++
G2 Y-0.7 J-14.7++G1X28.299552357Y17.407756209Z-1++24++
G2 Y-0.7 J-14.7++G1X28.495232734Y16.445041512Z-1++24++
G2 Y-0.7 J-14.7++G1X28.626173882Y15.471406667Z-1++24++
G2 Y-0.7 J-14.7++G1X28.691790987Y14.491200162Z-1++24++
G2 Y-0.7 J-14.7++G1X28.691790987Y13.508799838Z-1++24++
G2 Y-0.7 J-14.7++G1X28.626173882Y12.528593333Z-1++24++
G2 Y-0.7 J-14.7++G1X28.495232734Y11.554958488Z-1++24++
G2 Y-0.7 J-14.7++G1X28.299552357Y10.592243791Z-1++24++
G2 Y-0.7 J-14.7++G1X28.040006709Y9.644748961Z-1++24++
G2 Y-0.7 J-14.7++G1X27.717754982Y8.716705739Z-1++24++
G2 Y-0.7 J-14.7++G1X27.334236432Y7.812258992Z-1++24++
G2 Y-0.7 J-14.7++G1X26.891163945Y6.935448199Z-1++24++
G2 Y-0.7 J-14.7++G1X26.39051639Y6.090189408Z-1++24++
G2 Y-0.7 J-14.7++G1X25.834529781Y5.280257752Z-1++24++
G2 Y-0.7 J-14.7++G1X25.225687289Y4.509270582Z-1++24++
G2 Y-0.7 J-14.7++G1X24.566708153Y3.780671313Z-1++24++
G2 Y-0.7 J-14.7++G1X23.860535533Y3.097714047Z-1++24++
G2 Y-0.7 J-14.7++G1X23.110323368Y2.463449036Z-1++24++
G2 Y-0.7 J-14.7++G1X22.319422287Y1.880709063Z-1++24++
G2 Y-0.7 J-14.7++G1X21.491364646Y1.352096785Z-1++24++
G2 Y-0.7 J-14.7++G1X20.629848752Y0.879973113Z-1++24++
G2 Y-0.7 J-14.7++G1X19.738722345Y0.466446666Z-1++24++
G2 Y-0.7 J-14.7++G1X18.82196541Y0.113364353Z-1++24++
G2 Y-0.7 J-14.7++G1X17.883672408Y-0.177696873Z-1++24++
G2 Y-0.7 J-14.7++G1X16.928033981Y-0.405437064Z-1++24++
G2 Y-0.7 J-14.7++G1X15.959318244Y-0.568839076Z-1++24++
G2 Y-0.7 J-14.7++G1X14.981851716Y-0.667173116Z-1++24++
G2 Y-0.7 J-14.7++G1X14Y-0.7Z-1++24++
Y28.7 J14.7++G1X13.018148284Y-0.667173116Z-1F200.0++25++
Y28.7 J14.7++G1X12.040681756Y-0.568839076Z-1++25++
Y28.7 J14.7++G1X11.071966019Y-0.405437064Z-1++25++
Y28.7 J14.7++G1X10.116327592Y-0.177696873Z-1++25++
Y28.7 J14.7++G1X9.17803459Y0.113364353Z-1++25++
Y28.7 J14.7++G1X8.261277655Y0.466446666Z-1++25++
Y28.7 J14.7++G1X7.370151248Y0.879973113Z-1++25++
Y28.7 J14.7++G1X6.508635354Y1.352096785Z-1++25++
Y28.7 J14.7++G1X5.680577713Y1.880709063Z-1++25++
Y28.7 J14.7++G1X4.889676632Y2.463449036Z-1++25++
Y28.7 J14.7++G1X4.139464467Y3.097714047Z-1++25++
Y28.7 J14.7++G1X3.433291847Y3.780671313Z-1++25++
Y28.7 J14.7++G1X2.774312711Y4.509270582Z-1++25++
Y28.7 J14.7++G1X2.165470219Y5.280257752Z-1++25++
Y28.7 J14.7++G1X1.60948361Y6.090189408Z-1++25++
Y28.7 J14.7++G1X1.108836055Y6.935448199Z-1++25++
Y28.7 J14.7++G1X0.665763568Y7.812258992Z-1++25++
Y28.7 J14.7++G1X0.282245018Y8.716705739Z-1++25++
Y28.7 J14.7++G1X-0.040006709Y9.644748961Z-1++25++
Y28.7 J14.7++G1X-0.299552357Y10.592243791Z-1++25++
Y28.7 J14.7++G1X-0.495232734Y11.554958488Z-1++25++
Y28.7 J14.7++G1X-0.626173882Y12.528593333Z-1++25++
Y28.7 J14.7++G1X-0.691790987Y13.508799838Z-1++25++
Y28.7 J14.7++G1X-0.691790987Y14.491200162Z-1++25++
Y28.7 J14.7++G1X-0.626173882Y15.471406667Z-1++25++
Y28.7 J14.7++G1X-0.495232734Y16.445041512Z-1++25++
Y28.7 J14.7++G1X-0.299552357Y17.407756209Z-1++25++
Y28.7 J14.7++G1X-0.040006709Y18.355251039Z-1++25++
Y28.7 J14.7++G1X0.282245018Y19.283294261Z-1++25++
Y28.7 J14.7++G1X0.665763568Y20.187741008Z-1++25++
Y28.7 J14.7++G1X1.108836055Y21.064551801Z-1++25++
Y28.7 J14.7++G1X1.60948361Y21.909810592Z-1++25++
Y28.7 J14.7++G1X2.165470219Y22.719742248Z-1++25++
Y28.7 J14.7++G1X2.774312711Y23.490729418Z-1++25++
Y28.7 J14.7++G1X3.433291847Y24.219328687Z-1++25++
Y28.7 J14.7++G1X4.139464467Y24.902285953Z-1++25++
Y28.7 J14.7++G1X4.889676632Y25.536550964Z-1++25++
Y28.7 J14.7++G1X5.680577713Y26.119290937Z-1++25++
Y28.7 J14.7++G1X6.508635354Y26.647903215Z-1++25++
Y28.7 J14.7++G1X7.370151248Y27.120026887Z-1++25++
Y28.7 J14.7++G1X8.261277655Y27.533553334Z-1++25++
Y28.7 J14.7++G1X9.17803459Y27.886635647Z-1++25++
Y28.7 J14.7++G1X10.116327592Y28.177696873Z-1++25++
Y28.7 J14.7++G1X11.071966019Y28.405437064Z-1++25++
Y28.7 J14.7++G1X12.040681756Y28.568839076Z-1++25++
Y28.7 J14.7++G1X13.018148284Y28.667173116Z-1++25++
Y28.7 J14.7++G1X14Y28.7Z-1++25++
G3 X14.14 Y28.84 J0.14++G1X14.14Y28.84Z-1F200.0++26++
G1 Y28.98++G1 Y28.98++27++
G19 G3 Y29.12 Z-0.86 K0.14++G19++28++
G19 G3 Y29.12 Z-0.86 K0.14++G1X14.14Y29.12Z-0.86F200.0++28++
G0 Z10++G0 Z10++29++
S0 M5++S0 M5++30++
G17++G17++31++
M9++M9++32++
G28 G91 Z0++G28 G91 Z0++33++
G28 X0 Y0++G28 X0 Y0++34++
M30++M30++35++
++++36++
++++37++
