gsw_meta:1030                                     
%++++1++%
(1001)++++2++1001
(T12 D=1.4 CR=0 - ZMIN=-1 - flat end mill)++++3++T12 D=1.4 CR=0 - ZMIN=-1 - flat end mill
G90 G94++G90 G94++4++
G17++G17++5++
G21++G21++6++
G28 G91 Z0++G28 G91 Z0++7++
G90++G90++8++
++++9++
(2D Contour1)++++10++2D Contour1
M9++M9++11++
T12 M6++T12 M6++12++
Z10++G0X0Y0Z1++13++
Z10++G0X0Y0Z2++13++
Z10++G0X0Y0Z3++13++
Z10++G0X0Y0Z4++13++
Z10++G0X0Y0Z5++13++
Z10++G0X0Y0Z6++13++
Z10++G0X0Y0Z7++13++
Z10++G0X0Y0Z8++13++
Z10++G0X0Y0Z9++13++
Z10++G0X0Y0Z10++13++
G54++G54++14++
M8++M8++15++
G0 X13.86 Y29.12++G0X0.42Y0.8824Z10++16++
G0 X13.86 Y29.12++G0X0.84Y1.7648Z10++16++
G0 X13.86 Y29.12++G0X1.26Y2.6473Z10++16++
G0 X13.86 Y29.12++G0X1.68Y3.5297Z10++16++
G0 X13.86 Y29.12++G0X2.1Y4.4121Z10++16++
G0 X13.86 Y29.12++G0X2.52Y5.2945Z10++16++
G0 X13.86 Y29.12++G0X2.94Y6.177Z10++16++
G0 X13.86 Y29.12++G0X3.36Y7.0594Z10++16++
G0 X13.86 Y29.12++G0X3.78Y7.9418Z10++16++
G0 X13.86 Y29.12++G0X4.2Y8.8242Z10++16++
G0 X13.86 Y29.12++G0X4.62Y9.7067Z10++16++
G0 X13.86 Y29.12++G0X5.04Y10.5891Z10++16++
G0 X13.86 Y29.12++G0X5.46Y11.4715Z10++16++
G0 X13.86 Y29.12++G0X5.88Y12.3539Z10++16++
G0 X13.86 Y29.12++G0X6.3Y13.2364Z10++16++
G0 X13.86 Y29.12++G0X6.72Y14.1188Z10++16++
G0 X13.86 Y29.12++G0X7.14Y15.0012Z10++16++
G0 X13.86 Y29.12++G0X7.56Y15.8836Z10++16++
G0 X13.86 Y29.12++G0X7.98Y16.7661Z10++16++
G0 X13.86 Y29.12++G0X8.4Y17.6485Z10++16++
G0 X13.86 Y29.12++G0X8.82Y18.5309Z10++16++
G0 X13.86 Y29.12++G0X9.24Y19.4133Z10++16++
G0 X13.86 Y29.12++G0X9.66Y20.2958Z10++16++
G0 X13.86 Y29.12++G0X10.08Y21.1782Z10++16++
G0 X13.86 Y29.12++G0X10.5Y22.0606Z10++16++
G0 X13.86 Y29.12++G0X10.92Y22.943Z10++16++
G0 X13.86 Y29.12++G0X11.34Y23.8255Z10++16++
G0 X13.86 Y29.12++G0X11.76Y24.7079Z10++16++
G0 X13.86 Y29.12++G0X12.18Y25.5903Z10++16++
G0 X13.86 Y29.12++G0X12.6Y26.4727Z10++16++
G0 X13.86 Y29.12++G0X13.02Y27.3552Z10++16++
G0 X13.86 Y29.12++G0X13.44Y28.2376Z10++16++
G0 X13.86 Y29.12++G0X13.86Y29.12Z10++16++
S1000 M3++S1000 M3++17++
Z5++G0X13.86Y29.12Z9++18++
Z5++G0X13.86Y29.12Z8++18++
Z5++G0X13.86Y29.12Z7++18++
Z5++G0X13.86Y29.12Z6++18++
Z5++G0X13.86Y29.12Z5++18++
G1 Z2 F200++F200++19++
G1 Z2 F200++G1X13.86Y29.12Z4++19++
G1 Z2 F200++G1X13.86Y29.12Z3++19++
G1 Z2 F200++G1X13.86Y29.12Z2++19++
Z-0.86++G1X13.86Y29.12Z1.0467++20++
Z-0.86++G1X13.86Y29.12Z0.0933++20++
Z-0.86++G1X13.86Y29.12Z-0.86++20++
G19 G2 Y28.98 Z-1 J-0.14++G19++21++
G19 G2 Y28.98 Z-1 J-0.14++G1X13.86Y29.101243557Z-0.93F200.0++21++
G19 G2 Y28.98 Z-1 J-0.14++G1X13.86Y29.05Z-0.981243557++21++
G19 G2 Y28.98 Z-1 J-0.14++G1X13.86Y28.98Z-1++21++
G1 Y28.84++G1 Y28.84++22++
G17 G3 X14 Y28.7 I0.14++G17++23++
G17 G3 X14 Y28.7 I0.14++G1X13.878756443Y28.77Z-1F200.0++23++
G17 G3 X14 Y28.7 I0.14++G1X13.93Y28.718756443Z-1++23++
G17 G3 X14 Y28.7 I0.14++G1X14Y28.7Z-1++23++
G2 Y-0.7 J-14.7++G1X14.099958996Y28.699660139Z-1F200.0++24++
G2 Y-0.7 J-14.7++G1X14.19991337Y28.698640571Z-1++24++
G2 Y-0.7 J-14.7++G1X14.2998585Y28.696941344Z-1++24++
G2 Y-0.7 J-14.7++G1X14.399789764Y28.694562537Z-1++24++
G2 Y-0.7 J-14.7++G1X14.499702543Y28.691504258Z-1++24++
G2 Y-0.7 J-14.7++G1X14.599592215Y28.68776665Z-1++24++
G2 Y-0.7 J-14.7++G1X14.699454163Y28.683349886Z-1++24++
G2 Y-0.7 J-14.7++G1X14.799283768Y28.678254169Z-1++24++
G2 Y-0.7 J-14.7++G1X14.899076414Y28.672479736Z-1++24++
G2 Y-0.7 J-14.7++G1X14.998827488Y28.666026853Z-1++24++
G2 Y-0.7 J-14.7++G1X15.098532376Y28.658895819Z-1++24++
G2 Y-0.7 J-14.7++G1X15.198186468Y28.651086963Z-1++24++
G2 Y-0.7 J-14.7++G1X15.297785157Y28.642600646Z-1++24++
G2 Y-0.7 J-14.7++G1X15.397323837Y28.633437262Z-1++24++
G2 Y-0.7 J-14.7++G1X15.496797905Y28.623597233Z-1++24++
G2 Y-0.7 J-14.7++G1X15.596202761Y28.613081015Z-1++24++
G2 Y-0.7 J-14.7++G1X15.69553381Y28.601889094Z-1++24++
G2 Y-0.7 J-14.7++G1X15.794786458Y28.590021987Z-1++24++
G2 Y-0.7 J-14.7++G1X15.893956116Y28.577480243Z-1++24++
G2 Y-0.7 J-14.7++G1X15.993038198Y28.564264442Z-1++24++
G2 Y-0.7 J-14.7++G1X16.092028123Y28.550375196Z-1++24++
G2 Y-0.7 J-14.7++G1X16.190921313Y28.535813146Z-1++24++
G2 Y-0.7 J-14.7++G1X16.289713196Y28.520578965Z-1++24++
G2 Y-0.7 J-14.7++G1X16.388399203Y28.504673359Z-1++24++
G2 Y-0.7 J-14.7++G1X16.486974772Y28.488097062Z-1++24++
G2 Y-0.7 J-14.7++G1X16.585435344Y28.470850842Z-1++24++
G2 Y-0.7 J-14.7++G1X16.683776366Y28.452935495Z-1++24++
G2 Y-0.7 J-14.7++G1X16.781993292Y28.43435185Z-1++24++
G2 Y-0.7 J-14.7++G1X16.88008158Y28.415100766Z-1++24++
G2 Y-0.7 J-14.7++G1X16.978036693Y28.395183134Z-1++24++
G2 Y-0.7 J-14.7++G1X17.075854104Y28.374599874Z-1++24++
G2 Y-0.7 J-14.7++G1X17.173529288Y28.353351938Z-1++24++
G2 Y-0.7 J-14.7++G1X17.271057729Y28.331440309Z-1++24++
G2 Y-0.7 J-14.7++G1X17.368434918Y28.308866Z-1++24++
G2 Y-0.7 J-14.7++G1X17.465656352Y28.285630054Z-1++24++
G2 Y-0.7 J-14.7++G1X17.562717535Y28.261733547Z-1++24++
G2 Y-0.7 J-14.7++G1X17.65961398Y28.237177583Z-1++24++
G2 Y-0.7 J-14.7++G1X17.756341205Y28.211963297Z-1++24++
G2 Y-0.7 J-14.7++G1X17.852894739Y28.186091855Z-1++24++
G2 Y-0.7 J-14.7++G1X17.949270117Y28.159564455Z-1++24++
G2 Y-0.7 J-14.7++G1X18.045462881Y28.132382321Z-1++24++
G2 Y-0.7 J-14.7++G1X18.141468586Y28.104546712Z-1++24++
G2 Y-0.7 J-14.7++G1X18.23728279Y28.076058914Z-1++24++
G2 Y-0.7 J-14.7++G1X18.332901064Y28.046920245Z-1++24++
G2 Y-0.7 J-14.7++G1X18.428318986Y28.017132052Z-1++24++
G2 Y-0.7 J-14.7++G1X18.523532145Y27.986695712Z-1++24++
G2 Y-0.7 J-14.7++G1X18.618536137Y27.955612633Z-1++24++
G2 Y-0.7 J-14.7++G1X18.71332657Y27.923884251Z-1++24++
G2 Y-0.7 J-14.7++G1X18.807899061Y27.891512035Z-1++24++
G2 Y-0.7 J-14.7++G1X18.902249236Y27.858497481Z-1++24++
G2 Y-0.7 J-14.7++G1X18.996372733Y27.824842115Z-1++24++
G2 Y-0.7 J-14.7++G1X19.0902652Y27.790547494Z-1++24++
G2 Y-0.7 J-14.7++G1X19.183922295Y27.755615204Z-1++24++
G2 Y-0.7 J-14.7++G1X19.277339688Y27.720046859Z-1++24++
G2 Y-0.7 J-14.7++G1X19.370513058Y27.683844105Z-1++24++
G2 Y-0.7 J-14.7++G1X19.463438098Y27.647008615Z-1++24++
G2 Y-0.7 J-14.7++G1X19.556110511Y27.609542093Z-1++24++
G2 Y-0.7 J-14.7++G1X19.648526011Y27.571446271Z-1++24++
G2 Y-0.7 J-14.7++G1X19.740680326Y27.532722911Z-1++24++
G2 Y-0.7 J-14.7++G1X19.832569194Y27.493373803Z-1++24++
G2 Y-0.7 J-14.7++G1X19.924188367Y27.453400767Z-1++24++
G2 Y-0.7 J-14.7++G1X20.015533607Y27.412805651Z-1++24++
G2 Y-0.7 J-14.7++G1X20.106600691Y27.371590332Z-1++24++
G2 Y-0.7 J-14.7++G1X20.197385409Y27.329756716Z-1++24++
G2 Y-0.7 J-14.7++G1X20.287883561Y27.287306737Z-1++24++
G2 Y-0.7 J-14.7++G1X20.378090965Y27.244242358Z-1++24++
G2 Y-0.7 J-14.7++G1X20.468003448Y27.200565571Z-1++24++
G2 Y-0.7 J-14.7++G1X20.557616853Y27.156278395Z-1++24++
G2 Y-0.7 J-14.7++G1X20.646927037Y27.111382878Z-1++24++
G2 Y-0.7 J-14.7++G1X20.735929869Y27.065881095Z-1++24++
G2 Y-0.7 J-14.7++G1X20.824621235Y27.019775152Z-1++24++
G2 Y-0.7 J-14.7++G1X20.912997033Y26.973067179Z-1++24++
G2 Y-0.7 J-14.7++G1X21.001053176Y26.925759336Z-1++24++
G2 Y-0.7 J-14.7++G1X21.088785594Y26.877853812Z-1++24++
G2 Y-0.7 J-14.7++G1X21.176190229Y26.829352821Z-1++24++
G2 Y-0.7 J-14.7++G1X21.26326304Y26.780258605Z-1++24++
G2 Y-0.7 J-14.7++G1X21.35Y26.730573436Z-1++24++
G2 Y-0.7 J-14.7++G1X21.436397099Y26.680299609Z-1++24++
G2 Y-0.7 J-14.7++G1X21.522450342Y26.629439451Z-1++24++
G2 Y-0.7 J-14.7++G1X21.60815575Y26.577995312Z-1++24++
G2 Y-0.7 J-14.7++G1X21.69350936Y26.525969572Z-1++24++
G2 Y-0.7 J-14.7++G1X21.778507225Y26.473364636Z-1++24++
G2 Y-0.7 J-14.7++G1X21.863145415Y26.420182937Z-1++24++
G2 Y-0.7 J-14.7++G1X21.947420017Y26.366426933Z-1++24++
G2 Y-0.7 J-14.7++G1X22.031327132Y26.31209911Z-1++24++
G2 Y-0.7 J-14.7++G1X22.114862883Y26.257201981Z-1++24++
G2 Y-0.7 J-14.7++G1X22.198023405Y26.201738083Z-1++24++
G2 Y-0.7 J-14.7++G1X22.280804854Y26.145709982Z-1++24++
G2 Y-0.7 J-14.7++G1X22.363203401Y26.089120269Z-1++24++
G2 Y-0.7 J-14.7++G1X22.445215238Y26.031971559Z-1++24++
G2 Y-0.7 J-14.7++G1X22.526836571Y25.974266495Z-1++24++
G2 Y-0.7 J-14.7++G1X22.608063626Y25.916007746Z-1++24++
G2 Y-0.7 J-14.7++G1X22.688892648Y25.857198006Z-1++24++
G2 Y-0.7 J-14.7++G1X22.769319899Y25.797839993Z-1++24++
G2 Y-0.7 J-14.7++G1X22.84934166Y25.737936453Z-1++24++
G2 Y-0.7 J-14.7++G1X22.928954231Y25.677490156Z-1++24++
G2 Y-0.7 J-14.7++G1X23.008153931Y25.616503895Z-1++24++
G2 Y-0.7 J-14.7++G1X23.086937097Y25.554980493Z-1++24++
G2 Y-0.7 J-14.7++G1X23.165300087Y25.492922792Z-1++24++
G2 Y-0.7 J-14.7++G1X23.243239277Y25.430333664Z-1++24++
G2 Y-0.7 J-14.7++G1X23.320751064Y25.367216001Z-1++24++
G2 Y-0.7 J-14.7++G1X23.397831862Y25.303572722Z-1++24++
G2 Y-0.7 J-14.7++G1X23.474478108Y25.239406771Z-1++24++
G2 Y-0.7 J-14.7++G1X23.550686259Y25.174721115Z-1++24++
G2 Y-0.7 J-14.7++G1X23.626452789Y25.109518743Z-1++24++
G2 Y-0.7 J-14.7++G1X23.701774196Y25.043802672Z-1++24++
G2 Y-0.7 J-14.7++G1X23.776646997Y24.977575939Z-1++24++
G2 Y-0.7 J-14.7++G1X23.851067729Y24.910841608Z-1++24++
G2 Y-0.7 J-14.7++G1X23.925032952Y24.843602764Z-1++24++
G2 Y-0.7 J-14.7++G1X23.998539245Y24.775862516Z-1++24++
G2 Y-0.7 J-14.7++G1X24.07158321Y24.707623996Z-1++24++
G2 Y-0.7 J-14.7++G1X24.144161469Y24.63889036Z-1++24++
G2 Y-0.7 J-14.7++G1X24.216270666Y24.569664786Z-1++24++
G2 Y-0.7 J-14.7++G1X24.287907466Y24.499950475Z-1++24++
G2 Y-0.7 J-14.7++G1X24.359068558Y24.42975065Z-1++24++
G2 Y-0.7 J-14.7++G1X24.42975065Y24.359068558Z-1++24++
G2 Y-0.7 J-14.7++G1X24.499950475Y24.287907466Z-1++24++
G2 Y-0.7 J-14.7++G1X24.569664786Y24.216270666Z-1++24++
G2 Y-0.7 J-14.7++G1X24.63889036Y24.144161469Z-1++24++
G2 Y-0.7 J-14.7++G1X24.707623996Y24.07158321Z-1++24++
G2 Y-0.7 J-14.7++G1X24.775862516Y23.998539245Z-1++24++
G2 Y-0.7 J-14.7++G1X24.843602764Y23.925032952Z-1++24++
G2 Y-0.7 J-14.7++G1X24.910841608Y23.851067729Z-1++24++
G2 Y-0.7 J-14.7++G1X24.977575939Y23.776646997Z-1++24++
G2 Y-0.7 J-14.7++G1X25.043802672Y23.701774196Z-1++24++
G2 Y-0.7 J-14.7++G1X25.109518743Y23.626452789Z-1++24++
G2 Y-0.7 J-14.7++G1X25.174721115Y23.550686259Z-1++24++
G2 Y-0.7 J-14.7++G1X25.239406771Y23.474478108Z-1++24++
G2 Y-0.7 J-14.7++G1X25.303572722Y23.397831862Z-1++24++
G2 Y-0.7 J-14.7++G1X25.367216001Y23.320751064Z-1++24++
G2 Y-0.7 J-14.7++G1X25.430333664Y23.243239277Z-1++24++
G2 Y-0.7 J-14.7++G1X25.492922792Y23.165300087Z-1++24++
G2 Y-0.7 J-14.7++G1X25.554980493Y23.086937097Z-1++24++
G2 Y-0.7 J-14.7++G1X25.616503895Y23.008153931Z-1++24++
G2 Y-0.7 J-14.7++G1X25.677490156Y22.928954231Z-1++24++
G2 Y-0.7 J-14.7++G1X25.737936453Y22.84934166Z-1++24++
G2 Y-0.7 J-14.7++G1X25.797839993Y22.769319899Z-1++24++
G2 Y-0.7 J-14.7++G1X25.857198006Y22.688892648Z-1++24++
G2 Y-0.7 J-14.7++G1X25.916007746Y22.608063626Z-1++24++
G2 Y-0.7 J-14.7++G1X25.974266495Y22.526836571Z-1++24++
G2 Y-0.7 J-14.7++G1X26.031971559Y22.445215238Z-1++24++
G2 Y-0.7 J-14.7++G1X26.089120269Y22.363203401Z-1++24++
G2 Y-0.7 J-14.7++G1X26.145709982Y22.280804854Z-1++24++
G2 Y-0.7 J-14.7++G1X26.201738083Y22.198023405Z-1++24++
G2 Y-0.7 J-14.7++G1X26.257201981Y22.114862883Z-1++24++
G2 Y-0.7 J-14.7++G1X26.31209911Y22.031327132Z-1++24++
G2 Y-0.7 J-14.7++G1X26.366426933Y21.947420017Z-1++24++
G2 Y-0.7 J-14.7++G1X26.420182937Y21.863145415Z-1++24++
G2 Y-0.7 J-14.7++G1X26.473364636Y21.778507225Z-1++24++
G2 Y-0.7 J-14.7++G1X26.525969572Y21.69350936Z-1++24++
G2 Y-0.7 J-14.7++G1X26.577995312Y21.60815575Z-1++24++
G2 Y-0.7 J-14.7++G1X26.629439451Y21.522450342Z-1++24++
G2 Y-0.7 J-14.7++G1X26.680299609Y21.436397099Z-1++24++
G2 Y-0.7 J-14.7++G1X26.730573436Y21.35Z-1++24++
G2 Y-0.7 J-14.7++G1X26.780258605Y21.26326304Z-1++24++
G2 Y-0.7 J-14.7++G1X26.829352821Y21.176190229Z-1++24++
G2 Y-0.7 J-14.7++G1X26.877853812Y21.088785594Z-1++24++
G2 Y-0.7 J-14.7++G1X26.925759336Y21.001053176Z-1++24++
G2 Y-0.7 J-14.7++G1X26.973067179Y20.912997033Z-1++24++
G2 Y-0.7 J-14.7++G1X27.019775152Y20.824621235Z-1++24++
G2 Y-0.7 J-14.7++G1X27.065881095Y20.735929869Z-1++24++
G2 Y-0.7 J-14.7++G1X27.111382878Y20.646927037Z-1++24++
G2 Y-0.7 J-14.7++G1X27.156278395Y20.557616853Z-1++24++
G2 Y-0.7 J-14.7++G1X27.200565571Y20.468003448Z-1++24++
G2 Y-0.7 J-14.7++G1X27.244242358Y20.378090965Z-1++24++
G2 Y-0.7 J-14.7++G1X27.287306737Y20.287883561Z-1++24++
G2 Y-0.7 J-14.7++G1X27.329756716Y20.197385409Z-1++24++
G2 Y-0.7 J-14.7++G1X27.371590332Y20.106600691Z-1++24++
G2 Y-0.7 J-14.7++G1X27.412805651Y20.015533607Z-1++24++
G2 Y-0.7 J-14.7++G1X27.453400767Y19.924188367Z-1++24++
G2 Y-0.7 J-14.7++G1X27.493373803Y19.832569194Z-1++24++
G2 Y-0.7 J-14.7++G1X27.532722911Y19.740680326Z-1++24++
G2 Y-0.7 J-14.7++G1X27.571446271Y19.648526011Z-1++24++
G2 Y-0.7 J-14.7++G1X27.609542093Y19.556110511Z-1++24++
G2 Y-0.7 J-14.7++G1X27.647008615Y19.463438098Z-1++24++
G2 Y-0.7 J-14.7++G1X27.683844105Y19.370513058Z-1++24++
G2 Y-0.7 J-14.7++G1X27.720046859Y19.277339688Z-1++24++
G2 Y-0.7 J-14.7++G1X27.755615204Y19.183922295Z-1++24++
G2 Y-0.7 J-14.7++G1X27.790547494Y19.0902652Z-1++24++
G2 Y-0.7 J-14.7++G1X27.824842115Y18.996372733Z-1++24++
G2 Y-0.7 J-14.7++G1X27.858497481Y18.902249236Z-1++24++
G2 Y-0.7 J-14.7++G1X27.891512035Y18.807899061Z-1++24++
G2 Y-0.7 J-14.7++G1X27.923884251Y18.71332657Z-1++24++
G2 Y-0.7 J-14.7++G1X27.955612633Y18.618536137Z-1++24++
G2 Y-0.7 J-14.7++G1X27.986695712Y18.523532145Z-1++24++
G2 Y-0.7 J-14.7++G1X28.017132052Y18.428318986Z-1++24++
G2 Y-0.7 J-14.7++G1X28.046920245Y18.332901064Z-1++24++
G2 Y-0.7 J-14.7++G1X28.076058914Y18.23728279Z-1++24++
G2 Y-0.7 J-14.7++G1X28.104546712Y18.141468586Z-1++24++
G2 Y-0.7 J-14.7++G1X28.132382321Y18.045462881Z-1++24++
G2 Y-0.7 J-14.7++G1X28.159564455Y17.949270117Z-1++24++
G2 Y-0.7 J-14.7++G1X28.186091855Y17.852894739Z-1++24++
G2 Y-0.7 J-14.7++G1X28.211963297Y17.756341205Z-1++24++
G2 Y-0.7 J-14.7++G1X28.237177583Y17.65961398Z-1++24++
G2 Y-0.7 J-14.7++G1X28.261733547Y17.562717535Z-1++24++
G2 Y-0.7 J-14.7++G1X28.285630054Y17.465656352Z-1++24++
G2 Y-0.7 J-14.7++G1X28.308866Y17.368434918Z-1++24++
G2 Y-0.7 J-14.7++G1X28.331440309Y17.271057729Z-1++24++
G2 Y-0.7 J-14.7++G1X28.353351938Y17.173529288Z-1++24++
G2 Y-0.7 J-14.7++G1X28.374599874Y17.075854104Z-1++24++
G2 Y-0.7 J-14.7++G1X28.395183134Y16.978036693Z-1++24++
G2 Y-0.7 J-14.7++G1X28.415100766Y16.88008158Z-1++24++
G2 Y-0.7 J-14.7++G1X28.43435185Y16.781993292Z-1++24++
G2 Y-0.7 J-14.7++G1X28.452935495Y16.683776366Z-1++24++
G2 Y-0.7 J-14.7++G1X28.470850842Y16.585435344Z-1++24++
G2 Y-0.7 J-14.7++G1X28.488097062Y16.486974772Z-1++24++
G2 Y-0.7 J-14.7++G1X28.504673359Y16.388399203Z-1++24++
G2 Y-0.7 J-14.7++G1X28.520578965Y16.289713196Z-1++24++
G2 Y-0.7 J-14.7++G1X28.535813146Y16.190921313Z-1++24++
G2 Y-0.7 J-14.7++G1X28.550375196Y16.092028123Z-1++24++
G2 Y-0.7 J-14.7++G1X28.564264442Y15.993038198Z-1++24++
G2 Y-0.7 J-14.7++G1X28.577480243Y15.893956116Z-1++24++
G2 Y-0.7 J-14.7++G1X28.590021987Y15.794786458Z-1++24++
G2 Y-0.7 J-14.7++G1X28.601889094Y15.69553381Z-1++24++
G2 Y-0.7 J-14.7++G1X28.613081015Y15.596202761Z-1++24++
G2 Y-0.7 J-14.7++G1X28.623597233Y15.496797905Z-1++24++
G2 Y-0.7 J-14.7++G1X28.633437262Y15.397323837Z-1++24++
G2 Y-0.7 J-14.7++G1X28.642600646Y15.297785157Z-1++24++
G2 Y-0.7 J-14.7++G1X28.651086963Y15.198186468Z-1++24++
G2 Y-0.7 J-14.7++G1X28.658895819Y15.098532376Z-1++24++
G2 Y-0.7 J-14.7++G1X28.666026853Y14.998827488Z-1++24++
G2 Y-0.7 J-14.7++G1X28.672479736Y14.899076414Z-1++24++
G2 Y-0.7 J-14.7++G1X28.678254169Y14.799283768Z-1++24++
G2 Y-0.7 J-14.7++G1X28.683349886Y14.699454163Z-1++24++
G2 Y-0.7 J-14.7++G1X28.68776665Y14.599592215Z-1++24++
G2 Y-0.7 J-14.7++G1X28.691504258Y14.499702543Z-1++24++
G2 Y-0.7 J-14.7++G1X28.694562537Y14.399789764Z-1++24++
G2 Y-0.7 J-14.7++G1X28.696941344Y14.2998585Z-1++24++
G2 Y-0.7 J-14.7++G1X28.698640571Y14.19991337Z-1++24++
G2 Y-0.7 J-14.7++G1X28.699660139Y14.099958996Z-1++24++
G2 Y-0.7 J-14.7++G1X28.7Y14Z-1++24++
G2 Y-0.7 J-14.7++G1X28.699660139Y13.900041004Z-1++24++
G2 Y-0.7 J-14.7++G1X28.698640571Y13.80008663Z-1++24++
G2 Y-0.7 J-14.7++G1X28.696941344Y13.7001415Z-1++24++
G2 Y-0.7 J-14.7++G1X28.694562537Y13.600210236Z-1++24++
G2 Y-0.7 J-14.7++G1X28.691504258Y13.500297457Z-1++24++
G2 Y-0.7 J-14.7++G1X28.68776665Y13.400407785Z-1++24++
G2 Y-0.7 J-14.7++G1X28.683349886Y13.300545837Z-1++24++
G2 Y-0.7 J-14.7++G1X28.678254169Y13.200716232Z-1++24++
G2 Y-0.7 J-14.7++G1X28.672479736Y13.100923586Z-1++24++
G2 Y-0.7 J-14.7++G1X28.666026853Y13.001172512Z-1++24++
G2 Y-0.7 J-14.7++G1X28.658895819Y12.901467624Z-1++24++
G2 Y-0.7 J-14.7++G1X28.651086963Y12.801813532Z-1++24++
G2 Y-0.7 J-14.7++G1X28.642600646Y12.702214843Z-1++24++
G2 Y-0.7 J-14.7++G1X28.633437262Y12.602676163Z-1++24++
G2 Y-0.7 J-14.7++G1X28.623597233Y12.503202095Z-1++24++
G2 Y-0.7 J-14.7++G1X28.613081015Y12.403797239Z-1++24++
G2 Y-0.7 J-14.7++G1X28.601889094Y12.30446619Z-1++24++
G2 Y-0.7 J-14.7++G1X28.590021987Y12.205213542Z-1++24++
G2 Y-0.7 J-14.7++G1X28.577480243Y12.106043884Z-1++24++
G2 Y-0.7 J-14.7++G1X28.564264442Y12.006961802Z-1++24++
G2 Y-0.7 J-14.7++G1X28.550375196Y11.907971877Z-1++24++
G2 Y-0.7 J-14.7++G1X28.535813146Y11.809078687Z-1++24++
G2 Y-0.7 J-14.7++G1X28.520578965Y11.710286804Z-1++24++
G2 Y-0.7 J-14.7++G1X28.504673359Y11.611600797Z-1++24++
G2 Y-0.7 J-14.7++G1X28.488097062Y11.513025228Z-1++24++
G2 Y-0.7 J-14.7++G1X28.470850842Y11.414564656Z-1++24++
G2 Y-0.7 J-14.7++G1X28.452935495Y11.316223634Z-1++24++
G2 Y-0.7 J-14.7++G1X28.43435185Y11.218006708Z-1++24++
G2 Y-0.7 J-14.7++G1X28.415100766Y11.11991842Z-1++24++
G2 Y-0.7 J-14.7++G1X28.395183134Y11.021963307Z-1++24++
G2 Y-0.7 J-14.7++G1X28.374599874Y10.924145896Z-1++24++
G2 Y-0.7 J-14.7++G1X28.353351938Y10.826470712Z-1++24++
G2 Y-0.7 J-14.7++G1X28.331440309Y10.728942271Z-1++24++
G2 Y-0.7 J-14.7++G1X28.308866Y10.631565082Z-1++24++
G2 Y-0.7 J-14.7++G1X28.285630054Y10.534343648Z-1++24++
G2 Y-0.7 J-14.7++G1X28.261733547Y10.437282465Z-1++24++
G2 Y-0.7 J-14.7++G1X28.237177583Y10.34038602Z-1++24++
G2 Y-0.7 J-14.7++G1X28.211963297Y10.243658795Z-1++24++
G2 Y-0.7 J-14.7++G1X28.186091855Y10.147105261Z-1++24++
G2 Y-0.7 J-14.7++G1X28.159564455Y10.050729883Z-1++24++
G2 Y-0.7 J-14.7++G1X28.132382321Y9.954537119Z-1++24++
G2 Y-0.7 J-14.7++G1X28.104546712Y9.858531414Z-1++24++
G2 Y-0.7 J-14.7++G1X28.076058914Y9.76271721Z-1++24++
G2 Y-0.7 J-14.7++G1X28.046920245Y9.667098936Z-1++24++
G2 Y-0.7 J-14.7++G1X28.017132052Y9.571681014Z-1++24++
G2 Y-0.7 J-14.7++G1X27.986695712Y9.476467855Z-1++24++
G2 Y-0.7 J-14.7++G1X27.955612633Y9.381463863Z-1++24++
G2 Y-0.7 J-14.7++G1X27.923884251Y9.28667343Z-1++24++
G2 Y-0.7 J-14.7++G1X27.891512035Y9.192100939Z-1++24++
G2 Y-0.7 J-14.7++G1X27.858497481Y9.097750764Z-1++24++
G2 Y-0.7 J-14.7++G1X27.824842115Y9.003627267Z-1++24++
G2 Y-0.7 J-14.7++G1X27.790547494Y8.9097348Z-1++24++
G2 Y-0.7 J-14.7++G1X27.755615204Y8.816077705Z-1++24++
G2 Y-0.7 J-14.7++G1X27.720046859Y8.722660312Z-1++24++
G2 Y-0.7 J-14.7++G1X27.683844105Y8.629486942Z-1++24++
G2 Y-0.7 J-14.7++G1X27.647008615Y8.536561902Z-1++24++
G2 Y-0.7 J-14.7++G1X27.609542093Y8.443889489Z-1++24++
G2 Y-0.7 J-14.7++G1X27.571446271Y8.351473989Z-1++24++
G2 Y-0.7 J-14.7++G1X27.532722911Y8.259319674Z-1++24++
G2 Y-0.7 J-14.7++G1X27.493373803Y8.167430806Z-1++24++
G2 Y-0.7 J-14.7++G1X27.453400767Y8.075811633Z-1++24++
G2 Y-0.7 J-14.7++G1X27.412805651Y7.984466393Z-1++24++
G2 Y-0.7 J-14.7++G1X27.371590332Y7.893399309Z-1++24++
G2 Y-0.7 J-14.7++G1X27.329756716Y7.802614591Z-1++24++
G2 Y-0.7 J-14.7++G1X27.287306737Y7.712116439Z-1++24++
G2 Y-0.7 J-14.7++G1X27.244242358Y7.621909035Z-1++24++
G2 Y-0.7 J-14.7++G1X27.200565571Y7.531996552Z-1++24++
G2 Y-0.7 J-14.7++G1X27.156278395Y7.442383147Z-1++24++
G2 Y-0.7 J-14.7++G1X27.111382878Y7.353072963Z-1++24++
G2 Y-0.7 J-14.7++G1X27.065881095Y7.264070131Z-1++24++
G2 Y-0.7 J-14.7++G1X27.019775152Y7.175378765Z-1++24++
G2 Y-0.7 J-14.7++G1X26.973067179Y7.087002967Z-1++24++
G2 Y-0.7 J-14.7++G1X26.925759336Y6.998946824Z-1++24++
G2 Y-0.7 J-14.7++G1X26.877853812Y6.911214406Z-1++24++
G2 Y-0.7 J-14.7++G1X26.829352821Y6.823809771Z-1++24++
G2 Y-0.7 J-14.7++G1X26.780258605Y6.73673696Z-1++24++
G2 Y-0.7 J-14.7++G1X26.730573436Y6.65Z-1++24++
G2 Y-0.7 J-14.7++G1X26.680299609Y6.563602901Z-1++24++
G2 Y-0.7 J-14.7++G1X26.629439451Y6.477549658Z-1++24++
G2 Y-0.7 J-14.7++G1X26.577995312Y6.39184425Z-1++24++
G2 Y-0.7 J-14.7++G1X26.525969572Y6.30649064Z-1++24++
G2 Y-0.7 J-14.7++G1X26.473364636Y6.221492775Z-1++24++
G2 Y-0.7 J-14.7++G1X26.420182937Y6.136854585Z-1++24++
G2 Y-0.7 J-14.7++G1X26.366426933Y6.052579983Z-1++24++
G2 Y-0.7 J-14.7++G1X26.31209911Y5.968672868Z-1++24++
G2 Y-0.7 J-14.7++G1X26.257201981Y5.885137117Z-1++24++
G2 Y-0.7 J-14.7++G1X26.201738083Y5.801976595Z-1++24++
G2 Y-0.7 J-14.7++G1X26.145709982Y5.719195146Z-1++24++
G2 Y-0.7 J-14.7++G1X26.089120269Y5.636796599Z-1++24++
G2 Y-0.7 J-14.7++G1X26.031971559Y5.554784762Z-1++24++
G2 Y-0.7 J-14.7++G1X25.974266495Y5.473163429Z-1++24++
G2 Y-0.7 J-14.7++G1X25.916007746Y5.391936374Z-1++24++
G2 Y-0.7 J-14.7++G1X25.857198006Y5.311107352Z-1++24++
G2 Y-0.7 J-14.7++G1X25.797839993Y5.230680101Z-1++24++
G2 Y-0.7 J-14.7++G1X25.737936453Y5.15065834Z-1++24++
G2 Y-0.7 J-14.7++G1X25.677490156Y5.071045769Z-1++24++
G2 Y-0.7 J-14.7++G1X25.616503895Y4.991846069Z-1++24++
G2 Y-0.7 J-14.7++G1X25.554980493Y4.913062903Z-1++24++
G2 Y-0.7 J-14.7++G1X25.492922792Y4.834699913Z-1++24++
G2 Y-0.7 J-14.7++G1X25.430333664Y4.756760723Z-1++24++
G2 Y-0.7 J-14.7++G1X25.367216001Y4.679248936Z-1++24++
G2 Y-0.7 J-14.7++G1X25.303572722Y4.602168138Z-1++24++
G2 Y-0.7 J-14.7++G1X25.239406771Y4.525521892Z-1++24++
G2 Y-0.7 J-14.7++G1X25.174721115Y4.449313741Z-1++24++
G2 Y-0.7 J-14.7++G1X25.109518743Y4.373547211Z-1++24++
G2 Y-0.7 J-14.7++G1X25.043802672Y4.298225804Z-1++24++
G2 Y-0.7 J-14.7++G1X24.977575939Y4.223353003Z-1++24++
G2 Y-0.7 J-14.7++G1X24.910841608Y4.148932271Z-1++24++
G2 Y-0.7 J-14.7++G1X24.843602764Y4.074967048Z-1++24++
G2 Y-0.7 J-14.7++G1X24.775862516Y4.001460755Z-1++24++
G2 Y-0.7 J-14.7++G1X24.707623996Y3.92841679Z-1++24++
G2 Y-0.7 J-14.7++G1X24.63889036Y3.855838531Z-1++24++
G2 Y-0.7 J-14.7++G1X24.569664786Y3.783729334Z-1++24++
G2 Y-0.7 J-14.7++G1X24.499950475Y3.712092534Z-1++24++
G2 Y-0.7 J-14.7++G1X24.42975065Y3.640931442Z-1++24++
G2 Y-0.7 J-14.7++G1X24.359068558Y3.57024935Z-1++24++
G2 Y-0.7 J-14.7++G1X24.287907466Y3.500049525Z-1++24++
G2 Y-0.7 J-14.7++G1X24.216270666Y3.430335214Z-1++24++
G2 Y-0.7 J-14.7++G1X24.144161469Y3.36110964Z-1++24++
G2 Y-0.7 J-14.7++G1X24.07158321Y3.292376004Z-1++24++
G2 Y-0.7 J-14.7++G1X23.998539245Y3.224137484Z-1++24++
G2 Y-0.7 J-14.7++G1X23.925032952Y3.156397236Z-1++24++
G2 Y-0.7 J-14.7++G1X23.851067729Y3.089158392Z-1++24++
G2 Y-0.7 J-14.7++G1X23.776646997Y3.022424061Z-1++24++
G2 Y-0.7 J-14.7++G1X23.701774196Y2.956197328Z-1++24++
G2 Y-0.7 J-14.7++G1X23.626452789Y2.890481257Z-1++24++
G2 Y-0.7 J-14.7++G1X23.550686259Y2.825278885Z-1++24++
G2 Y-0.7 J-14.7++G1X23.474478108Y2.760593229Z-1++24++
G2 Y-0.7 J-14.7++G1X23.397831862Y2.696427278Z-1++24++
G2 Y-0.7 J-14.7++G1X23.320751064Y2.632783999Z-1++24++
G2 Y-0.7 J-14.7++G1X23.243239277Y2.569666336Z-1++24++
G2 Y-0.7 J-14.7++G1X23.165300087Y2.507077208Z-1++24++
G2 Y-0.7 J-14.7++G1X23.086937097Y2.445019507Z-1++24++
G2 Y-0.7 J-14.7++G1X23.008153931Y2.383496105Z-1++24++
G2 Y-0.7 J-14.7++G1X22.928954231Y2.322509844Z-1++24++
G2 Y-0.7 J-14.7++G1X22.84934166Y2.262063547Z-1++24++
G2 Y-0.7 J-14.7++G1X22.769319899Y2.202160007Z-1++24++
G2 Y-0.7 J-14.7++G1X22.688892648Y2.142801994Z-1++24++
G2 Y-0.7 J-14.7++G1X22.608063626Y2.083992254Z-1++24++
G2 Y-0.7 J-14.7++G1X22.526836571Y2.025733505Z-1++24++
G2 Y-0.7 J-14.7++G1X22.445215238Y1.968028441Z-1++24++
G2 Y-0.7 J-14.7++G1X22.363203401Y1.910879731Z-1++24++
G2 Y-0.7 J-14.7++G1X22.280804854Y1.854290018Z-1++24++
G2 Y-0.7 J-14.7++G1X22.198023405Y1.798261917Z-1++24++
G2 Y-0.7 J-14.7++G1X22.114862883Y1.742798019Z-1++24++
G2 Y-0.7 J-14.7++G1X22.031327132Y1.68790089Z-1++24++
G2 Y-0.7 J-14.7++G1X21.947420017Y1.633573067Z-1++24++
G2 Y-0.7 J-14.7++G1X21.863145415Y1.579817063Z-1++24++
G2 Y-0.7 J-14.7++G1X21.778507225Y1.526635364Z-1++24++
G2 Y-0.7 J-14.7++G1X21.69350936Y1.474030428Z-1++24++
G2 Y-0.7 J-14.7++G1X21.60815575Y1.422004688Z-1++24++
G2 Y-0.7 J-14.7++G1X21.522450342Y1.370560549Z-1++24++
G2 Y-0.7 J-14.7++G1X21.436397099Y1.319700391Z-1++24++
G2 Y-0.7 J-14.7++G1X21.35Y1.269426564Z-1++24++
G2 Y-0.7 J-14.7++G1X21.26326304Y1.219741395Z-1++24++
G2 Y-0.7 J-14.7++G1X21.176190229Y1.170647179Z-1++24++
G2 Y-0.7 J-14.7++G1X21.088785594Y1.122146188Z-1++24++
G2 Y-0.7 J-14.7++G1X21.001053176Y1.074240664Z-1++24++
G2 Y-0.7 J-14.7++G1X20.912997033Y1.026932821Z-1++24++
G2 Y-0.7 J-14.7++G1X20.824621235Y0.980224848Z-1++24++
G2 Y-0.7 J-14.7++G1X20.735929869Y0.934118905Z-1++24++
G2 Y-0.7 J-14.7++G1X20.646927037Y0.888617122Z-1++24++
G2 Y-0.7 J-14.7++G1X20.557616853Y0.843721605Z-1++24++
G2 Y-0.7 J-14.7++G1X20.468003448Y0.799434429Z-1++24++
G2 Y-0.7 J-14.7++G1X20.378090965Y0.755757642Z-1++24++
G2 Y-0.7 J-14.7++G1X20.287883561Y0.712693263Z-1++24++
G2 Y-0.7 J-14.7++G1X20.197385409Y0.670243284Z-1++24++
G2 Y-0.7 J-14.7++G1X20.106600691Y0.628409668Z-1++24++
G2 Y-0.7 J-14.7++G1X20.015533607Y0.587194349Z-1++24++
G2 Y-0.7 J-14.7++G1X19.924188367Y0.546599233Z-1++24++
G2 Y-0.7 J-14.7++G1X19.832569194Y0.506626197Z-1++24++
G2 Y-0.7 J-14.7++G1X19.740680326Y0.467277089Z-1++24++
G2 Y-0.7 J-14.7++G1X19.648526011Y0.428553729Z-1++24++
G2 Y-0.7 J-14.7++G1X19.556110511Y0.390457907Z-1++24++
G2 Y-0.7 J-14.7++G1X19.463438098Y0.352991385Z-1++24++
G2 Y-0.7 J-14.7++G1X19.370513058Y0.316155895Z-1++24++
G2 Y-0.7 J-14.7++G1X19.277339688Y0.279953141Z-1++24++
G2 Y-0.7 J-14.7++G1X19.183922295Y0.244384796Z-1++24++
G2 Y-0.7 J-14.7++G1X19.0902652Y0.209452506Z-1++24++
G2 Y-0.7 J-14.7++G1X18.996372733Y0.175157885Z-1++24++
G2 Y-0.7 J-14.7++G1X18.902249236Y0.141502519Z-1++24++
G2 Y-0.7 J-14.7++G1X18.807899061Y0.108487965Z-1++24++
G2 Y-0.7 J-14.7++G1X18.71332657Y0.076115749Z-1++24++
G2 Y-0.7 J-14.7++G1X18.618536137Y0.044387367Z-1++24++
G2 Y-0.7 J-14.7++G1X18.523532145Y0.013304288Z-1++24++
G2 Y-0.7 J-14.7++G1X18.428318986Y-0.017132052Z-1++24++
G2 Y-0.7 J-14.7++G1X18.332901064Y-0.046920245Z-1++24++
G2 Y-0.7 J-14.7++G1X18.23728279Y-0.076058914Z-1++24++
G2 Y-0.7 J-14.7++G1X18.141468586Y-0.104546712Z-1++24++
G2 Y-0.7 J-14.7++G1X18.045462881Y-0.132382321Z-1++24++
G2 Y-0.7 J-14.7++G1X17.949270117Y-0.159564455Z-1++24++
G2 Y-0.7 J-14.7++G1X17.852894739Y-0.186091855Z-1++24++
G2 Y-0.7 J-14.7++G1X17.756341205Y-0.211963297Z-1++24++
G2 Y-0.7 J-14.7++G1X17.65961398Y-0.237177583Z-1++24++
G2 Y-0.7 J-14.7++G1X17.562717535Y-0.261733547Z-1++24++
G2 Y-0.7 J-14.7++G1X17.465656352Y-0.285630054Z-1++24++
G2 Y-0.7 J-14.7++G1X17.368434918Y-0.308866Z-1++24++
G2 Y-0.7 J-14.7++G1X17.271057729Y-0.331440309Z-1++24++
G2 Y-0.7 J-14.7++G1X17.173529288Y-0.353351938Z-1++24++
G2 Y-0.7 J-14.7++G1X17.075854104Y-0.374599874Z-1++24++
G2 Y-0.7 J-14.7++G1X16.978036693Y-0.395183134Z-1++24++
G2 Y-0.7 J-14.7++G1X16.88008158Y-0.415100766Z-1++24++
G2 Y-0.7 J-14.7++G1X16.781993292Y-0.43435185Z-1++24++
G2 Y-0.7 J-14.7++G1X16.683776366Y-0.452935495Z-1++24++
G2 Y-0.7 J-14.7++G1X16.585435344Y-0.470850842Z-1++24++
G2 Y-0.7 J-14.7++G1X16.486974772Y-0.488097062Z-1++24++
G2 Y-0.7 J-14.7++G1X16.388399203Y-0.504673359Z-1++24++
G2 Y-0.7 J-14.7++G1X16.289713196Y-0.520578965Z-1++24++
G2 Y-0.7 J-14.7++G1X16.190921313Y-0.535813146Z-1++24++
G2 Y-0.7 J-14.7++G1X16.092028123Y-0.550375196Z-1++24++
G2 Y-0.7 J-14.7++G1X15.993038198Y-0.564264442Z-1++24++
G2 Y-0.7 J-14.7++G1X15.893956116Y-0.577480243Z-1++24++
G2 Y-0.7 J-14.7++G1X15.794786458Y-0.590021987Z-1++24++
G2 Y-0.7 J-14.7++G1X15.69553381Y-0.601889094Z-1++24++
G2 Y-0.7 J-14.7++G1X15.596202761Y-0.613081015Z-1++24++
G2 Y-0.7 J-14.7++G1X15.496797905Y-0.623597233Z-1++24++
G2 Y-0.7 J-14.7++G1X15.397323837Y-0.633437262Z-1++24++
G2 Y-0.7 J-14.7++G1X15.297785157Y-0.642600646Z-1++24++
G2 Y-0.7 J-14.7++G1X15.198186468Y-0.651086963Z-1++24++
G2 Y-0.7 J-14.7++G1X15.098532376Y-0.658895819Z-1++24++
G2 Y-0.7 J-14.7++G1X14.998827488Y-0.666026853Z-1++24++
G2 Y-0.7 J-14.7++G1X14.899076414Y-0.672479736Z-1++24++
G2 Y-0.7 J-14.7++G1X14.799283768Y-0.678254169Z-1++24++
G2 Y-0.7 J-14.7++G1X14.699454163Y-0.683349886Z-1++24++
G2 Y-0.7 J-14.7++G1X14.599592215Y-0.68776665Z-1++24++
G2 Y-0.7 J-14.7++G1X14.499702543Y-0.691504258Z-1++24++
G2 Y-0.7 J-14.7++G1X14.399789764Y-0.694562537Z-1++24++
G2 Y-0.7 J-14.7++G1X14.2998585Y-0.696941344Z-1++24++
G2 Y-0.7 J-14.7++G1X14.19991337Y-0.698640571Z-1++24++
G2 Y-0.7 J-14.7++G1X14.099958996Y-0.699660139Z-1++24++
G2 Y-0.7 J-14.7++G1X14Y-0.7Z-1++24++
Y28.7 J14.7++G1X13.900041004Y-0.699660139Z-1F200.0++25++
Y28.7 J14.7++G1X13.80008663Y-0.698640571Z-1++25++
Y28.7 J14.7++G1X13.7001415Y-0.696941344Z-1++25++
Y28.7 J14.7++G1X13.600210236Y-0.694562537Z-1++25++
Y28.7 J14.7++G1X13.500297457Y-0.691504258Z-1++25++
Y28.7 J14.7++G1X13.400407785Y-0.68776665Z-1++25++
Y28.7 J14.7++G1X13.300545837Y-0.683349886Z-1++25++
Y28.7 J14.7++G1X13.200716232Y-0.678254169Z-1++25++
Y28.7 J14.7++G1X13.100923586Y-0.672479736Z-1++25++
Y28.7 J14.7++G1X13.001172512Y-0.666026853Z-1++25++
Y28.7 J14.7++G1X12.901467624Y-0.658895819Z-1++25++
Y28.7 J14.7++G1X12.801813532Y-0.651086963Z-1++25++
Y28.7 J14.7++G1X12.702214843Y-0.642600646Z-1++25++
Y28.7 J14.7++G1X12.602676163Y-0.633437262Z-1++25++
Y28.7 J14.7++G1X12.503202095Y-0.623597233Z-1++25++
Y28.7 J14.7++G1X12.403797239Y-0.613081015Z-1++25++
Y28.7 J14.7++G1X12.30446619Y-0.601889094Z-1++25++
Y28.7 J14.7++G1X12.205213542Y-0.590021987Z-1++25++
Y28.7 J14.7++G1X12.106043884Y-0.577480243Z-1++25++
Y28.7 J14.7++G1X12.006961802Y-0.564264442Z-1++25++
Y28.7 J14.7++G1X11.907971877Y-0.550375196Z-1++25++
Y28.7 J14.7++G1X11.809078687Y-0.535813146Z-1++25++
Y28.7 J14.7++G1X11.710286804Y-0.520578965Z-1++25++
Y28.7 J14.7++G1X11.611600797Y-0.504673359Z-1++25++
Y28.7 J14.7++G1X11.513025228Y-0.488097062Z-1++25++
Y28.7 J14.7++G1X11.414564656Y-0.470850842Z-1++25++
Y28.7 J14.7++G1X11.316223634Y-0.452935495Z-1++25++
Y28.7 J14.7++G1X11.218006708Y-0.43435185Z-1++25++
Y28.7 J14.7++G1X11.11991842Y-0.415100766Z-1++25++
Y28.7 J14.7++G1X11.021963307Y-0.395183134Z-1++25++
Y28.7 J14.7++G1X10.924145896Y-0.374599874Z-1++25++
Y28.7 J14.7++G1X10.826470712Y-0.353351938Z-1++25++
Y28.7 J14.7++G1X10.728942271Y-0.331440309Z-1++25++
Y28.7 J14.7++G1X10.631565082Y-0.308866Z-1++25++
Y28.7 J14.7++G1X10.534343648Y-0.285630054Z-1++25++
Y28.7 J14.7++G1X10.437282465Y-0.261733547Z-1++25++
Y28.7 J14.7++G1X10.34038602Y-0.237177583Z-1++25++
Y28.7 J14.7++G1X10.243658795Y-0.211963297Z-1++25++
Y28.7 J14.7++G1X10.147105261Y-0.186091855Z-1++25++
Y28.7 J14.7++G1X10.050729883Y-0.159564455Z-1++25++
Y28.7 J14.7++G1X9.954537119Y-0.132382321Z-1++25++
Y28.7 J14.7++G1X9.858531414Y-0.104546712Z-1++25++
Y28.7 J14.7++G1X9.76271721Y-0.076058914Z-1++25++
Y28.7 J14.7++G1X9.667098936Y-0.046920245Z-1++25++
Y28.7 J14.7++G1X9.571681014Y-0.017132052Z-1++25++
Y28.7 J14.7++G1X9.476467855Y0.013304288Z-1++25++
Y28.7 J14.7++G1X9.381463863Y0.044387367Z-1++25++
Y28.7 J14.7++G1X9.28667343Y0.076115749Z-1++25++
Y28.7 J14.7++G1X9.192100939Y0.108487965Z-1++25++
Y28.7 J14.7++G1X9.097750764Y0.141502519Z-1++25++
Y28.7 J14.7++G1X9.003627267Y0.175157885Z-1++25++
Y28.7 J14.7++G1X8.9097348Y0.209452506Z-1++25++
Y28.7 J14.7++G1X8.816077705Y0.244384796Z-1++25++
Y28.7 J14.7++G1X8.722660312Y0.279953141Z-1++25++
Y28.7 J14.7++G1X8.629486942Y0.316155895Z-1++25++
Y28.7 J14.7++G1X8.536561902Y0.352991385Z-1++25++
Y28.7 J14.7++G1X8.443889489Y0.390457907Z-1++25++
Y28.7 J14.7++G1X8.351473989Y0.428553729Z-1++25++
Y28.7 J14.7++G1X8.259319674Y0.467277089Z-1++25++
Y28.7 J14.7++G1X8.167430806Y0.506626197Z-1++25++
Y28.7 J14.7++G1X8.075811633Y0.546599233Z-1++25++
Y28.7 J14.7++G1X7.984466393Y0.587194349Z-1++25++
Y28.7 J14.7++G1X7.893399309Y0.628409668Z-1++25++
Y28.7 J14.7++G1X7.802614591Y0.670243284Z-1++25++
Y28.7 J14.7++G1X7.712116439Y0.712693263Z-1++25++
Y28.7 J14.7++G1X7.621909035Y0.755757642Z-1++25++
Y28.7 J14.7++G1X7.531996552Y0.799434429Z-1++25++
Y28.7 J14.7++G1X7.442383147Y0.843721605Z-1++25++
Y28.7 J14.7++G1X7.353072963Y0.888617122Z-1++25++
Y28.7 J14.7++G1X7.264070131Y0.934118905Z-1++25++
Y28.7 J14.7++G1X7.175378765Y0.980224848Z-1++25++
Y28.7 J14.7++G1X7.087002967Y1.026932821Z-1++25++
Y28.7 J14.7++G1X6.998946824Y1.074240664Z-1++25++
Y28.7 J14.7++G1X6.911214406Y1.122146188Z-1++25++
Y28.7 J14.7++G1X6.823809771Y1.170647179Z-1++25++
Y28.7 J14.7++G1X6.73673696Y1.219741395Z-1++25++
Y28.7 J14.7++G1X6.65Y1.269426564Z-1++25++
Y28.7 J14.7++G1X6.563602901Y1.319700391Z-1++25++
Y28.7 J14.7++G1X6.477549658Y1.370560549Z-1++25++
Y28.7 J14.7++G1X6.39184425Y1.422004688Z-1++25++
Y28.7 J14.7++G1X6.30649064Y1.474030428Z-1++25++
Y28.7 J14.7++G1X6.221492775Y1.526635364Z-1++25++
Y28.7 J14.7++G1X6.136854585Y1.579817063Z-1++25++
Y28.7 J14.7++G1X6.052579983Y1.633573067Z-1++25++
Y28.7 J14.7++G1X5.968672868Y1.68790089Z-1++25++
Y28.7 J14.7++G1X5.885137117Y1.742798019Z-1++25++
Y28.7 J14.7++G1X5.801976595Y1.798261917Z-1++25++
Y28.7 J14.7++G1X5.719195146Y1.854290018Z-1++25++
Y28.7 J14.7++G1X5.636796599Y1.910879731Z-1++25++
Y28.7 J14.7++G1X5.554784762Y1.968028441Z-1++25++
Y28.7 J14.7++G1X5.473163429Y2.025733505Z-1++25++
Y28.7 J14.7++G1X5.391936374Y2.083992254Z-1++25++
Y28.7 J14.7++G1X5.311107352Y2.142801994Z-1++25++
Y28.7 J14.7++G1X5.230680101Y2.202160007Z-1++25++
Y28.7 J14.7++G1X5.15065834Y2.262063547Z-1++25++
Y28.7 J14.7++G1X5.071045769Y2.322509844Z-1++25++
Y28.7 J14.7++G1X4.991846069Y2.383496105Z-1++25++
Y28.7 J14.7++G1X4.913062903Y2.445019507Z-1++25++
Y28.7 J14.7++G1X4.834699913Y2.507077208Z-1++25++
Y28.7 J14.7++G1X4.756760723Y2.569666336Z-1++25++
Y28.7 J14.7++G1X4.679248936Y2.632783999Z-1++25++
Y28.7 J14.7++G1X4.602168138Y2.696427278Z-1++25++
Y28.7 J14.7++G1X4.525521892Y2.760593229Z-1++25++
Y28.7 J14.7++G1X4.449313741Y2.825278885Z-1++25++
Y28.7 J14.7++G1X4.373547211Y2.890481257Z-1++25++
Y28.7 J14.7++G1X4.298225804Y2.956197328Z-1++25++
Y28.7 J14.7++G1X4.223353003Y3.022424061Z-1++25++
Y28.7 J14.7++G1X4.148932271Y3.089158392Z-1++25++
Y28.7 J14.7++G1X4.074967048Y3.156397236Z-1++25++
Y28.7 J14.7++G1X4.001460755Y3.224137484Z-1++25++
Y28.7 J14.7++G1X3.92841679Y3.292376004Z-1++25++
Y28.7 J14.7++G1X3.855838531Y3.36110964Z-1++25++
Y28.7 J14.7++G1X3.783729334Y3.430335214Z-1++25++
Y28.7 J14.7++G1X3.712092534Y3.500049525Z-1++25++
Y28.7 J14.7++G1X3.640931442Y3.57024935Z-1++25++
Y28.7 J14.7++G1X3.57024935Y3.640931442Z-1++25++
Y28.7 J14.7++G1X3.500049525Y3.712092534Z-1++25++
Y28.7 J14.7++G1X3.430335214Y3.783729334Z-1++25++
Y28.7 J14.7++G1X3.36110964Y3.855838531Z-1++25++
Y28.7 J14.7++G1X3.292376004Y3.92841679Z-1++25++
Y28.7 J14.7++G1X3.224137484Y4.001460755Z-1++25++
Y28.7 J14.7++G1X3.156397236Y4.074967048Z-1++25++
Y28.7 J14.7++G1X3.089158392Y4.148932271Z-1++25++
Y28.7 J14.7++G1X3.022424061Y4.223353003Z-1++25++
Y28.7 J14.7++G1X2.956197328Y4.298225804Z-1++25++
Y28.7 J14.7++G1X2.890481257Y4.373547211Z-1++25++
Y28.7 J14.7++G1X2.825278885Y4.449313741Z-1++25++
Y28.7 J14.7++G1X2.760593229Y4.525521892Z-1++25++
Y28.7 J14.7++G1X2.696427278Y4.602168138Z-1++25++
Y28.7 J14.7++G1X2.632783999Y4.679248936Z-1++25++
Y28.7 J14.7++G1X2.569666336Y4.756760723Z-1++25++
Y28.7 J14.7++G1X2.507077208Y4.834699913Z-1++25++
Y28.7 J14.7++G1X2.445019507Y4.913062903Z-1++25++
Y28.7 J14.7++G1X2.383496105Y4.991846069Z-1++25++
Y28.7 J14.7++G1X2.322509844Y5.071045769Z-1++25++
Y28.7 J14.7++G1X2.262063547Y5.15065834Z-1++25++
Y28.7 J14.7++G1X2.202160007Y5.230680101Z-1++25++
Y28.7 J14.7++G1X2.142801994Y5.311107352Z-1++25++
Y28.7 J14.7++G1X2.083992254Y5.391936374Z-1++25++
Y28.7 J14.7++G1X2.025733505Y5.473163429Z-1++25++
Y28.7 J14.7++G1X1.968028441Y5.554784762Z-1++25++
Y28.7 J14.7++G1X1.910879731Y5.636796599Z-1++25++
Y28.7 J14.7++G1X1.854290018Y5.719195146Z-1++25++
Y28.7 J14.7++G1X1.798261917Y5.801976595Z-1++25++
Y28.7 J14.7++G1X1.742798019Y5.885137117Z-1++25++
Y28.7 J14.7++G1X1.68790089Y5.968672868Z-1++25++
Y28.7 J14.7++G1X1.633573067Y6.052579983Z-1++25++
Y28.7 J14.7++G1X1.579817063Y6.136854585Z-1++25++
Y28.7 J14.7++G1X1.526635364Y6.221492775Z-1++25++
Y28.7 J14.7++G1X1.474030428Y6.30649064Z-1++25++
Y28.7 J14.7++G1X1.422004688Y6.39184425Z-1++25++
Y28.7 J14.7++G1X1.370560549Y6.477549658Z-1++25++
Y28.7 J14.7++G1X1.319700391Y6.563602901Z-1++25++
Y28.7 J14.7++G1X1.269426564Y6.65Z-1++25++
Y28.7 J14.7++G1X1.219741395Y6.73673696Z-1++25++
Y28.7 J14.7++G1X1.170647179Y6.823809771Z-1++25++
Y28.7 J14.7++G1X1.122146188Y6.911214406Z-1++25++
Y28.7 J14.7++G1X1.074240664Y6.998946824Z-1++25++
Y28.7 J14.7++G1X1.026932821Y7.087002967Z-1++25++
Y28.7 J14.7++G1X0.980224848Y7.175378765Z-1++25++
Y28.7 J14.7++G1X0.934118905Y7.264070131Z-1++25++
Y28.7 J14.7++G1X0.888617122Y7.353072963Z-1++25++
Y28.7 J14.7++G1X0.843721605Y7.442383147Z-1++25++
Y28.7 J14.7++G1X0.799434429Y7.531996552Z-1++25++
Y28.7 J14.7++G1X0.755757642Y7.621909035Z-1++25++
Y28.7 J14.7++G1X0.712693263Y7.712116439Z-1++25++
Y28.7 J14.7++G1X0.670243284Y7.802614591Z-1++25++
Y28.7 J14.7++G1X0.628409668Y7.893399309Z-1++25++
Y28.7 J14.7++G1X0.587194349Y7.984466393Z-1++25++
Y28.7 J14.7++G1X0.546599233Y8.075811633Z-1++25++
Y28.7 J14.7++G1X0.506626197Y8.167430806Z-1++25++
Y28.7 J14.7++G1X0.467277089Y8.259319674Z-1++25++
Y28.7 J14.7++G1X0.428553729Y8.351473989Z-1++25++
Y28.7 J14.7++G1X0.390457907Y8.443889489Z-1++25++
Y28.7 J14.7++G1X0.352991385Y8.536561902Z-1++25++
Y28.7 J14.7++G1X0.316155895Y8.629486942Z-1++25++
Y28.7 J14.7++G1X0.279953141Y8.722660312Z-1++25++
Y28.7 J14.7++G1X0.244384796Y8.816077705Z-1++25++
Y28.7 J14.7++G1X0.209452506Y8.9097348Z-1++25++
Y28.7 J14.7++G1X0.175157885Y9.003627267Z-1++25++
Y28.7 J14.7++G1X0.141502519Y9.097750764Z-1++25++
Y28.7 J14.7++G1X0.108487965Y9.192100939Z-1++25++
Y28.7 J14.7++G1X0.076115749Y9.28667343Z-1++25++
Y28.7 J14.7++G1X0.044387367Y9.381463863Z-1++25++
Y28.7 J14.7++G1X0.013304288Y9.476467855Z-1++25++
Y28.7 J14.7++G1X-0.017132052Y9.571681014Z-1++25++
Y28.7 J14.7++G1X-0.046920245Y9.667098936Z-1++25++
Y28.7 J14.7++G1X-0.076058914Y9.76271721Z-1++25++
Y28.7 J14.7++G1X-0.104546712Y9.858531414Z-1++25++
Y28.7 J14.7++G1X-0.132382321Y9.954537119Z-1++25++
Y28.7 J14.7++G1X-0.159564455Y10.050729883Z-1++25++
Y28.7 J14.7++G1X-0.186091855Y10.147105261Z-1++25++
Y28.7 J14.7++G1X-0.211963297Y10.243658795Z-1++25++
Y28.7 J14.7++G1X-0.237177583Y10.34038602Z-1++25++
Y28.7 J14.7++G1X-0.261733547Y10.437282465Z-1++25++
Y28.7 J14.7++G1X-0.285630054Y10.534343648Z-1++25++
Y28.7 J14.7++G1X-0.308866Y10.631565082Z-1++25++
Y28.7 J14.7++G1X-0.331440309Y10.728942271Z-1++25++
Y28.7 J14.7++G1X-0.353351938Y10.826470712Z-1++25++
Y28.7 J14.7++G1X-0.374599874Y10.924145896Z-1++25++
Y28.7 J14.7++G1X-0.395183134Y11.021963307Z-1++25++
Y28.7 J14.7++G1X-0.415100766Y11.11991842Z-1++25++
Y28.7 J14.7++G1X-0.43435185Y11.218006708Z-1++25++
Y28.7 J14.7++G1X-0.452935495Y11.316223634Z-1++25++
Y28.7 J14.7++G1X-0.470850842Y11.414564656Z-1++25++
Y28.7 J14.7++G1X-0.488097062Y11.513025228Z-1++25++
Y28.7 J14.7++G1X-0.504673359Y11.611600797Z-1++25++
Y28.7 J14.7++G1X-0.520578965Y11.710286804Z-1++25++
Y28.7 J14.7++G1X-0.535813146Y11.809078687Z-1++25++
Y28.7 J14.7++G1X-0.550375196Y11.907971877Z-1++25++
Y28.7 J14.7++G1X-0.564264442Y12.006961802Z-1++25++
Y28.7 J14.7++G1X-0.577480243Y12.106043884Z-1++25++
Y28.7 J14.7++G1X-0.590021987Y12.205213542Z-1++25++
Y28.7 J14.7++G1X-0.601889094Y12.30446619Z-1++25++
Y28.7 J14.7++G1X-0.613081015Y12.403797239Z-1++25++
Y28.7 J14.7++G1X-0.623597233Y12.503202095Z-1++25++
Y28.7 J14.7++G1X-0.633437262Y12.602676163Z-1++25++
Y28.7 J14.7++G1X-0.642600646Y12.702214843Z-1++25++
Y28.7 J14.7++G1X-0.651086963Y12.801813532Z-1++25++
Y28.7 J14.7++G1X-0.658895819Y12.901467624Z-1++25++
Y28.7 J14.7++G1X-0.666026853Y13.001172512Z-1++25++
Y28.7 J14.7++G1X-0.672479736Y13.100923586Z-1++25++
Y28.7 J14.7++G1X-0.678254169Y13.200716232Z-1++25++
Y28.7 J14.7++G1X-0.683349886Y13.300545837Z-1++25++
Y28.7 J14.7++G1X-0.68776665Y13.400407785Z-1++25++
Y28.7 J14.7++G1X-0.691504258Y13.500297457Z-1++25++
Y28.7 J14.7++G1X-0.694562537Y13.600210236Z-1++25++
Y28.7 J14.7++G1X-0.696941344Y13.7001415Z-1++25++
Y28.7 J14.7++G1X-0.698640571Y13.80008663Z-1++25++
Y28.7 J14.7++G1X-0.699660139Y13.900041004Z-1++25++
Y28.7 J14.7++G1X-0.7Y14Z-1++25++
Y28.7 J14.7++G1X-0.699660139Y14.099958996Z-1++25++
Y28.7 J14.7++G1X-0.698640571Y14.19991337Z-1++25++
Y28.7 J14.7++G1X-0.696941344Y14.2998585Z-1++25++
Y28.7 J14.7++G1X-0.694562537Y14.399789764Z-1++25++
Y28.7 J14.7++G1X-0.691504258Y14.499702543Z-1++25++
Y28.7 J14.7++G1X-0.68776665Y14.599592215Z-1++25++
Y28.7 J14.7++G1X-0.683349886Y14.699454163Z-1++25++
Y28.7 J14.7++G1X-0.678254169Y14.799283768Z-1++25++
Y28.7 J14.7++G1X-0.672479736Y14.899076414Z-1++25++
Y28.7 J14.7++G1X-0.666026853Y14.998827488Z-1++25++
Y28.7 J14.7++G1X-0.658895819Y15.098532376Z-1++25++
Y28.7 J14.7++G1X-0.651086963Y15.198186468Z-1++25++
Y28.7 J14.7++G1X-0.642600646Y15.297785157Z-1++25++
Y28.7 J14.7++G1X-0.633437262Y15.397323837Z-1++25++
Y28.7 J14.7++G1X-0.623597233Y15.496797905Z-1++25++
Y28.7 J14.7++G1X-0.613081015Y15.596202761Z-1++25++
Y28.7 J14.7++G1X-0.601889094Y15.69553381Z-1++25++
Y28.7 J14.7++G1X-0.590021987Y15.794786458Z-1++25++
Y28.7 J14.7++G1X-0.577480243Y15.893956116Z-1++25++
Y28.7 J14.7++G1X-0.564264442Y15.993038198Z-1++25++
Y28.7 J14.7++G1X-0.550375196Y16.092028123Z-1++25++
Y28.7 J14.7++G1X-0.535813146Y16.190921313Z-1++25++
Y28.7 J14.7++G1X-0.520578965Y16.289713196Z-1++25++
Y28.7 J14.7++G1X-0.504673359Y16.388399203Z-1++25++
Y28.7 J14.7++G1X-0.488097062Y16.486974772Z-1++25++
Y28.7 J14.7++G1X-0.470850842Y16.585435344Z-1++25++
Y28.7 J14.7++G1X-0.452935495Y16.683776366Z-1++25++
Y28.7 J14.7++G1X-0.43435185Y16.781993292Z-1++25++
Y28.7 J14.7++G1X-0.415100766Y16.88008158Z-1++25++
Y28.7 J14.7++G1X-0.395183134Y16.978036693Z-1++25++
Y28.7 J14.7++G1X-0.374599874Y17.075854104Z-1++25++
Y28.7 J14.7++G1X-0.353351938Y17.173529288Z-1++25++
Y28.7 J14.7++G1X-0.331440309Y17.271057729Z-1++25++
Y28.7 J14.7++G1X-0.308866Y17.368434918Z-1++25++
Y28.7 J14.7++G1X-0.285630054Y17.465656352Z-1++25++
Y28.7 J14.7++G1X-0.261733547Y17.562717535Z-1++25++
Y28.7 J14.7++G1X-0.237177583Y17.65961398Z-1++25++
Y28.7 J14.7++G1X-0.211963297Y17.756341205Z-1++25++
Y28.7 J14.7++G1X-0.186091855Y17.852894739Z-1++25++
Y28.7 J14.7++G1X-0.159564455Y17.949270117Z-1++25++
Y28.7 J14.7++G1X-0.132382321Y18.045462881Z-1++25++
Y28.7 J14.7++G1X-0.104546712Y18.141468586Z-1++25++
Y28.7 J14.7++G1X-0.076058914Y18.23728279Z-1++25++
Y28.7 J14.7++G1X-0.046920245Y18.332901064Z-1++25++
Y28.7 J14.7++G1X-0.017132052Y18.428318986Z-1++25++
Y28.7 J14.7++G1X0.013304288Y18.523532145Z-1++25++
Y28.7 J14.7++G1X0.044387367Y18.618536137Z-1++25++
Y28.7 J14.7++G1X0.076115749Y18.71332657Z-1++25++
Y28.7 J14.7++G1X0.108487965Y18.807899061Z-1++25++
Y28.7 J14.7++G1X0.141502519Y18.902249236Z-1++25++
Y28.7 J14.7++G1X0.175157885Y18.996372733Z-1++25++
Y28.7 J14.7++G1X0.209452506Y19.0902652Z-1++25++
Y28.7 J14.7++G1X0.244384796Y19.183922295Z-1++25++
Y28.7 J14.7++G1X0.279953141Y19.277339688Z-1++25++
Y28.7 J14.7++G1X0.316155895Y19.370513058Z-1++25++
Y28.7 J14.7++G1X0.352991385Y19.463438098Z-1++25++
Y28.7 J14.7++G1X0.390457907Y19.556110511Z-1++25++
Y28.7 J14.7++G1X0.428553729Y19.648526011Z-1++25++
Y28.7 J14.7++G1X0.467277089Y19.740680326Z-1++25++
Y28.7 J14.7++G1X0.506626197Y19.832569194Z-1++25++
Y28.7 J14.7++G1X0.546599233Y19.924188367Z-1++25++
Y28.7 J14.7++G1X0.587194349Y20.015533607Z-1++25++
Y28.7 J14.7++G1X0.628409668Y20.106600691Z-1++25++
Y28.7 J14.7++G1X0.670243284Y20.197385409Z-1++25++
Y28.7 J14.7++G1X0.712693263Y20.287883561Z-1++25++
Y28.7 J14.7++G1X0.755757642Y20.378090965Z-1++25++
Y28.7 J14.7++G1X0.799434429Y20.468003448Z-1++25++
Y28.7 J14.7++G1X0.843721605Y20.557616853Z-1++25++
Y28.7 J14.7++G1X0.888617122Y20.646927037Z-1++25++
Y28.7 J14.7++G1X0.934118905Y20.735929869Z-1++25++
Y28.7 J14.7++G1X0.980224848Y20.824621235Z-1++25++
Y28.7 J14.7++G1X1.026932821Y20.912997033Z-1++25++
Y28.7 J14.7++G1X1.074240664Y21.001053176Z-1++25++
Y28.7 J14.7++G1X1.122146188Y21.088785594Z-1++25++
Y28.7 J14.7++G1X1.170647179Y21.176190229Z-1++25++
Y28.7 J14.7++G1X1.219741395Y21.26326304Z-1++25++
Y28.7 J14.7++G1X1.269426564Y21.35Z-1++25++
Y28.7 J14.7++G1X1.319700391Y21.436397099Z-1++25++
Y28.7 J14.7++G1X1.370560549Y21.522450342Z-1++25++
Y28.7 J14.7++G1X1.422004688Y21.60815575Z-1++25++
Y28.7 J14.7++G1X1.474030428Y21.69350936Z-1++25++
Y28.7 J14.7++G1X1.526635364Y21.778507225Z-1++25++
Y28.7 J14.7++G1X1.579817063Y21.863145415Z-1++25++
Y28.7 J14.7++G1X1.633573067Y21.947420017Z-1++25++
Y28.7 J14.7++G1X1.68790089Y22.031327132Z-1++25++
Y28.7 J14.7++G1X1.742798019Y22.114862883Z-1++25++
Y28.7 J14.7++G1X1.798261917Y22.198023405Z-1++25++
Y28.7 J14.7++G1X1.854290018Y22.280804854Z-1++25++
Y28.7 J14.7++G1X1.910879731Y22.363203401Z-1++25++
Y28.7 J14.7++G1X1.968028441Y22.445215238Z-1++25++
Y28.7 J14.7++G1X2.025733505Y22.526836571Z-1++25++
Y28.7 J14.7++G1X2.083992254Y22.608063626Z-1++25++
Y28.7 J14.7++G1X2.142801994Y22.688892648Z-1++25++
Y28.7 J14.7++G1X2.202160007Y22.769319899Z-1++25++
Y28.7 J14.7++G1X2.262063547Y22.84934166Z-1++25++
Y28.7 J14.7++G1X2.322509844Y22.928954231Z-1++25++
Y28.7 J14.7++G1X2.383496105Y23.008153931Z-1++25++
Y28.7 J14.7++G1X2.445019507Y23.086937097Z-1++25++
Y28.7 J14.7++G1X2.507077208Y23.165300087Z-1++25++
Y28.7 J14.7++G1X2.569666336Y23.243239277Z-1++25++
Y28.7 J14.7++G1X2.632783999Y23.320751064Z-1++25++
Y28.7 J14.7++G1X2.696427278Y23.397831862Z-1++25++
Y28.7 J14.7++G1X2.760593229Y23.474478108Z-1++25++
Y28.7 J14.7++G1X2.825278885Y23.550686259Z-1++25++
Y28.7 J14.7++G1X2.890481257Y23.626452789Z-1++25++
Y28.7 J14.7++G1X2.956197328Y23.701774196Z-1++25++
Y28.7 J14.7++G1X3.022424061Y23.776646997Z-1++25++
Y28.7 J14.7++G1X3.089158392Y23.851067729Z-1++25++
Y28.7 J14.7++G1X3.156397236Y23.925032952Z-1++25++
Y28.7 J14.7++G1X3.224137484Y23.998539245Z-1++25++
Y28.7 J14.7++G1X3.292376004Y24.07158321Z-1++25++
Y28.7 J14.7++G1X3.36110964Y24.144161469Z-1++25++
Y28.7 J14.7++G1X3.430335214Y24.216270666Z-1++25++
Y28.7 J14.7++G1X3.500049525Y24.287907466Z-1++25++
Y28.7 J14.7++G1X3.57024935Y24.359068558Z-1++25++
Y28.7 J14.7++G1X3.640931442Y24.42975065Z-1++25++
Y28.7 J14.7++G1X3.712092534Y24.499950475Z-1++25++
Y28.7 J14.7++G1X3.783729334Y24.569664786Z-1++25++
Y28.7 J14.7++G1X3.855838531Y24.63889036Z-1++25++
Y28.7 J14.7++G1X3.92841679Y24.707623996Z-1++25++
Y28.7 J14.7++G1X4.001460755Y24.775862516Z-1++25++
Y28.7 J14.7++G1X4.074967048Y24.843602764Z-1++25++
Y28.7 J14.7++G1X4.148932271Y24.910841608Z-1++25++
Y28.7 J14.7++G1X4.223353003Y24.977575939Z-1++25++
Y28.7 J14.7++G1X4.298225804Y25.043802672Z-1++25++
Y28.7 J14.7++G1X4.373547211Y25.109518743Z-1++25++
Y28.7 J14.7++G1X4.449313741Y25.174721115Z-1++25++
Y28.7 J14.7++G1X4.525521892Y25.239406771Z-1++25++
Y28.7 J14.7++G1X4.602168138Y25.303572722Z-1++25++
Y28.7 J14.7++G1X4.679248936Y25.367216001Z-1++25++
Y28.7 J14.7++G1X4.756760723Y25.430333664Z-1++25++
Y28.7 J14.7++G1X4.834699913Y25.492922792Z-1++25++
Y28.7 J14.7++G1X4.913062903Y25.554980493Z-1++25++
Y28.7 J14.7++G1X4.991846069Y25.616503895Z-1++25++
Y28.7 J14.7++G1X5.071045769Y25.677490156Z-1++25++
Y28.7 J14.7++G1X5.15065834Y25.737936453Z-1++25++
Y28.7 J14.7++G1X5.230680101Y25.797839993Z-1++25++
Y28.7 J14.7++G1X5.311107352Y25.857198006Z-1++25++
Y28.7 J14.7++G1X5.391936374Y25.916007746Z-1++25++
Y28.7 J14.7++G1X5.473163429Y25.974266495Z-1++25++
Y28.7 J14.7++G1X5.554784762Y26.031971559Z-1++25++
Y28.7 J14.7++G1X5.636796599Y26.089120269Z-1++25++
Y28.7 J14.7++G1X5.719195146Y26.145709982Z-1++25++
Y28.7 J14.7++G1X5.801976595Y26.201738083Z-1++25++
Y28.7 J14.7++G1X5.885137117Y26.257201981Z-1++25++
Y28.7 J14.7++G1X5.968672868Y26.31209911Z-1++25++
Y28.7 J14.7++G1X6.052579983Y26.366426933Z-1++25++
Y28.7 J14.7++G1X6.136854585Y26.420182937Z-1++25++
Y28.7 J14.7++G1X6.221492775Y26.473364636Z-1++25++
Y28.7 J14.7++G1X6.30649064Y26.525969572Z-1++25++
Y28.7 J14.7++G1X6.39184425Y26.577995312Z-1++25++
Y28.7 J14.7++G1X6.477549658Y26.629439451Z-1++25++
Y28.7 J14.7++G1X6.563602901Y26.680299609Z-1++25++
Y28.7 J14.7++G1X6.65Y26.730573436Z-1++25++
Y28.7 J14.7++G1X6.73673696Y26.780258605Z-1++25++
Y28.7 J14.7++G1X6.823809771Y26.829352821Z-1++25++
Y28.7 J14.7++G1X6.911214406Y26.877853812Z-1++25++
Y28.7 J14.7++G1X6.998946824Y26.925759336Z-1++25++
Y28.7 J14.7++G1X7.087002967Y26.973067179Z-1++25++
Y28.7 J14.7++G1X7.175378765Y27.019775152Z-1++25++
Y28.7 J14.7++G1X7.264070131Y27.065881095Z-1++25++
Y28.7 J14.7++G1X7.353072963Y27.111382878Z-1++25++
Y28.7 J14.7++G1X7.442383147Y27.156278395Z-1++25++
Y28.7 J14.7++G1X7.531996552Y27.200565571Z-1++25++
Y28.7 J14.7++G1X7.621909035Y27.244242358Z-1++25++
Y28.7 J14.7++G1X7.712116439Y27.287306737Z-1++25++
Y28.7 J14.7++G1X7.802614591Y27.329756716Z-1++25++
Y28.7 J14.7++G1X7.893399309Y27.371590332Z-1++25++
Y28.7 J14.7++G1X7.984466393Y27.412805651Z-1++25++
Y28.7 J14.7++G1X8.075811633Y27.453400767Z-1++25++
Y28.7 J14.7++G1X8.167430806Y27.493373803Z-1++25++
Y28.7 J14.7++G1X8.259319674Y27.532722911Z-1++25++
Y28.7 J14.7++G1X8.351473989Y27.571446271Z-1++25++
Y28.7 J14.7++G1X8.443889489Y27.609542093Z-1++25++
Y28.7 J14.7++G1X8.536561902Y27.647008615Z-1++25++
Y28.7 J14.7++G1X8.629486942Y27.683844105Z-1++25++
Y28.7 J14.7++G1X8.722660312Y27.720046859Z-1++25++
Y28.7 J14.7++G1X8.816077705Y27.755615204Z-1++25++
Y28.7 J14.7++G1X8.9097348Y27.790547494Z-1++25++
Y28.7 J14.7++G1X9.003627267Y27.824842115Z-1++25++
Y28.7 J14.7++G1X9.097750764Y27.858497481Z-1++25++
Y28.7 J14.7++G1X9.192100939Y27.891512035Z-1++25++
Y28.7 J14.7++G1X9.28667343Y27.923884251Z-1++25++
Y28.7 J14.7++G1X9.381463863Y27.955612633Z-1++25++
Y28.7 J14.7++G1X9.476467855Y27.986695712Z-1++25++
Y28.7 J14.7++G1X9.571681014Y28.017132052Z-1++25++
Y28.7 J14.7++G1X9.667098936Y28.046920245Z-1++25++
Y28.7 J14.7++G1X9.76271721Y28.076058914Z-1++25++
Y28.7 J14.7++G1X9.858531414Y28.104546712Z-1++25++
Y28.7 J14.7++G1X9.954537119Y28.132382321Z-1++25++
Y28.7 J14.7++G1X10.050729883Y28.159564455Z-1++25++
Y28.7 J14.7++G1X10.147105261Y28.186091855Z-1++25++
Y28.7 J14.7++G1X10.243658795Y28.211963297Z-1++25++
Y28.7 J14.7++G1X10.34038602Y28.237177583Z-1++25++
Y28.7 J14.7++G1X10.437282465Y28.261733547Z-1++25++
Y28.7 J14.7++G1X10.534343648Y28.285630054Z-1++25++
Y28.7 J14.7++G1X10.631565082Y28.308866Z-1++25++
Y28.7 J14.7++G1X10.728942271Y28.331440309Z-1++25++
Y28.7 J14.7++G1X10.826470712Y28.353351938Z-1++25++
Y28.7 J14.7++G1X10.924145896Y28.374599874Z-1++25++
Y28.7 J14.7++G1X11.021963307Y28.395183134Z-1++25++
Y28.7 J14.7++G1X11.11991842Y28.415100766Z-1++25++
Y28.7 J14.7++G1X11.218006708Y28.43435185Z-1++25++
Y28.7 J14.7++G1X11.316223634Y28.452935495Z-1++25++
Y28.7 J14.7++G1X11.414564656Y28.470850842Z-1++25++
Y28.7 J14.7++G1X11.513025228Y28.488097062Z-1++25++
Y28.7 J14.7++G1X11.611600797Y28.504673359Z-1++25++
Y28.7 J14.7++G1X11.710286804Y28.520578965Z-1++25++
Y28.7 J14.7++G1X11.809078687Y28.535813146Z-1++25++
Y28.7 J14.7++G1X11.907971877Y28.550375196Z-1++25++
Y28.7 J14.7++G1X12.006961802Y28.564264442Z-1++25++
Y28.7 J14.7++G1X12.106043884Y28.577480243Z-1++25++
Y28.7 J14.7++G1X12.205213542Y28.590021987Z-1++25++
Y28.7 J14.7++G1X12.30446619Y28.601889094Z-1++25++
Y28.7 J14.7++G1X12.403797239Y28.613081015Z-1++25++
Y28.7 J14.7++G1X12.503202095Y28.623597233Z-1++25++
Y28.7 J14.7++G1X12.602676163Y28.633437262Z-1++25++
Y28.7 J14.7++G1X12.702214843Y28.642600646Z-1++25++
Y28.7 J14.7++G1X12.801813532Y28.651086963Z-1++25++
Y28.7 J14.7++G1X12.901467624Y28.658895819Z-1++25++
Y28.7 J14.7++G1X13.001172512Y28.666026853Z-1++25++
Y28.7 J14.7++G1X13.100923586Y28.672479736Z-1++25++
Y28.7 J14.7++G1X13.200716232Y28.678254169Z-1++25++
Y28.7 J14.7++G1X13.300545837Y28.683349886Z-1++25++
Y28.7 J14.7++G1X13.400407785Y28.68776665Z-1++25++
Y28.7 J14.7++G1X13.500297457Y28.691504258Z-1++25++
Y28.7 J14.7++G1X13.600210236Y28.694562537Z-1++25++
Y28.7 J14.7++G1X13.7001415Y28.696941344Z-1++25++
Y28.7 J14.7++G1X13.80008663Y28.698640571Z-1++25++
Y28.7 J14.7++G1X13.900041004Y28.699660139Z-1++25++
Y28.7 J14.7++G1X14Y28.7Z-1++25++
G3 X14.14 Y28.84 J0.14++G1X14.07Y28.718756443Z-1F200.0++26++
G3 X14.14 Y28.84 J0.14++G1X14.121243557Y28.77Z-1++26++
G3 X14.14 Y28.84 J0.14++G1X14.14Y28.84Z-1++26++
G1 Y28.98++G1 Y28.98++27++
G19 G3 Y29.12 Z-0.86 K0.14++G19++28++
G19 G3 Y29.12 Z-0.86 K0.14++G1X14.14Y29.05Z-0.981243557F200.0++28++
G19 G3 Y29.12 Z-0.86 K0.14++G1X14.14Y29.101243557Z-0.93++28++
G19 G3 Y29.12 Z-0.86 K0.14++G1X14.14Y29.12Z-0.86++28++
G0 Z10++G0X14.14Y29.12Z0.1273++29++
G0 Z10++G0X14.14Y29.12Z1.1145++29++
G0 Z10++G0X14.14Y29.12Z2.1018++29++
G0 Z10++G0X14.14Y29.12Z3.0891++29++
G0 Z10++G0X14.14Y29.12Z4.0764++29++
G0 Z10++G0X14.14Y29.12Z5.0636++29++
G0 Z10++G0X14.14Y29.12Z6.0509++29++
G0 Z10++G0X14.14Y29.12Z7.0382++29++
G0 Z10++G0X14.14Y29.12Z8.0255++29++
G0 Z10++G0X14.14Y29.12Z9.0127++29++
G0 Z10++G0X14.14Y29.12Z10++29++
S0 M5++S0 M5++30++
G17++G17++31++
M9++M9++32++
G28 G91 Z0++G28 G91 Z0++33++
G28 X0 Y0++G28 X0 Y0++34++
M30++M30++35++
++++36++
++++37++
